; generated by Slic3r 0.9.10 on 2014-06-25 at 06:12:44

; layer_height = 0.2
; perimeters = 2
; top_solid_layers = 3
; bottom_solid_layers = 3
; fill_density = 0.1
; perimeter_speed = 150
; infill_speed = 300
; travel_speed = 500
; nozzle_diameter = 0.35
; filament_diameter = 1.75
; extrusion_multiplier = 1.00
; perimeters extrusion width = 0.52mm
; infill extrusion width = 0.52mm
; solid infill extrusion width = 0.52mm
; top infill extrusion width = 0.52mm
; first layer extrusion width = 0.10mm

G21 ; set units to millimeters
M107
M104 S220 ; set temperature

M109 S220 ; wait for temperature to be reached
G90 ; use absolute coordinates
G92 E0
M82 ; use absolute distances for extrusion
G1 F18000.000 E-1.00000
G92 E0
G1 Z0.100 F30000.000
G1 X19.990 Y27.370
G1 F18000.000 E1.00000
G1 X-20.000 Y27.380 F5400.000 E1.25546
G1 X-21.440 Y27.240 E1.26470
G1 X-22.820 Y26.820 E1.27391
G1 X-24.100 Y26.140 E1.28317
G1 X-25.220 Y25.220 E1.29243
G1 X-26.140 Y24.100 E1.30169
G1 X-26.820 Y22.830 E1.31089
G1 X-27.240 Y21.440 E1.32017
G1 X-27.380 Y20.000 E1.32941
G1 X-27.380 Y-20.000 E1.58493
G1 X-27.240 Y-21.440 E1.59418
G1 X-26.820 Y-22.830 E1.60345
G1 X-26.140 Y-24.100 E1.61265
G1 X-25.220 Y-25.220 E1.62191
G1 X-24.100 Y-26.140 E1.63117
G1 X-22.830 Y-26.820 E1.64037
G1 X-21.440 Y-27.240 E1.64965
G1 X-20.000 Y-27.380 E1.65889
G1 X19.990 Y-27.380 E1.91435
G1 X21.430 Y-27.240 E1.92359
G1 X22.820 Y-26.820 E1.93287
G1 X24.090 Y-26.140 E1.94207
G1 X25.210 Y-25.220 E1.95133
G1 X26.130 Y-24.100 E1.96059
G1 X26.810 Y-22.830 E1.96979
G1 X27.230 Y-21.440 E1.97907
G1 X27.370 Y-20.000 E1.98831
G1 X27.370 Y19.990 E2.24377
G1 X27.230 Y21.430 E2.25301
G1 X26.810 Y22.810 E2.26222
G1 X26.130 Y24.090 E2.27148
G1 X25.210 Y25.210 E2.28074
G1 X24.090 Y26.130 E2.29000
G1 X22.820 Y26.810 E2.29920
G1 X21.430 Y27.230 E2.30848
G1 X20.013 Y27.368 E2.31757
G1 X19.990 Y27.220 F30000.000
G1 X-20.000 Y27.230 F5400.000 E2.57303
G1 X-21.410 Y27.090 E2.58208
G1 X-22.770 Y26.680 E2.59116
G1 X-24.020 Y26.010 E2.60022
G1 X-25.110 Y25.110 E2.60925
G1 X-26.010 Y24.020 E2.61828
G1 X-26.680 Y22.770 E2.62734
G1 X-27.090 Y21.410 E2.63641
G1 X-27.230 Y20.000 E2.64546
G1 X-27.230 Y-20.000 E2.90098
G1 X-27.090 Y-21.410 E2.91004
G1 X-26.680 Y-22.770 E2.91911
G1 X-26.010 Y-24.020 E2.92817
G1 X-25.110 Y-25.110 E2.93720
G1 X-24.020 Y-26.010 E2.94623
G1 X-22.770 Y-26.680 E2.95529
G1 X-21.410 Y-27.090 E2.96436
G1 X-20.000 Y-27.230 E2.97341
G1 X19.990 Y-27.230 E3.22887
G1 X21.400 Y-27.090 E3.23792
G1 X22.760 Y-26.680 E3.24700
G1 X24.010 Y-26.010 E3.25606
G1 X25.100 Y-25.110 E3.26509
G1 X26.000 Y-24.020 E3.27412
G1 X26.670 Y-22.770 E3.28318
G1 X27.080 Y-21.410 E3.29225
G1 X27.220 Y-20.000 E3.30130
G1 X27.220 Y19.990 E3.55676
G1 X27.080 Y21.400 E3.56581
G1 X26.670 Y22.760 E3.57488
G1 X26.000 Y24.010 E3.58394
G1 X25.100 Y25.100 E3.59297
G1 X24.010 Y26.000 E3.60200
G1 X22.760 Y26.670 E3.61106
G1 X21.400 Y27.080 E3.62014
G1 X20.013 Y27.218 E3.62904
G1 X19.990 Y27.070 F30000.000
G1 X-20.000 Y27.080 F5400.000 E3.88450
G1 X-21.380 Y26.940 E3.89336
G1 X-22.710 Y26.540 E3.90223
G1 X-23.930 Y25.880 E3.91109
G1 X-25.000 Y25.000 E3.91994
G1 X-25.880 Y23.930 E3.92879
G1 X-26.540 Y22.710 E3.93765
G1 X-26.940 Y21.380 E3.94653
G1 X-27.080 Y20.000 E3.95539
G1 X-27.080 Y-20.000 E4.21091
G1 X-26.940 Y-21.380 E4.21977
G1 X-26.540 Y-22.710 E4.22864
G1 X-25.880 Y-23.930 E4.23750
G1 X-25.000 Y-25.000 E4.24635
G1 X-23.930 Y-25.880 E4.25520
G1 X-22.710 Y-26.540 E4.26406
G1 X-21.380 Y-26.940 E4.27293
G1 X-20.000 Y-27.080 E4.28180
G1 X19.990 Y-27.080 E4.53725
G1 X21.370 Y-26.940 E4.54611
G1 X22.700 Y-26.540 E4.55499
G1 X23.920 Y-25.880 E4.56385
G1 X24.990 Y-25.000 E4.57270
G1 X25.870 Y-23.930 E4.58155
G1 X26.530 Y-22.710 E4.59041
G1 X26.930 Y-21.380 E4.59928
G1 X27.070 Y-20.000 E4.60814
G1 X27.070 Y19.990 E4.86360
G1 X26.930 Y21.370 E4.87246
G1 X26.530 Y22.700 E4.88133
G1 X25.870 Y23.920 E4.89019
G1 X24.990 Y24.990 E4.89904
G1 X23.920 Y25.870 E4.90789
G1 X22.700 Y26.530 E4.91675
G1 X21.370 Y26.930 E4.92562
G1 X20.013 Y27.068 E4.93434
G1 X19.990 Y26.910 F30000.000
G1 X-20.000 Y26.920 F5400.000 E5.18980
G1 X-21.350 Y26.790 E5.19846
G1 X-22.650 Y26.400 E5.20713
G1 X-23.840 Y25.760 E5.21576
G1 X-24.890 Y24.900 E5.22443
G1 X-25.750 Y23.850 E5.23310
G1 X-26.390 Y22.650 E5.24179
G1 X-26.790 Y21.350 E5.25048
G1 X-26.920 Y20.000 E5.25914
G1 X-26.920 Y-20.000 E5.51466
G1 X-26.790 Y-21.350 E5.52333
G1 X-26.400 Y-22.650 E5.53200
G1 X-25.760 Y-23.850 E5.54068
G1 X-24.890 Y-24.890 E5.54935
G1 X-23.850 Y-25.760 E5.55801
G1 X-22.650 Y-26.400 E5.56670
G1 X-21.350 Y-26.790 E5.57537
G1 X-20.000 Y-26.920 E5.58403
G1 X19.990 Y-26.920 E5.83949
G1 X21.340 Y-26.790 E5.84815
G1 X22.640 Y-26.400 E5.85682
G1 X23.840 Y-25.760 E5.86551
G1 X24.880 Y-24.890 E5.87417
G1 X25.750 Y-23.850 E5.88283
G1 X26.390 Y-22.650 E5.89152
G1 X26.780 Y-21.350 E5.90019
G1 X26.910 Y-20.000 E5.90885
G1 X26.910 Y19.990 E6.16431
G1 X26.780 Y21.340 E6.17298
G1 X26.390 Y22.640 E6.18165
G1 X25.750 Y23.840 E6.19033
G1 X24.890 Y24.880 E6.19895
G1 X23.840 Y25.740 E6.20762
G1 X22.640 Y26.380 E6.21631
G1 X21.340 Y26.780 E6.22500
G1 X20.013 Y26.908 E6.23352
G1 X19.990 Y26.760 F30000.000
G1 X-20.000 Y26.770 F5400.000 E6.48898
G1 X-21.320 Y26.640 E6.49745
G1 X-22.590 Y26.250 E6.50593
G1 X-23.760 Y25.630 E6.51439
G1 X-24.790 Y24.790 E6.52288
G1 X-25.630 Y23.760 E6.53137
G1 X-26.250 Y22.590 E6.53983
G1 X-26.640 Y21.320 E6.54832
G1 X-26.770 Y20.000 E6.55679
G1 X-26.770 Y-20.000 E6.81231
G1 X-26.640 Y-21.320 E6.82079
G1 X-26.250 Y-22.590 E6.82927
G1 X-25.630 Y-23.760 E6.83773
G1 X-24.790 Y-24.790 E6.84622
G1 X-23.760 Y-25.630 E6.85471
G1 X-22.590 Y-26.250 E6.86317
G1 X-21.320 Y-26.640 E6.87166
G1 X-20.000 Y-26.770 E6.88013
G1 X19.990 Y-26.770 E7.13559
G1 X21.310 Y-26.640 E7.14406
G1 X22.580 Y-26.250 E7.15255
G1 X23.750 Y-25.630 E7.16101
G1 X24.780 Y-24.790 E7.16950
G1 X25.620 Y-23.760 E7.17799
G1 X26.240 Y-22.590 E7.18645
G1 X26.630 Y-21.320 E7.19493
G1 X26.760 Y-20.000 E7.20341
G1 X26.760 Y19.990 E7.45886
G1 X26.630 Y21.310 E7.46734
G1 X26.240 Y22.580 E7.47582
G1 X25.620 Y23.750 E7.48428
G1 X24.780 Y24.780 E7.49277
G1 X23.750 Y25.620 E7.50126
G1 X22.580 Y26.240 E7.50972
G1 X21.310 Y26.630 E7.51821
G1 X20.013 Y26.758 E7.52653
G1 X19.990 Y26.600 F30000.000
G1 X-20.000 Y26.610 F5400.000 E7.78199
G1 X-21.290 Y26.490 E7.79027
G1 X-22.530 Y26.110 E7.79855
G1 X-23.670 Y25.500 E7.80681
G1 X-24.680 Y24.680 E7.81512
G1 X-25.500 Y23.680 E7.82338
G1 X-26.110 Y22.530 E7.83170
G1 X-26.490 Y21.290 E7.83998
G1 X-26.610 Y20.000 E7.84826
G1 X-26.610 Y-20.000 E8.10378
G1 X-26.490 Y-21.290 E8.11206
G1 X-26.110 Y-22.530 E8.12034
G1 X-25.500 Y-23.670 E8.12860
G1 X-24.680 Y-24.680 E8.13691
G1 X-23.670 Y-25.500 E8.14522
G1 X-22.530 Y-26.110 E8.15348
G1 X-21.290 Y-26.490 E8.16177
G1 X-20.000 Y-26.610 E8.17004
G1 X19.990 Y-26.610 E8.42550
G1 X21.280 Y-26.490 E8.43378
G1 X22.520 Y-26.110 E8.44206
G1 X23.660 Y-25.500 E8.45032
G1 X24.670 Y-24.680 E8.45863
G1 X25.490 Y-23.670 E8.46694
G1 X26.100 Y-22.530 E8.47520
G1 X26.480 Y-21.290 E8.48349
G1 X26.600 Y-20.000 E8.49176
G1 X26.600 Y19.990 E8.74722
G1 X26.480 Y21.280 E8.75550
G1 X26.100 Y22.520 E8.76378
G1 X25.490 Y23.660 E8.77204
G1 X24.670 Y24.670 E8.78035
G1 X23.670 Y25.490 E8.78861
G1 X22.520 Y26.100 E8.79693
G1 X21.280 Y26.480 E8.80521
G1 X20.013 Y26.598 E8.81334
G1 X19.990 Y26.450 F30000.000
G1 X-20.000 Y26.460 F5400.000 E9.06880
G1 X-21.260 Y26.340 E9.07689
G1 X-22.470 Y25.970 E9.08497
G1 X-23.590 Y25.370 E9.09309
G1 X-24.570 Y24.570 E9.10117
G1 X-25.370 Y23.590 E9.10925
G1 X-25.970 Y22.470 E9.11737
G1 X-26.340 Y21.260 E9.12545
G1 X-26.460 Y20.000 E9.13353
G1 X-26.460 Y-20.000 E9.38906
G1 X-26.340 Y-21.260 E9.39714
G1 X-25.970 Y-22.470 E9.40522
G1 X-25.370 Y-23.590 E9.41334
G1 X-24.570 Y-24.570 E9.42142
G1 X-23.590 Y-25.370 E9.42950
G1 X-22.470 Y-25.970 E9.43762
G1 X-21.260 Y-26.340 E9.44570
G1 X-20.000 Y-26.460 E9.45379
G1 X19.990 Y-26.460 E9.70925
G1 X21.250 Y-26.340 E9.71733
G1 X22.460 Y-25.970 E9.72541
G1 X23.580 Y-25.370 E9.73353
G1 X24.560 Y-24.570 E9.74161
G1 X25.360 Y-23.590 E9.74969
G1 X25.960 Y-22.470 E9.75781
G1 X26.330 Y-21.260 E9.76589
G1 X26.450 Y-20.000 E9.77398
G1 X26.450 Y19.990 E10.02944
G1 X26.330 Y21.250 E10.03752
G1 X25.960 Y22.460 E10.04560
G1 X25.360 Y23.580 E10.05372
G1 X24.560 Y24.560 E10.06180
G1 X23.580 Y25.360 E10.06988
G1 X22.460 Y25.960 E10.07800
G1 X21.250 Y26.330 E10.08608
G1 X20.013 Y26.448 E10.09402
G1 X19.990 Y26.300 F30000.000
G1 X-20.000 Y26.310 F5400.000 E10.34948
G1 X-21.230 Y26.190 E10.35737
G1 X-22.410 Y25.830 E10.36525
G1 X-23.500 Y25.240 E10.37317
G1 X-24.460 Y24.460 E10.38107
G1 X-25.240 Y23.500 E10.38897
G1 X-25.830 Y22.410 E10.39689
G1 X-26.190 Y21.230 E10.40477
G1 X-26.310 Y20.000 E10.41267
G1 X-26.310 Y-20.000 E10.66819
G1 X-26.190 Y-21.230 E10.67608
G1 X-25.830 Y-22.410 E10.68396
G1 X-25.240 Y-23.500 E10.69188
G1 X-24.460 Y-24.460 E10.69978
G1 X-23.500 Y-25.240 E10.70769
G1 X-22.410 Y-25.830 E10.71560
G1 X-21.230 Y-26.190 E10.72348
G1 X-20.000 Y-26.310 E10.73138
G1 X19.990 Y-26.310 E10.98684
G1 X21.220 Y-26.190 E10.99473
G1 X22.400 Y-25.830 E11.00261
G1 X23.490 Y-25.240 E11.01053
G1 X24.450 Y-24.460 E11.01843
G1 X25.230 Y-23.500 E11.02633
G1 X25.820 Y-22.410 E11.03425
G1 X26.180 Y-21.230 E11.04213
G1 X26.300 Y-20.000 E11.05003
G1 X26.300 Y19.990 E11.30548
G1 X26.180 Y21.220 E11.31338
G1 X25.820 Y22.400 E11.32126
G1 X25.230 Y23.490 E11.32918
G1 X24.450 Y24.450 E11.33708
G1 X23.490 Y25.230 E11.34498
G1 X22.400 Y25.820 E11.35290
G1 X21.220 Y26.180 E11.36078
G1 X20.013 Y26.298 E11.36853
G1 X19.990 Y26.140 F30000.000
G1 X-20.000 Y26.150 F5400.000 E11.62398
G1 X-21.370 Y26.000 E11.63279
G1 X-22.670 Y25.540 E11.64160
G1 X-23.840 Y24.810 E11.65041
G1 X-24.810 Y23.840 E11.65917
G1 X-25.540 Y22.670 E11.66798
G1 X-26.000 Y21.370 E11.67679
G1 X-26.150 Y20.000 E11.68559
G1 X-26.150 Y-20.000 E11.94111
G1 X-26.000 Y-21.370 E11.94992
G1 X-25.540 Y-22.670 E11.95873
G1 X-24.810 Y-23.840 E11.96754
G1 X-23.840 Y-24.810 E11.97630
G1 X-22.670 Y-25.540 E11.98511
G1 X-21.370 Y-26.000 E11.99392
G1 X-20.000 Y-26.150 E12.00272
G1 X19.990 Y-26.150 E12.25818
G1 X21.360 Y-26.000 E12.26698
G1 X22.660 Y-25.540 E12.27579
G1 X23.830 Y-24.810 E12.28460
G1 X24.800 Y-23.840 E12.29336
G1 X25.530 Y-22.670 E12.30217
G1 X25.990 Y-21.370 E12.31098
G1 X26.140 Y-20.000 E12.31979
G1 X26.140 Y19.990 E12.57524
G1 X25.990 Y21.360 E12.58405
G1 X25.530 Y22.660 E12.59286
G1 X24.800 Y23.830 E12.60167
G1 X23.830 Y24.800 E12.61043
G1 X22.660 Y25.530 E12.61924
G1 X21.360 Y25.990 E12.62805
G1 X20.013 Y26.137 E12.63671
G1 F18000.000 E11.63671
G92 E0
G1 X19.770 Y19.770 F30000.000
G1 F18000.000 E1.00000
G1 X-19.770 Y19.770 F5400.000 E1.25258
G1 X-19.770 Y-19.770 E1.50515
G1 X19.770 Y-19.770 E1.75773
G1 X19.770 Y19.746 E2.01016
G1 X19.923 Y19.923 F30000.000
G1 X-19.923 Y19.923 F5400.000 E2.26470
G1 X-19.923 Y-19.923 E2.51924
G1 X19.923 Y-19.923 E2.77378
G1 X19.923 Y19.900 E3.02817
G1 X19.790 Y19.846 F30000.000
G1 X-19.505 Y19.658
G1 X-19.658 Y19.505 F9180.000 E3.02956
G1 X-19.658 Y19.287 E3.03096
G1 X-19.287 Y19.658 E3.03431
G1 X-19.069 Y19.658 E3.03571
G1 X-19.658 Y19.069 E3.04103
G1 X-19.658 Y18.852 E3.04242
G1 X-18.852 Y19.658 E3.04972
G1 X-18.634 Y19.658 E3.05111
G1 X-19.658 Y18.634 E3.06037
G1 X-19.658 Y18.417 E3.06176
G1 X-18.417 Y19.658 E3.07299
G1 X-18.199 Y19.658 E3.07439
G1 X-19.658 Y18.199 E3.08759
G1 X-19.658 Y17.982 E3.08898
G1 X-17.982 Y19.658 E3.10414
G1 X-17.764 Y19.658 E3.10554
G1 X-19.658 Y17.764 E3.12267
G1 X-19.658 Y17.546 E3.12406
G1 X-17.546 Y19.658 E3.14316
G1 X-17.329 Y19.658 E3.14456
G1 X-19.658 Y17.329 E3.16563
G1 X-19.658 Y17.111 E3.16702
G1 X-17.111 Y19.658 E3.19006
G1 X-16.894 Y19.658 E3.19145
G1 X-19.658 Y16.894 E3.21646
G1 X-19.658 Y16.676 E3.21785
G1 X-16.676 Y19.658 E3.24482
G1 X-16.459 Y19.658 E3.24621
G1 X-19.658 Y16.459 E3.27516
G1 X-19.658 Y16.241 E3.27655
G1 X-16.241 Y19.658 E3.30746
G1 X-16.023 Y19.658 E3.30885
G1 X-19.658 Y16.023 E3.34173
G1 X-19.658 Y15.806 E3.34312
G1 X-15.806 Y19.658 E3.37797
G1 X-15.588 Y19.658 E3.37936
G1 X-19.658 Y15.588 E3.41618
G1 X-19.658 Y15.371 E3.41757
G1 X-15.371 Y19.658 E3.45635
G1 X-15.153 Y19.658 E3.45774
G1 X-19.658 Y15.153 E3.49850
G1 X-19.658 Y14.936 E3.49989
G1 X-14.936 Y19.658 E3.54261
G1 X-14.718 Y19.658 E3.54400
G1 X-19.658 Y14.718 E3.58869
G1 X-19.658 Y14.500 E3.59008
G1 X-14.500 Y19.658 E3.63673
G1 X-14.283 Y19.658 E3.63813
G1 X-19.658 Y14.283 E3.68675
G1 X-19.658 Y14.065 E3.68814
G1 X-14.065 Y19.658 E3.73873
G1 X-13.848 Y19.658 E3.74013
G1 X-19.658 Y13.848 E3.79269
G1 X-19.658 Y13.630 E3.79408
G1 X-13.630 Y19.658 E3.84860
G1 X-13.413 Y19.658 E3.85000
G1 X-19.658 Y13.413 E3.90649
G1 X-19.658 Y13.195 E3.90788
G1 X-13.195 Y19.658 E3.96635
G1 X-12.977 Y19.658 E3.96774
G1 X-19.658 Y12.977 E4.02817
G1 X-19.658 Y12.760 E4.02956
G1 X-12.760 Y19.658 E4.09196
G1 X-12.542 Y19.658 E4.09336
G1 X-19.658 Y12.542 E4.15772
G1 X-19.658 Y12.325 E4.15912
G1 X-12.325 Y19.658 E4.22545
G1 X-12.107 Y19.658 E4.22684
G1 X-19.658 Y12.107 E4.29515
G1 X-19.658 Y11.890 E4.29654
G1 X-11.890 Y19.658 E4.36681
G1 X-11.672 Y19.658 E4.36820
G1 X-19.658 Y11.672 E4.44045
G1 X-19.658 Y11.454 E4.44184
G1 X-11.454 Y19.658 E4.51605
G1 X-11.237 Y19.658 E4.51744
G1 X-19.658 Y11.237 E4.59361
G1 X-19.658 Y11.019 E4.59501
G1 X-11.019 Y19.658 E4.67315
G1 X-10.802 Y19.658 E4.67454
G1 X-19.658 Y10.802 E4.75466
G1 X-19.658 Y10.584 E4.75605
G1 X-10.584 Y19.658 E4.83813
G1 X-10.367 Y19.658 E4.83952
G1 X-19.658 Y10.367 E4.92357
G1 X-19.658 Y10.149 E4.92496
G1 X-10.149 Y19.658 E5.01098
G1 X-9.931 Y19.658 E5.01237
G1 X-19.658 Y9.931 E5.10035
G1 X-19.658 Y9.714 E5.10175
G1 X-9.714 Y19.658 E5.19170
G1 X-9.496 Y19.658 E5.19309
G1 X-19.658 Y9.496 E5.28501
G1 X-19.658 Y9.279 E5.28640
G1 X-9.279 Y19.658 E5.38029
G1 X-9.061 Y19.658 E5.38168
G1 X-19.658 Y9.061 E5.47754
G1 X-19.658 Y8.844 E5.47893
G1 X-8.844 Y19.658 E5.57676
G1 X-8.626 Y19.658 E5.57815
G1 X-19.658 Y8.626 E5.67794
G1 X-19.658 Y8.408 E5.67934
G1 X-8.408 Y19.658 E5.78110
G1 X-8.191 Y19.658 E5.78249
G1 X-19.658 Y8.191 E5.88622
G1 X-19.658 Y7.973 E5.88761
G1 X-7.973 Y19.658 E5.99331
G1 X-7.756 Y19.658 E5.99470
G1 X-19.658 Y7.756 E6.10237
G1 X-19.658 Y7.538 E6.10376
G1 X-7.538 Y19.658 E6.21339
G1 X-7.321 Y19.658 E6.21478
G1 X-19.658 Y7.321 E6.32639
G1 X-19.658 Y7.103 E6.32778
G1 X-7.103 Y19.658 E6.44135
G1 X-6.885 Y19.658 E6.44274
G1 X-19.658 Y6.885 E6.55828
G1 X-19.658 Y6.668 E6.55967
G1 X-6.668 Y19.658 E6.67717
G1 X-6.450 Y19.658 E6.67857
G1 X-19.658 Y6.450 E6.79804
G1 X-19.658 Y6.233 E6.79943
G1 X-6.233 Y19.658 E6.92087
G1 X-6.015 Y19.658 E6.92227
G1 X-19.658 Y6.015 E7.04568
G1 X-19.658 Y5.798 E7.04707
G1 X-5.798 Y19.658 E7.17245
G1 X-5.580 Y19.658 E7.17384
G1 X-19.658 Y5.580 E7.30118
G1 X-19.658 Y5.362 E7.30258
G1 X-5.362 Y19.658 E7.43189
G1 X-5.145 Y19.658 E7.43328
G1 X-19.658 Y5.145 E7.56457
G1 X-19.658 Y4.927 E7.56596
G1 X-4.927 Y19.658 E7.69921
G1 X-4.710 Y19.658 E7.70060
G1 X-19.658 Y4.710 E7.83582
G1 X-19.658 Y4.492 E7.83721
G1 X-4.492 Y19.658 E7.97440
G1 X-4.275 Y19.658 E7.97579
G1 X-19.658 Y4.275 E8.11494
G1 X-19.658 Y4.057 E8.11634
G1 X-4.057 Y19.658 E8.25746
G1 X-3.839 Y19.658 E8.25885
G1 X-19.658 Y3.839 E8.40194
G1 X-19.658 Y3.622 E8.40333
G1 X-3.622 Y19.658 E8.54839
G1 X-3.404 Y19.658 E8.54978
G1 X-19.658 Y3.404 E8.69681
G1 X-19.658 Y3.187 E8.69820
G1 X-3.187 Y19.658 E8.84720
G1 X-2.969 Y19.658 E8.84859
G1 X-19.658 Y2.969 E8.99955
G1 X-19.658 Y2.752 E9.00094
G1 X-2.752 Y19.658 E9.15388
G1 X-2.534 Y19.658 E9.15527
G1 X-19.658 Y2.534 E9.31017
G1 X-19.658 Y2.316 E9.31156
G1 X-2.316 Y19.658 E9.46843
G1 X-2.099 Y19.658 E9.46982
G1 X-19.658 Y2.099 E9.62865
G1 X-19.658 Y1.881 E9.63004
G1 X-1.881 Y19.658 E9.79085
G1 X-1.664 Y19.658 E9.79224
G1 X-19.658 Y1.664 E9.95501
G1 X-19.658 Y1.446 E9.95640
G1 X-1.446 Y19.658 E10.12114
G1 X-1.228 Y19.658 E10.12253
G1 X-19.658 Y1.229 E10.28924
G1 X-19.658 Y1.011 E10.29063
G1 X-1.011 Y19.658 E10.45931
G1 X-0.793 Y19.658 E10.46070
G1 X-19.658 Y0.793 E10.63135
G1 X-19.658 Y0.576 E10.63274
G1 X-0.576 Y19.658 E10.80535
G1 X-0.358 Y19.658 E10.80674
G1 X-19.658 Y0.358 E10.98132
G1 X-19.658 Y0.141 E10.98271
