; generated by Slic3r 1.1.7 on 2014-09-20 at 11:39:02

; perimeters extrusion width = 0.35mm
; infill extrusion width = 0.98mm
; solid infill extrusion width = 0.59mm
; top infill extrusion width = 0.59mm

G21 ; set units to millimeters
M107
M190 S70 ; wait for bed temperature to be reached
M104 S200 ; set temperature

M109 S200 ; wait for temperature to be reached
G90 ; use absolute coordinates
G92 E0
M82 ; use absolute distances for extrusion
G1 Z0.100 F15000.000
G1 X72.370 Y79.157 F15000.000
G1 X72.900 Y78.677 E0.01116 F3600.000
G1 X77.038 Y75.372 E0.09380
G1 X80.102 Y73.393 E0.15071
G1 X82.666 Y71.923 E0.19682
G1 X86.234 Y70.145 E0.25902
G1 X91.190 Y68.281 E0.34164
G1 X96.314 Y66.945 E0.42425
G1 X99.127 Y66.499 E0.46870
G1 X101.550 Y66.151 E0.50689
G1 X105.193 Y65.969 E0.56380
G1 X108.148 Y65.978 E0.60990
G1 X112.126 Y66.222 E0.67210 F3600.000
G1 X117.351 Y67.086 E0.75473
G1 X122.457 Y68.491 E0.83735
G1 X127.388 Y70.422 E0.91998
G1 X130.634 Y72.086 E0.97689
G1 X133.210 Y73.585 E1.02339
G1 X136.511 Y75.771 E1.08518
G1 X139.918 Y78.530 E1.15358
G1 X140.604 Y79.132 E1.16782
G1 X144.322 Y82.900 E1.25041
G1 X147.628 Y87.039 E1.33306
G1 X149.607 Y90.102 E1.38997
G1 X151.077 Y92.666 E1.43608
G1 X152.855 Y96.234 E1.49828
G1 X154.719 Y101.190 E1.58091
G1 X156.055 Y106.313 E1.66351
G1 X156.503 Y109.141 E1.70818
G1 X156.849 Y111.550 E1.74615
G1 X157.031 Y115.193 E1.80306
G1 X157.022 Y118.148 E1.84916
G1 X156.850 Y121.424 E1.90036
G1 X156.778 Y122.126 E1.91137
G1 X155.914 Y127.351 E1.99400
G1 X154.509 Y132.457 E2.07663
G1 X152.578 Y137.388 E2.15925
G1 X150.914 Y140.633 E2.21616
G1 X149.429 Y143.188 E2.26226
G1 X147.229 Y146.511 E2.32445
G1 X144.471 Y149.917 E2.39283
G1 X143.868 Y150.604 E2.40709
G1 X140.630 Y153.842 E2.47854
G1 X140.100 Y154.323 E2.48971
G1 X135.962 Y157.628 E2.57234
G1 X132.898 Y159.607 E2.62926
G1 X130.334 Y161.077 E2.67536
G1 X126.766 Y162.855 E2.73756
G1 X121.810 Y164.719 E2.82019
G1 X116.687 Y166.055 E2.90278
G1 X113.873 Y166.501 E2.94724
G1 X111.450 Y166.849 E2.98544
G1 X107.807 Y167.031 E3.04235
G1 X104.853 Y167.022 E3.08845
G1 X100.874 Y166.778 E3.15065
G1 X95.649 Y165.914 E3.23327
G1 X90.543 Y164.509 E3.31590
G1 X85.612 Y162.578 E3.39852
G1 X82.367 Y160.914 E3.45543
G1 X79.813 Y159.430 E3.50153
G1 X76.489 Y157.229 E3.56373
G1 X73.082 Y154.470 E3.63213
G1 X72.396 Y153.868 E3.64636
G1 X68.677 Y150.100 E3.72897
G1 X65.372 Y145.961 E3.81161
G1 X63.393 Y142.898 E3.86852
G1 X61.923 Y140.334 E3.91462
G1 X60.145 Y136.766 E3.97682
G1 X58.281 Y131.810 E4.05945
G1 X56.945 Y126.687 E4.14205
G1 X56.497 Y123.859 E4.18672
G1 X56.151 Y121.450 E4.22470
G1 X55.969 Y117.807 E4.28161
G1 X55.978 Y114.852 E4.32771
G1 X56.222 Y110.874 E4.38991
G1 X57.086 Y105.649 E4.47253
G1 X58.491 Y100.543 E4.55516
G1 X60.422 Y95.612 E4.63778
G1 X62.086 Y92.366 E4.69469
G1 X63.571 Y89.812 E4.74079
G1 X65.771 Y86.489 E4.80299
G1 X68.678 Y82.899 E4.87506
G1 X69.132 Y82.396 E4.88563
G1 X72.333 Y79.195 E4.95626
G1 X72.617 Y79.405 F15000.000
G1 X73.121 Y78.949 E4.96686 F3600.000
G1 X77.229 Y75.666 E5.04892
G1 X80.277 Y73.696 E5.10555
G1 X82.825 Y72.235 E5.15137
G1 X86.359 Y70.472 E5.21300
G1 X91.281 Y68.619 E5.29505
G1 X96.368 Y67.290 E5.37709
G1 X99.182 Y66.845 E5.42153
G1 X101.568 Y66.501 E5.45916
G1 X105.193 Y66.319 E5.51578
G1 X108.129 Y66.328 E5.56160
G1 X112.072 Y66.568 E5.62322 F3600.000
G1 X117.260 Y67.424 E5.70528
G1 X122.331 Y68.818 E5.78733
G1 X127.229 Y70.734 E5.86939
G1 X130.459 Y72.389 E5.92601
G1 X133.019 Y73.878 E5.97223
G1 X136.291 Y76.043 E6.03345
G1 X139.698 Y78.802 E6.10185
G1 X140.357 Y79.379 E6.11551
G1 X144.050 Y83.120 E6.19754
G1 X147.335 Y87.229 E6.27962
G1 X149.304 Y90.277 E6.33624
G1 X150.765 Y92.825 E6.38206
G1 X152.528 Y96.359 E6.44369
G1 X154.381 Y101.281 E6.52574
G1 X155.710 Y106.368 E6.60778
G1 X156.157 Y109.195 E6.65244
G1 X156.499 Y111.568 E6.68985
G1 X156.681 Y115.193 E6.74647
G1 X156.672 Y118.129 E6.79229
G1 X156.501 Y121.406 E6.84348
G1 X156.432 Y122.072 E6.85393
G1 X155.576 Y127.260 E6.93598
G1 X154.182 Y132.331 E7.01804
G1 X152.266 Y137.229 E7.10009
G1 X150.611 Y140.458 E7.15671
G1 X149.136 Y142.997 E7.20253
G1 X146.957 Y146.291 E7.26415
G1 X144.199 Y149.697 E7.33253
G1 X143.621 Y150.357 E7.34622
G1 X140.383 Y153.595 E7.41767
G1 X139.879 Y154.051 E7.42827
G1 X135.771 Y157.334 E7.51033
G1 X132.723 Y159.304 E7.56696
G1 X130.175 Y160.765 E7.61277
G1 X126.641 Y162.528 E7.67440
G1 X121.719 Y164.381 E7.75646
G1 X116.633 Y165.709 E7.83848
G1 X113.818 Y166.155 E7.88294
G1 X111.432 Y166.499 E7.92056
G1 X107.807 Y166.681 E7.97719
G1 X104.871 Y166.672 E8.02300
G1 X100.928 Y166.432 E8.08463
G1 X95.740 Y165.576 E8.16669
G1 X90.669 Y164.182 E8.24874
G1 X85.771 Y162.266 E8.33079
G1 X82.542 Y160.611 E8.38742
G1 X80.003 Y159.136 E8.43323
G1 X76.709 Y156.957 E8.49486
G1 X73.302 Y154.198 E8.56326
G1 X72.643 Y153.621 E8.57692
G1 X68.949 Y149.880 E8.65895
G1 X65.665 Y145.771 E8.74103
G1 X63.696 Y142.723 E8.79765
G1 X62.235 Y140.175 E8.84347
G1 X60.472 Y136.641 E8.90510
G1 X58.619 Y131.719 E8.98715
G1 X57.291 Y126.633 E9.06918
G1 X56.843 Y123.805 E9.11385
G1 X56.501 Y121.432 E9.15126
G1 X56.319 Y117.807 E9.20788
G1 X56.328 Y114.871 E9.25370
G1 X56.568 Y110.928 E9.31532
G1 X57.424 Y105.740 E9.39738
G1 X58.818 Y100.669 E9.47943
G1 X60.734 Y95.771 E9.56149
G1 X62.389 Y92.541 E9.61811
G1 X63.864 Y90.003 E9.66392
G1 X66.043 Y86.709 E9.72555
G1 X68.950 Y83.119 E9.79762
G1 X69.379 Y82.643 E9.80762
G1 X72.580 Y79.442 E9.87825
G1 X72.865 Y79.652 F15000.000
G1 X73.341 Y79.221 E9.88828 F3600.000
G1 X77.420 Y75.959 E9.96977
G1 X80.452 Y73.999 E10.02611
G1 X82.984 Y72.547 E10.07164
G1 X86.485 Y70.799 E10.13270
G1 X91.372 Y68.957 E10.21418
G1 X96.423 Y67.636 E10.29565
G1 X99.236 Y67.190 E10.34010
G1 X101.587 Y66.850 E10.37715
G1 X105.193 Y66.669 E10.43349
G1 X108.111 Y66.677 E10.47902
G1 X112.017 Y66.914 E10.54007 F3600.000
G1 X117.170 Y67.762 E10.62155
G1 X122.206 Y69.144 E10.70304
G1 X127.070 Y71.045 E10.78452
G1 X130.284 Y72.692 E10.84086
G1 X132.828 Y74.172 E10.88679
G1 X136.071 Y76.315 E10.94744
G1 X139.478 Y79.074 E11.01584
G1 X140.109 Y79.627 E11.02893
G1 X143.778 Y83.340 E11.11039
G1 X147.041 Y87.420 E11.19190
G1 X149.001 Y90.452 E11.24823
G1 X150.453 Y92.984 E11.29377
G1 X152.201 Y96.485 E11.35482
G1 X154.043 Y101.372 E11.43631
G1 X155.364 Y106.423 E11.51778
G1 X155.812 Y109.250 E11.56244
G1 X156.150 Y111.587 E11.59927
G1 X156.331 Y115.193 E11.65561
G1 X156.323 Y118.111 E11.70114
G1 X156.151 Y121.387 E11.75233
G1 X156.086 Y122.017 E11.76221
G1 X155.238 Y127.170 E11.84369
G1 X153.856 Y132.206 E11.92517
G1 X151.955 Y137.070 E12.00666
G1 X150.308 Y140.283 E12.06299
G1 X148.842 Y142.806 E12.10852
G1 X146.685 Y146.071 E12.16958
G1 X143.927 Y149.476 E12.23795
G1 X143.373 Y150.109 E12.25107
G1 X140.135 Y153.348 E12.32252
G1 X139.659 Y153.779 E12.33255
G1 X135.580 Y157.041 E12.41404
G1 X132.548 Y159.001 E12.47038
G1 X130.016 Y160.453 E12.51591
G1 X126.515 Y162.201 E12.57697
G1 X121.628 Y164.043 E12.65846
G1 X116.578 Y165.364 E12.73991
G1 X113.764 Y165.810 E12.78437
G1 X111.413 Y166.150 E12.82142
G1 X107.807 Y166.331 E12.87776
G1 X104.889 Y166.323 E12.92329
G1 X100.983 Y166.086 E12.98434
G1 X95.830 Y165.238 E13.06583
G1 X90.794 Y163.856 E13.14731
G1 X85.930 Y161.955 E13.22879
G1 X82.717 Y160.308 E13.28513
G1 X80.194 Y158.842 E13.33065
G1 X76.929 Y156.685 E13.39171
G1 X73.522 Y153.926 E13.46011
G1 X72.891 Y153.373 E13.47321
G1 X69.221 Y149.659 E13.55467
G1 X65.959 Y145.580 E13.63617
G1 X63.999 Y142.548 E13.69250
G1 X62.547 Y140.016 E13.73804
G1 X60.799 Y136.515 E13.79910
G1 X58.957 Y131.628 E13.88058
G1 X57.636 Y126.578 E13.96204
G1 X57.188 Y123.750 E14.00671
G1 X56.850 Y121.413 E14.04354
G1 X56.669 Y117.807 E14.09988
G1 X56.677 Y114.889 E14.14541
G1 X56.914 Y110.983 E14.20647
G1 X57.762 Y105.830 E14.28795
G1 X59.144 Y100.794 E14.36944
G1 X61.045 Y95.930 E14.45092
G1 X62.692 Y92.716 E14.50726
G1 X64.158 Y90.194 E14.55278
G1 X66.315 Y86.929 E14.61384
G1 X69.222 Y83.340 E14.68590
G1 X69.627 Y82.891 E14.69533
G1 X72.828 Y79.690 E14.76597
G1 X73.112 Y79.900 F15000.000
G1 X73.561 Y79.493 E14.77542 F3600.000
G1 X77.610 Y76.253 E14.85634
G1 X80.627 Y74.302 E14.91240
G1 X83.143 Y72.859 E14.95764
G1 X86.610 Y71.125 E15.01813
G1 X91.462 Y69.295 E15.09904
G1 X96.478 Y67.982 E15.17994
G1 X99.291 Y67.536 E15.22438
G1 X101.605 Y67.200 E15.26087
G1 X105.193 Y67.019 E15.31692
G1 X108.093 Y67.027 E15.36216
G1 X111.962 Y67.259 E15.42265 F3600.000
G1 X117.079 Y68.100 E15.50356
G1 X122.081 Y69.471 E15.58447
G1 X126.911 Y71.357 E15.66538
G1 X130.109 Y72.995 E15.72144
G1 X132.638 Y74.465 E15.76708
G1 X135.850 Y76.587 E15.82716
G1 X139.257 Y79.346 E15.89556
G1 X139.862 Y79.874 E15.90808
G1 X143.506 Y83.561 E15.98897
G1 X146.748 Y87.611 E16.06990
G1 X148.698 Y90.627 E16.12595
G1 X150.141 Y93.142 E16.17120
G1 X151.875 Y96.610 E16.23169
G1 X153.705 Y101.462 E16.31260
G1 X155.018 Y106.478 E16.39350
G1 X155.466 Y109.305 E16.43816
G1 X155.800 Y111.605 E16.47442
G1 X155.981 Y115.193 E16.53047
G1 X155.973 Y118.093 E16.57572
G1 X155.801 Y121.369 E16.62691
G1 X155.741 Y121.962 E16.63621
G1 X154.900 Y127.079 E16.71713
G1 X153.529 Y132.081 E16.79804
G1 X151.643 Y136.911 E16.87895
G1 X150.005 Y140.108 E16.93500
G1 X148.549 Y142.616 E16.98024
G1 X146.413 Y145.850 E17.04073
G1 X143.655 Y149.256 E17.10910
G1 X143.126 Y149.862 E17.12165
G1 X139.888 Y153.100 E17.19310
G1 X139.439 Y153.507 E17.20256
G1 X135.390 Y156.747 E17.28347
G1 X132.373 Y158.698 E17.33953
G1 X129.858 Y160.141 E17.38478
G1 X126.390 Y161.875 E17.44526
G1 X121.538 Y163.705 E17.52618
G1 X116.523 Y165.018 E17.60706
G1 X113.709 Y165.464 E17.65152
G1 X111.395 Y165.800 E17.68800
G1 X107.807 Y165.981 E17.74405
G1 X104.908 Y165.973 E17.78929
G1 X101.038 Y165.740 E17.84978
G1 X95.921 Y164.900 E17.93069
G1 X90.919 Y163.529 E18.01161
G1 X86.089 Y161.643 E18.09252
G1 X82.892 Y160.005 E18.14857
G1 X80.384 Y158.549 E18.19381
G1 X77.150 Y156.413 E18.25430
G1 X73.743 Y153.654 E18.32270
G1 X73.138 Y153.126 E18.33522
G1 X69.493 Y149.439 E18.41611
G1 X66.252 Y145.389 E18.49704
G1 X64.302 Y142.373 E18.55309
G1 X62.859 Y139.857 E18.59833
G1 X61.125 Y136.390 E18.65882
G1 X59.295 Y131.538 E18.73973
G1 X57.982 Y126.523 E18.82062
G1 X57.534 Y123.695 E18.86529
G1 X57.200 Y121.395 E18.90156
G1 X57.019 Y117.807 E18.95761
G1 X57.027 Y114.907 E19.00285
G1 X57.259 Y111.038 E19.06334
G1 X58.100 Y105.921 E19.14425
G1 X59.471 Y100.919 E19.22516
G1 X61.357 Y96.089 E19.30607
G1 X62.995 Y92.891 E19.36213
G1 X64.451 Y90.384 E19.40737
G1 X66.587 Y87.150 E19.46785
G1 X69.494 Y83.560 E19.53991
G1 X69.874 Y83.138 E19.54878
G1 X73.075 Y79.937 E19.61941
G1 X73.360 Y80.147 F15000.000
G1 X73.782 Y79.765 E19.62829 F3600.000
G1 X77.801 Y76.546 E19.70864
G1 X80.802 Y74.605 E19.76441
G1 X83.301 Y73.170 E19.80937
G1 X86.736 Y71.452 E19.86929
G1 X91.553 Y69.633 E19.94963
G1 X96.533 Y68.327 E20.02996
G1 X99.346 Y67.882 E20.07440
G1 X101.623 Y67.549 E20.11031
G1 X105.193 Y67.369 E20.16608
G1 X108.074 Y67.376 E20.21103
G1 X111.907 Y67.605 E20.27095 F3600.000
G1 X116.989 Y68.438 E20.35129
G1 X121.955 Y69.798 E20.43163
G1 X126.752 Y71.669 E20.51197
G1 X129.933 Y73.298 E20.56774
G1 X132.447 Y74.759 E20.61310
G1 X135.630 Y76.859 E20.67261
G1 X139.037 Y79.618 E20.74100
G1 X139.614 Y80.122 E20.75296
G1 X143.235 Y83.781 E20.83327
G1 X146.454 Y87.801 E20.91363
G1 X148.395 Y90.802 E20.96940
G1 X149.830 Y93.301 E21.01436
G1 X151.548 Y96.736 E21.07428
G1 X153.367 Y101.553 E21.15462
G1 X154.673 Y106.533 E21.23495
G1 X155.120 Y109.360 E21.27961
G1 X155.451 Y111.623 E21.31530
G1 X155.631 Y115.193 E21.37106
G1 X155.624 Y118.074 E21.41602
G1 X155.452 Y121.351 E21.46722
G1 X155.395 Y121.907 E21.47595
G1 X154.562 Y126.989 E21.55629
G1 X153.202 Y131.955 E21.63663
G1 X151.331 Y136.752 E21.71697
G1 X149.702 Y139.933 E21.77274
G1 X148.255 Y142.425 E21.81769
G1 X146.141 Y145.630 E21.87761
G1 X143.383 Y149.036 E21.94598
G1 X142.878 Y149.614 E21.95796
G1 X139.640 Y152.853 E22.02941
G1 X139.218 Y153.235 E22.03829
G1 X135.199 Y156.454 E22.11864
G1 X132.198 Y158.395 E22.17441
G1 X129.699 Y159.830 E22.21937
G1 X126.264 Y161.548 E22.27929
G1 X121.447 Y163.367 E22.35963
G1 X116.468 Y164.672 E22.43994
G1 X113.654 Y165.118 E22.48440
G1 X111.377 Y165.451 E22.52031
G1 X107.807 Y165.631 E22.57607
G1 X104.926 Y165.624 E22.62103
G1 X101.093 Y165.395 E22.68095
G1 X96.011 Y164.562 E22.76129
G1 X91.045 Y163.202 E22.84163
G1 X86.248 Y161.331 E22.92197
G1 X83.067 Y159.702 E22.97774
G1 X80.575 Y158.255 E23.02269
G1 X77.370 Y156.141 E23.08260
G1 X73.963 Y153.382 E23.15100
G1 X73.386 Y152.878 E23.16295
G1 X69.765 Y149.219 E23.24328
G1 X66.546 Y145.199 E23.32364
G1 X64.605 Y142.198 E23.37940
G1 X63.170 Y139.699 E23.42436
G1 X61.452 Y136.264 E23.48427
G1 X59.633 Y131.447 E23.56462
G1 X58.328 Y126.468 E23.64493
G1 X57.880 Y123.640 E23.68960
G1 X57.549 Y121.377 E23.72530
G1 X57.369 Y117.807 E23.78106
G1 X57.376 Y114.926 E23.82602
G1 X57.605 Y111.093 E23.88593
G1 X58.438 Y106.011 E23.96628
G1 X59.798 Y101.045 E24.04662
G1 X61.669 Y96.248 E24.12696
G1 X63.298 Y93.067 E24.18273
G1 X64.745 Y90.575 E24.22768
G1 X66.859 Y87.370 E24.28759
G1 X69.766 Y83.781 E24.35965
G1 X70.122 Y83.386 E24.36795
G1 X73.323 Y80.185 E24.43858
G1 X73.607 Y80.395 F15000.000
G1 X74.002 Y80.037 E24.44689 F3600.000
G1 X77.992 Y76.840 E24.52667
G1 X80.977 Y74.908 E24.58215
G1 X83.460 Y73.482 E24.62683
G1 X86.861 Y71.779 E24.68617
G1 X91.643 Y69.971 E24.76594
G1 X96.588 Y68.673 E24.84570
G1 X99.401 Y68.227 E24.89014
G1 X101.642 Y67.899 E24.92548
G1 X105.193 Y67.719 E24.98096
G1 X108.056 Y67.726 E25.02563
G1 X111.853 Y67.951 E25.08498 F3600.000
G1 X116.898 Y68.776 E25.16475
G1 X121.830 Y70.125 E25.24452
G1 X126.593 Y71.981 E25.32429
G1 X129.758 Y73.601 E25.37977
G1 X132.256 Y75.052 E25.42484
G1 X135.410 Y77.131 E25.48378
G1 X138.817 Y79.890 E25.55218
G1 X139.367 Y80.369 E25.56356
G1 X142.963 Y84.001 E25.64331
G1 X146.160 Y87.992 E25.72309
G1 X148.092 Y90.977 E25.77857
G1 X149.518 Y93.460 E25.82325
G1 X151.221 Y96.861 E25.88259
G1 X153.029 Y101.643 E25.96237
G1 X154.327 Y106.587 E26.04212
G1 X154.775 Y109.414 E26.08678
G1 X155.101 Y111.642 E26.12190
G1 X155.281 Y115.193 E26.17738
G1 X155.274 Y118.056 E26.22206
G1 X155.102 Y121.332 E26.27325
G1 X155.049 Y121.853 E26.28141
G1 X154.224 Y126.898 E26.36118
G1 X152.875 Y131.830 E26.44095
G1 X151.019 Y136.593 E26.52072
G1 X149.399 Y139.758 E26.57620
G1 X147.962 Y142.235 E26.62087
G1 X145.869 Y145.410 E26.68021
G1 X143.111 Y148.815 E26.74858
G1 X142.631 Y149.367 E26.75999
G1 X139.393 Y152.605 E26.83144
G1 X138.998 Y152.963 E26.83976
G1 X135.008 Y156.160 E26.91953
G1 X132.023 Y158.092 E26.97501
G1 X129.540 Y159.518 E27.01969
G1 X126.139 Y161.221 E27.07903
G1 X121.357 Y163.029 E27.15881
G1 X116.413 Y164.327 E27.23855
G1 X113.599 Y164.772 E27.28300
G1 X111.358 Y165.101 E27.31834
G1 X107.807 Y165.281 E27.37382
G1 X104.944 Y165.274 E27.41849
G1 X101.147 Y165.049 E27.47784
G1 X96.102 Y164.224 E27.55761
G1 X91.170 Y162.875 E27.63738
G1 X86.407 Y161.019 E27.71715
G1 X83.242 Y159.399 E27.77263
G1 X80.766 Y157.962 E27.81730
G1 X77.590 Y155.868 E27.87664
G1 X74.183 Y153.110 E27.94504
G1 X73.633 Y152.631 E27.95642
G1 X70.037 Y148.998 E28.03617
G1 X66.839 Y145.008 E28.11596
G1 X64.908 Y142.023 E28.17144
G1 X63.482 Y139.540 E28.21611
G1 X61.779 Y136.139 E28.27546
G1 X59.971 Y131.357 E28.35523
G1 X58.673 Y126.413 E28.43497
G1 X58.225 Y123.586 E28.47964
G1 X57.899 Y121.358 E28.51476
G1 X57.719 Y117.807 E28.57024
G1 X57.726 Y114.944 E28.61492
G1 X57.951 Y111.147 E28.67426
G1 X58.776 Y106.102 E28.75403
G1 X60.125 Y101.170 E28.83380
G1 X61.981 Y96.407 E28.91357
G1 X63.601 Y93.242 E28.96905
G1 X65.038 Y90.765 E29.01372
G1 X67.132 Y87.590 E29.07306
G1 X70.038 Y84.001 E29.14512
G1 X70.369 Y83.633 E29.15285
G1 X73.570 Y80.432 E29.22348
G1 X73.855 Y80.642 F15000.000
G1 X74.222 Y80.309 E29.23122 F3600.000
G1 X78.182 Y77.133 E29.31043
G1 X81.152 Y75.211 E29.36562
G1 X83.619 Y73.794 E29.41001
G1 X86.986 Y72.106 E29.46879
G1 X91.734 Y70.309 E29.54799
G1 X96.642 Y69.019 E29.62717
G1 X99.455 Y68.573 E29.67161
G1 X101.660 Y68.248 E29.70638
G1 X105.193 Y68.069 E29.76158
G1 X108.038 Y68.075 E29.80596
