; generated by Slic3r 1.0.0RC3 on 2014-08-28 at 12:35:36

; layer_height = 0.1
; perimeters = 3
; top_solid_layers = 4
; bottom_solid_layers = 4
; fill_density = 0.4
; perimeter_speed = 40
; infill_speed = 40
; travel_speed = 400
; nozzle_diameter = 0.35
; filament_diameter = 1.75
; extrusion_multiplier = 1
; perimeters extrusion width = 0.35mm
; infill extrusion width = 0.98mm
; solid infill extrusion width = 0.59mm
; top infill extrusion width = 0.20mm

G21 ; set units to millimeters
M107
M190 S60 ; wait for bed temperature to be reached
M104 S205 ; set temperature

M109 S205 ; wait for temperature to be reached
G90 ; use absolute coordinates
G92 E0
M82 ; use absolute distances for extrusion
G1 Z0.100 F24000.000
G1 X84.998 Y86.666 F24000.000
G1 X85.228 Y86.446 E0.00463 F1440.000
G1 X86.488 Y85.406 E0.02840
G1 X86.938 Y85.086 E0.03644
G1 X88.268 Y84.276 E0.05910
G1 X89.618 Y83.636 E0.08084
G1 X90.848 Y83.196 E0.09985
G1 X92.398 Y82.816 E0.12307
G1 X92.808 Y82.746 E0.12912
G1 X93.948 Y82.606 E0.14584
G1 X94.248 Y82.586 E0.15021
G1 X94.998 Y82.566 E0.16113
G1 X104.998 Y82.566 E0.30664
G1 X106.048 Y82.606 E0.32193
G1 X107.188 Y82.746 E0.33864
G1 X107.598 Y82.816 E0.34470
G1 X109.148 Y83.196 E0.36792
G1 X110.498 Y83.686 E0.38882
G1 X111.718 Y84.276 E0.40854
G1 X111.988 Y84.426 E0.41303
G1 X113.048 Y85.086 E0.43120
G1 X113.498 Y85.406 E0.43924
G1 X114.578 Y86.286 E0.45951
G1 X114.818 Y86.506 E0.46425
G1 X115.788 Y87.506 E0.48452
G1 X116.188 Y87.976 E0.49350
G1 X116.928 Y88.956 E0.51137
G1 X117.638 Y90.056 E0.53042
G1 X117.818 Y90.376 E0.53576
G1 X118.258 Y91.256 E0.55008
G1 X118.548 Y91.896 E0.56030
G1 X118.888 Y92.756 E0.57376
G1 X119.218 Y93.696 E0.58826
G1 X119.348 Y94.126 E0.59479
G1 X119.618 Y95.206 E0.61099
G1 X119.798 Y96.116 E0.62449
G1 X119.948 Y97.106 E0.63906
G1 X120.038 Y98.066 E0.65309
G1 X120.088 Y98.866 E0.66475
G1 X120.108 Y99.766 E0.67785
G1 X120.068 Y100.946 E0.69503
G1 X120.028 Y101.486 E0.70291
G1 X119.888 Y102.656 E0.72006
G1 X119.788 Y103.306 E0.72963
G1 X119.528 Y104.536 E0.74792
G1 X119.398 Y105.036 E0.75544
G1 X118.978 Y106.366 E0.77574
G1 X118.528 Y107.526 E0.79384
G1 X118.098 Y108.456 E0.80875
G1 X117.898 Y108.836 E0.81500
G1 X117.458 Y109.586 E0.82765
G1 X117.238 Y109.936 E0.83367
G1 X116.588 Y110.866 E0.85018
G1 X116.198 Y111.366 E0.85941
G1 X115.118 Y112.566 E0.88290
G1 X114.348 Y113.276 E0.89814
G1 X114.088 Y113.496 E0.90309
G1 X113.058 Y114.266 E0.92181
G1 X112.758 Y114.466 E0.92705
G1 X111.708 Y115.086 E0.94480
G1 X110.378 Y115.716 E0.96621
G1 X109.998 Y115.866 E0.97216
G1 X108.598 Y116.316 E0.99356
G1 X107.208 Y116.616 E1.01425
G1 X105.668 Y116.766 E1.03676
G1 X104.998 Y116.786 E1.04652
G1 X94.988 Y116.786 E1.19217
G1 X94.318 Y116.766 E1.20193
G1 X92.708 Y116.596 E1.22549
G1 X91.478 Y116.346 E1.24375
G1 X89.988 Y115.866 E1.26653
G1 X89.608 Y115.716 E1.27247
G1 X88.278 Y115.086 E1.29389
G1 X88.008 Y114.936 E1.29838
G1 X86.928 Y114.266 E1.31688
G1 X85.898 Y113.496 E1.33559
G1 X84.868 Y112.566 E1.35578
G1 X83.788 Y111.366 E1.37928
G1 X83.398 Y110.866 E1.38850
G1 X82.618 Y109.736 E1.40848
G1 X82.408 Y109.386 E1.41442
G1 X81.898 Y108.456 E1.42986
G1 X81.558 Y107.736 E1.44144
G1 X81.378 Y107.326 E1.44796
G1 X81.008 Y106.366 E1.46293
G1 X80.808 Y105.766 E1.47213
G1 X80.588 Y105.036 E1.48323
G1 X80.298 Y103.826 E1.50133
G1 X80.198 Y103.306 E1.50904
G1 X80.028 Y102.126 E1.52638
G1 X79.948 Y101.276 E1.53881
G1 X79.898 Y100.316 E1.55280
G1 X79.898 Y99.006 E1.57186
G1 X79.938 Y98.206 E1.58351
G1 X80.078 Y96.886 E1.60283
G1 X80.208 Y96.076 E1.61477
G1 X80.388 Y95.176 E1.62812
G1 X80.578 Y94.366 E1.64023
G1 X80.698 Y93.936 E1.64672
G1 X81.098 Y92.756 E1.66486
G1 X81.438 Y91.896 E1.67831
G1 X81.728 Y91.256 E1.68854
G1 X82.308 Y90.156 E1.70663
G1 X82.718 Y89.476 E1.71819
G1 X82.918 Y89.166 E1.72355
G1 X83.888 Y87.866 E1.74716
G1 X84.298 Y87.396 E1.75623
G1 X84.962 Y86.704 E1.77018
G1 X85.248 Y86.916 F24000.000
G1 X85.478 Y86.696 E1.77482 F1440.000
G1 X86.688 Y85.696 E1.79766
G1 X87.138 Y85.376 E1.80569
G1 X88.168 Y84.726 E1.82342
G1 X88.438 Y84.576 E1.82791
G1 X89.738 Y83.956 E1.84887
G1 X90.948 Y83.526 E1.86755
G1 X92.458 Y83.166 E1.89014
G1 X92.868 Y83.096 E1.89619
G1 X93.968 Y82.956 E1.91233
G1 X94.268 Y82.936 E1.91671
G1 X94.998 Y82.916 E1.92733
G1 X104.998 Y82.916 E2.07284
G1 X106.028 Y82.956 E2.08784
G1 X107.128 Y83.096 E2.10398
G1 X107.538 Y83.166 E2.11003
G1 X109.048 Y83.526 E2.13262
G1 X109.328 Y83.616 E2.13690
G1 X110.368 Y84.016 E2.15311
G1 X111.548 Y84.576 E2.17212
G1 X111.818 Y84.726 E2.17661
G1 X112.848 Y85.376 E2.19434
G1 X113.298 Y85.696 E2.20237
G1 X114.348 Y86.546 E2.22203
G1 X114.588 Y86.766 E2.22677
G1 X115.518 Y87.736 E2.24632
G1 X115.918 Y88.206 E2.25530
G1 X116.638 Y89.156 E2.27265
G1 X117.328 Y90.236 E2.29130
G1 X117.508 Y90.556 E2.29664
G1 X117.938 Y91.396 E2.31037
G1 X118.228 Y92.036 E2.32059
G1 X118.558 Y92.866 E2.33359
G1 X118.878 Y93.806 E2.34804
G1 X119.008 Y94.236 E2.35458
G1 X119.268 Y95.266 E2.37004
G1 X119.448 Y96.176 E2.38353
G1 X119.598 Y97.146 E2.39782
G1 X119.688 Y98.086 E2.41156
G1 X119.738 Y98.886 E2.42322
G1 X119.758 Y99.766 E2.43603
G1 X119.718 Y100.926 E2.45292
G1 X119.618 Y102.086 E2.46986
G1 X119.548 Y102.616 E2.47764
G1 X119.338 Y103.766 E2.49465
G1 X119.188 Y104.446 E2.50478
G1 X118.848 Y105.656 E2.52307
G1 X118.648 Y106.256 E2.53228
G1 X118.208 Y107.386 E2.54992
G1 X117.788 Y108.296 E2.56451
G1 X117.588 Y108.676 E2.57075
G1 X116.948 Y109.746 E2.58890
G1 X116.308 Y110.646 E2.60497
G1 X115.918 Y111.146 E2.61419
G1 X114.878 Y112.306 E2.63686
G1 X114.118 Y113.006 E2.65190
G1 X113.858 Y113.226 E2.65685
G1 X112.868 Y113.976 E2.67493
G1 X112.568 Y114.176 E2.68017
G1 X111.538 Y114.786 E2.69759
G1 X110.248 Y115.396 E2.71836
G1 X109.868 Y115.546 E2.72430
G1 X108.508 Y115.976 E2.74506
G1 X107.148 Y116.266 E2.76529
G1 X105.658 Y116.416 E2.78708
G1 X104.998 Y116.436 E2.79669
G1 X94.988 Y116.436 E2.94235
G1 X94.328 Y116.416 E2.95196
G1 X92.768 Y116.256 E2.97478
G1 X91.558 Y116.006 E2.99276
G1 X90.118 Y115.546 E3.01475
G1 X89.738 Y115.396 E3.02070
G1 X88.448 Y114.786 E3.04146
G1 X88.178 Y114.636 E3.04596
G1 X87.118 Y113.976 E3.06413
G1 X86.128 Y113.226 E3.08220
G1 X85.108 Y112.306 E3.10219
G1 X84.068 Y111.146 E3.12486
G1 X83.678 Y110.646 E3.13408
G1 X82.918 Y109.556 E3.15342
G1 X82.708 Y109.206 E3.15936
G1 X82.208 Y108.296 E3.17447
G1 X81.878 Y107.596 E3.18573
G1 X81.698 Y107.186 E3.19225
G1 X81.338 Y106.256 E3.20676
G1 X81.138 Y105.656 E3.21596
G1 X80.798 Y104.446 E3.23425
G1 X80.648 Y103.766 E3.24438
G1 X80.438 Y102.616 E3.26139
G1 X80.368 Y102.086 E3.26917
G1 X80.298 Y101.256 E3.28129
G1 X80.248 Y100.316 E3.29499
G1 X80.248 Y99.026 E3.31376
G1 X80.288 Y98.226 E3.32542
G1 X80.418 Y96.936 E3.34428
G1 X80.548 Y96.146 E3.35593
G1 X80.728 Y95.246 E3.36929
G1 X80.918 Y94.456 E3.38111
G1 X81.038 Y94.026 E3.38761
G1 X81.428 Y92.866 E3.40542
G1 X81.758 Y92.036 E3.41841
G1 X82.048 Y91.396 E3.42864
G1 X82.608 Y90.336 E3.44608
G1 X83.008 Y89.666 E3.45744
G1 X83.208 Y89.356 E3.46280
G1 X84.158 Y88.096 E3.48577
G1 X84.568 Y87.626 E3.49484
G1 X85.212 Y86.954 E3.50838
G1 X85.488 Y87.176 F24000.000
G1 X85.718 Y86.956 E3.51302 F1440.000
G1 X86.898 Y85.976 E3.53534
G1 X87.348 Y85.656 E3.54337
G1 X88.338 Y85.036 E3.56037
G1 X88.608 Y84.886 E3.56486
G1 X89.868 Y84.286 E3.58517
G1 X91.058 Y83.866 E3.60353
G1 X92.508 Y83.506 E3.62527
G1 X92.918 Y83.436 E3.63132
G1 X93.998 Y83.306 E3.64715
G1 X94.298 Y83.286 E3.65153
G1 X94.998 Y83.266 E3.66172
G1 X104.998 Y83.266 E3.80723
G1 X105.998 Y83.306 E3.82179
G1 X107.078 Y83.436 E3.83762
G1 X107.488 Y83.506 E3.84368
G1 X108.938 Y83.866 E3.86542
G1 X110.238 Y84.336 E3.88553
G1 X111.378 Y84.886 E3.90395
G1 X111.648 Y85.036 E3.90844
G1 X112.638 Y85.656 E3.92544
G1 X113.088 Y85.976 E3.93348
G1 X114.108 Y86.796 E3.95252
G1 X114.348 Y87.016 E3.95726
G1 X115.248 Y87.956 E3.97619
G1 X115.648 Y88.426 E3.98518
G1 X116.348 Y89.346 E4.00200
G1 X117.028 Y90.406 E4.02032
G1 X117.208 Y90.726 E4.02566
G1 X117.618 Y91.546 E4.03901
G1 X117.908 Y92.186 E4.04923
G1 X118.238 Y92.986 E4.06182
G1 X118.548 Y93.906 E4.07595
G1 X118.678 Y94.336 E4.08249
G1 X118.928 Y95.336 E4.09748
G1 X119.108 Y96.246 E4.11098
G1 X119.248 Y97.176 E4.12467
G1 X119.338 Y98.106 E4.13826
G1 X119.388 Y98.906 E4.14993
G1 X119.408 Y99.756 E4.16230
G1 X119.368 Y100.896 E4.17890
G1 X119.268 Y102.036 E4.19555
G1 X119.198 Y102.566 E4.20333
G1 X118.998 Y103.696 E4.22003
G1 X118.848 Y104.356 E4.22988
G1 X118.518 Y105.546 E4.24785
G1 X118.318 Y106.146 E4.25705
G1 X117.888 Y107.256 E4.27437
G1 X117.478 Y108.126 E4.28837
G1 X117.278 Y108.506 E4.29461
G1 X116.648 Y109.556 E4.31243
G1 X116.038 Y110.436 E4.32801
G1 X115.648 Y110.936 E4.33724
G1 X114.638 Y112.056 E4.35919
G1 X114.388 Y112.296 E4.36423
G1 X113.628 Y112.956 E4.37888
G1 X112.668 Y113.686 E4.39643
G1 X112.368 Y113.886 E4.40167
G1 X111.368 Y114.476 E4.41857
G1 X110.118 Y115.066 E4.43868
G1 X109.738 Y115.216 E4.44463
G1 X108.428 Y115.646 E4.46469
G1 X107.088 Y115.926 E4.48461
G1 X105.648 Y116.066 E4.50566
G1 X104.998 Y116.086 E4.51512
G1 X94.988 Y116.086 E4.66078
G1 X94.338 Y116.066 E4.67025
G1 X92.838 Y115.916 E4.69218
G1 X91.638 Y115.666 E4.71002
G1 X90.248 Y115.216 E4.73128
G1 X89.868 Y115.066 E4.73722
G1 X88.618 Y114.476 E4.75734
G1 X87.618 Y113.886 E4.77423
G1 X87.318 Y113.686 E4.77948
G1 X86.358 Y112.956 E4.79703
G1 X85.598 Y112.296 E4.81167
G1 X85.348 Y112.056 E4.81672
G1 X84.338 Y110.936 E4.83866
G1 X83.948 Y110.436 E4.84789
G1 X83.218 Y109.376 E4.86662
G1 X82.718 Y108.506 E4.88122
G1 X82.518 Y108.126 E4.88747
G1 X82.018 Y107.046 E4.90479
G1 X81.668 Y106.146 E4.91884
G1 X81.468 Y105.546 E4.92804
G1 X81.268 Y104.856 E4.93849
G1 X80.988 Y103.696 E4.95586
G1 X80.888 Y103.176 E4.96356
G1 X80.718 Y102.036 E4.98034
G1 X80.648 Y101.246 E4.99188
G1 X80.598 Y100.306 E5.00557
G1 X80.598 Y99.036 E5.02405
G1 X80.638 Y98.236 E5.03571
G1 X80.708 Y97.456 E5.04710
G1 X80.888 Y96.216 E5.06534
G1 X81.068 Y95.316 E5.07869
G1 X81.258 Y94.546 E5.09023
G1 X81.598 Y93.406 E5.10754
G1 X81.748 Y92.986 E5.11403
G1 X82.078 Y92.186 E5.12663
G1 X82.368 Y91.546 E5.13685
G1 X82.908 Y90.506 E5.15390
G1 X83.298 Y89.856 E5.16493
G1 X83.498 Y89.546 E5.17030
G1 X84.418 Y88.326 E5.19254
G1 X84.828 Y87.856 E5.20161
G1 X85.452 Y87.214 E5.21464
G1 X85.728 Y87.426 F24000.000
G1 X85.958 Y87.206 E5.21927 F1440.000
G1 X87.098 Y86.266 E5.24077
G1 X87.548 Y85.946 E5.24880
G1 X88.508 Y85.336 E5.26535
G1 X88.778 Y85.186 E5.26985
G1 X89.998 Y84.616 E5.28944
G1 X91.168 Y84.196 E5.30753
G1 X92.568 Y83.856 E5.32850
G1 X92.978 Y83.786 E5.33455
G1 X94.018 Y83.656 E5.34980
G1 X94.318 Y83.636 E5.35417
G1 X94.998 Y83.616 E5.36407
G1 X104.998 Y83.616 E5.50959
G1 X105.978 Y83.656 E5.52386
G1 X107.018 Y83.786 E5.53911
G1 X107.428 Y83.856 E5.54516
G1 X108.828 Y84.196 E5.56613
G1 X110.108 Y84.656 E5.58592
G1 X111.208 Y85.186 E5.60369
G1 X111.478 Y85.336 E5.60818
G1 X112.438 Y85.946 E5.62473
G1 X112.888 Y86.266 E5.63277
G1 X113.868 Y87.056 E5.65108
G1 X114.108 Y87.276 E5.65582
G1 X114.988 Y88.186 E5.67424
G1 X115.388 Y88.656 E5.68322
G1 X116.058 Y89.546 E5.69943
G1 X116.718 Y90.576 E5.71723
G1 X116.898 Y90.896 E5.72257
G1 X117.298 Y91.686 E5.73546
G1 X117.588 Y92.326 E5.74568
G1 X117.908 Y93.106 E5.75795
G1 X118.058 Y93.526 E5.76444
G1 X118.338 Y94.436 E5.77830
G1 X118.588 Y95.406 E5.79287
G1 X118.768 Y96.316 E5.80637
G1 X118.898 Y97.216 E5.81960
G1 X118.988 Y98.126 E5.83291
G1 X119.038 Y98.926 E5.84457
G1 X119.058 Y99.756 E5.85665
G1 X119.018 Y100.866 E5.87282
G1 X118.918 Y101.996 E5.88932
G1 X118.848 Y102.526 E5.89710
G1 X118.658 Y103.636 E5.91349
G1 X118.508 Y104.276 E5.92305
G1 X118.188 Y105.436 E5.94056
G1 X117.988 Y106.036 E5.94977
G1 X117.558 Y107.126 E5.96682
G1 X117.168 Y107.966 E5.98029
G1 X116.578 Y109.026 E5.99795
G1 X116.358 Y109.376 E6.00396
G1 X115.758 Y110.216 E6.01898
G1 X115.368 Y110.716 E6.02821
G1 X114.388 Y111.806 E6.04954
G1 X113.668 Y112.476 E6.06385
G1 X113.408 Y112.696 E6.06881
G1 X112.478 Y113.396 E6.08574
G1 X112.178 Y113.596 E6.09099
G1 X111.198 Y114.176 E6.10756
G1 X109.998 Y114.746 E6.12689
G1 X109.618 Y114.896 E6.13284
G1 X108.338 Y115.306 E6.15240
G1 X107.028 Y115.576 E6.17186
G1 X105.638 Y115.716 E6.19219
G1 X104.998 Y115.736 E6.20150
G1 X94.988 Y115.736 E6.34716
G1 X94.348 Y115.716 E6.35648
G1 X92.898 Y115.566 E6.37769
G1 X91.728 Y115.326 E6.39507
G1 X90.368 Y114.896 E6.41583
G1 X89.988 Y114.746 E6.42177
G1 X88.788 Y114.176 E6.44110
G1 X88.518 Y114.026 E6.44560
G1 X87.508 Y113.396 E6.46292
G1 X86.578 Y112.696 E6.47986
G1 X85.598 Y111.806 E6.49912
G1 X84.618 Y110.716 E6.52045
G1 X84.228 Y110.216 E6.52968
G1 X83.518 Y109.196 E6.54776
G1 X83.308 Y108.846 E6.55370
G1 X82.828 Y107.966 E6.56829
G1 X82.518 Y107.316 E6.57877
G1 X81.998 Y106.036 E6.59887
G1 X81.798 Y105.436 E6.60807
G1 X81.608 Y104.776 E6.61807
G1 X81.328 Y103.636 E6.63515
G1 X81.228 Y103.116 E6.64285
G1 X81.068 Y101.996 E6.65932
G1 X80.998 Y101.226 E6.67057
G1 X80.948 Y100.306 E6.68397
G1 X80.948 Y99.056 E6.70216
G1 X80.988 Y98.256 E6.71382
G1 X81.118 Y97.016 E6.73196
G1 X81.238 Y96.286 E6.74273
G1 X81.418 Y95.386 E6.75608
G1 X81.598 Y94.646 E6.76716
G1 X81.928 Y93.526 E6.78415
G1 X82.078 Y93.106 E6.79064
G1 X82.398 Y92.326 E6.80291
G1 X82.688 Y91.686 E6.81314
G1 X83.208 Y90.686 E6.82954
G1 X83.598 Y90.046 E6.84044
G1 X83.798 Y89.736 E6.84581
G1 X84.678 Y88.556 E6.86723
G1 X85.088 Y88.086 E6.87631
G1 X85.692 Y87.464 E6.88892
G1 X85.968 Y87.676 F24000.000
G1 X86.198 Y87.456 E6.89355 F1440.000
G1 X87.298 Y86.546 E6.91432
G1 X87.748 Y86.226 E6.92236
G1 X88.948 Y85.496 E6.94280
G1 X90.128 Y84.936 E6.96180
G1 X91.278 Y84.526 E6.97957
G1 X92.628 Y84.196 E6.99979
G1 X93.038 Y84.126 E7.00585
G1 X94.338 Y83.986 E7.02487
G1 X94.998 Y83.966 E7.03448
G1 X104.998 Y83.966 E7.17999
G1 X105.958 Y84.006 E7.19397
G1 X106.958 Y84.126 E7.20863
G1 X107.368 Y84.196 E7.21468
G1 X108.718 Y84.526 E7.23490
G1 X109.978 Y84.986 E7.25442
G1 X111.038 Y85.496 E7.27154
G1 X111.308 Y85.646 E7.27603
G1 X112.238 Y86.226 E7.29198
G1 X112.688 Y86.546 E7.30002
G1 X113.638 Y87.316 E7.31781
G1 X113.878 Y87.536 E7.32255
G1 X114.718 Y88.416 E7.34025
G1 X115.118 Y88.886 E7.34923
G1 X115.768 Y89.746 E7.36492
G1 X116.418 Y90.746 E7.38227
G1 X116.598 Y91.066 E7.38762
G1 X116.978 Y91.826 E7.39998
G1 X117.268 Y92.466 E7.41021
G1 X117.578 Y93.226 E7.42215
G1 X117.878 Y94.106 E7.43568
G1 X118.008 Y94.536 E7.44222
G1 X118.238 Y95.476 E7.45630
G1 X118.418 Y96.386 E7.46980
G1 X118.548 Y97.256 E7.48260
G1 X118.638 Y98.156 E7.49576
G1 X118.688 Y98.956 E7.50742
G1 X118.708 Y99.746 E7.51892
G1 X118.668 Y100.846 E7.53494
G1 X118.578 Y101.946 E7.55100
G1 X118.508 Y102.476 E7.55878
G1 X118.308 Y103.566 E7.57490
G1 X118.168 Y104.186 E7.58415
G1 X117.848 Y105.316 E7.60124
G1 X117.408 Y106.576 E7.62066
G1 X117.238 Y106.986 E7.62712
G1 X116.858 Y107.806 E7.64027
G1 X116.658 Y108.186 E7.64652
G1 X116.058 Y109.186 E7.66349
G1 X115.488 Y110.006 E7.67802
G1 X115.098 Y110.506 E7.68725
G1 X114.148 Y111.556 E7.70785
G1 X113.898 Y111.796 E7.71289
G1 X113.178 Y112.426 E7.72682
G1 X112.278 Y113.106 E7.74323
G1 X111.978 Y113.306 E7.74848
G1 X111.028 Y113.866 E7.76452
G1 X109.868 Y114.416 E7.78320
G1 X109.488 Y114.566 E7.78915
G1 X108.258 Y114.966 E7.80797
G1 X106.968 Y115.236 E7.82715
G1 X105.628 Y115.366 E7.84674
G1 X104.998 Y115.386 E7.85591
G1 X94.988 Y115.386 E8.00157
G1 X94.358 Y115.366 E8.01074
G1 X92.958 Y115.226 E8.03121
G1 X91.808 Y114.986 E8.04831
G1 X90.498 Y114.566 E8.06833
G1 X90.118 Y114.416 E8.07427
G1 X88.958 Y113.866 E8.09295
G1 X88.008 Y113.306 E8.10900
G1 X87.708 Y113.106 E8.11424
G1 X86.808 Y112.426 E8.13066
