; generated by Slic3r 1.1.7 on 2014-09-26 at 15:10:50

; perimeters extrusion width = 0.35mm
; infill extrusion width = 0.98mm
; solid infill extrusion width = 0.59mm
; top infill extrusion width = 0.59mm

G21 ; set units to millimeters
M107
M190 S60 ; wait for bed temperature to be reached
M104 S210 ; set temperature

M109 S210 ; wait for temperature to be reached
G90 ; use absolute coordinates
G92 E0
M82 ; use absolute distances for extrusion
G1 Z0.100 F15000.000
G1 X93.457 Y104.971 F15000.000
G1 X94.251 Y104.282 E0.01531 F1800.000
G1 X95.074 Y103.681 E0.03013
G1 X95.863 Y103.200 E0.04357
G1 X96.277 Y102.978 E0.05042
G1 X96.974 Y102.655 E0.06159
G1 X97.983 Y102.278 E0.07726
G1 X98.855 Y102.033 E0.09044
G1 X99.569 Y101.890 E0.10105
G1 X100.406 Y101.776 E0.11334
G1 X101.501 Y101.723 E0.12929
G1 X111.943 Y101.735 E0.28124
G1 X113.132 Y101.843 E0.29860 F1800.000
G1 X114.029 Y102.006 E0.31187
G1 X114.535 Y102.132 E0.31945
G1 X115.578 Y102.472 E0.33542
G1 X116.029 Y102.657 E0.34251
G1 X116.719 Y102.976 E0.35358
G1 X117.207 Y103.238 E0.36164
G1 X117.727 Y103.552 E0.37047
G1 X118.617 Y104.180 E0.38632
G1 X119.326 Y104.770 E0.39975
G1 X119.631 Y105.053 E0.40580
G1 X120.348 Y105.805 E0.42093
G1 X120.778 Y106.323 E0.43072
G1 X121.246 Y106.954 E0.44215
G1 X121.701 Y107.647 E0.45421
G1 X122.182 Y108.503 E0.46850
G1 X122.385 Y108.917 E0.47521
G1 X122.602 Y109.389 E0.48277
G1 X122.902 Y110.133 E0.49444
G1 X123.221 Y111.080 E0.50898
G1 X123.362 Y111.573 E0.51645
G1 X123.658 Y112.880 E0.53594
G1 X123.821 Y113.947 E0.55165
G1 X123.884 Y114.504 E0.55981
G1 X123.942 Y115.356 E0.57223
G1 X123.959 Y116.219 E0.58480
G1 X123.931 Y117.205 E0.59914
G1 X123.841 Y118.263 E0.61460
G1 X123.693 Y119.292 E0.62973
G1 X123.478 Y120.333 E0.64518
G1 X123.247 Y121.205 E0.65832
G1 X122.812 Y122.473 E0.67782
G1 X122.410 Y123.403 E0.69257
G1 X121.961 Y124.275 E0.70684
G1 X121.643 Y124.806 E0.71584
G1 X121.189 Y125.497 E0.72788
G1 X120.647 Y126.208 E0.74088
G1 X120.216 Y126.713 E0.75054
G1 X119.839 Y127.105 E0.75846
G1 X119.089 Y127.805 E0.77339
G1 X118.462 Y128.310 E0.78511
G1 X117.543 Y128.932 E0.80125
G1 X116.869 Y129.311 E0.81250
G1 X116.301 Y129.594 E0.82173
G1 X115.735 Y129.832 E0.83067
G1 X115.207 Y130.029 E0.83887
G1 X114.572 Y130.223 E0.84853
G1 X113.427 Y130.478 E0.86560
G1 X112.955 Y130.551 E0.87255
G1 X112.315 Y130.613 E0.88191
G1 X111.504 Y130.644 E0.89372
G1 X101.036 Y130.632 E1.04604
G1 X100.062 Y130.553 E1.06027
G1 X98.739 Y130.305 E1.07984
G1 X97.883 Y130.059 E1.09281
G1 X97.287 Y129.842 E1.10203
G1 X96.700 Y129.594 E1.11130
G1 X95.887 Y129.181 E1.12458
G1 X95.213 Y128.776 E1.13603
G1 X94.574 Y128.337 E1.14731
G1 X94.049 Y127.919 E1.15707
G1 X93.495 Y127.435 E1.16776
G1 X92.785 Y126.714 E1.18250
G1 X92.138 Y125.940 E1.19718
G1 X91.619 Y125.220 E1.21009
G1 X91.355 Y124.804 E1.21725
G1 X91.038 Y124.273 E1.22625
G1 X90.589 Y123.402 E1.24051
G1 X90.202 Y122.508 E1.25470
G1 X90.071 Y122.158 E1.26013
G1 X89.843 Y121.498 E1.27030
G1 X89.656 Y120.859 E1.27997
G1 X89.405 Y119.807 E1.29572
G1 X89.228 Y118.793 E1.31070
G1 X89.110 Y117.778 E1.32556
G1 X89.050 Y116.763 E1.34035
G1 X89.043 Y115.840 E1.35379
G1 X89.069 Y115.159 E1.36371
G1 X89.179 Y113.942 E1.38149
G1 X89.263 Y113.336 E1.39039
G1 X89.432 Y112.429 E1.40382
G1 X89.656 Y111.510 E1.41758
G1 X89.938 Y110.585 E1.43166
G1 X90.262 Y109.713 E1.44518
G1 X90.587 Y108.974 E1.45693
G1 X90.818 Y108.504 E1.46455
G1 X91.296 Y107.653 E1.47876
G1 X91.549 Y107.257 E1.48560
G1 X91.951 Y106.674 E1.49590
G1 X92.654 Y105.803 E1.51219
G1 X93.419 Y105.007 E1.52825
G1 X93.658 Y105.263 F15000.000
G1 X94.465 Y104.559 E1.54384 F1800.000
G1 X95.265 Y103.974 E1.55825
G1 X96.030 Y103.508 E1.57128
G1 X96.438 Y103.289 E1.57803
G1 X97.110 Y102.978 E1.58879
G1 X98.086 Y102.613 E1.60396
G1 X98.934 Y102.374 E1.61678
G1 X99.624 Y102.235 E1.62702
G1 X100.439 Y102.124 E1.63899
G1 X101.501 Y102.073 E1.65446
G1 X111.925 Y102.084 E1.80615
G1 X113.077 Y102.188 E1.82298 F1800.000
G1 X113.950 Y102.347 E1.83589
G1 X114.440 Y102.469 E1.84324
G1 X115.453 Y102.799 E1.85873
G1 X115.893 Y102.979 E1.86566
G1 X116.558 Y103.287 E1.87632
G1 X117.037 Y103.544 E1.88423
G1 X117.536 Y103.845 E1.89271
G1 X118.403 Y104.457 E1.90815
G1 X119.088 Y105.027 E1.92112
G1 X119.390 Y105.308 E1.92712
G1 X120.088 Y106.039 E1.94183
G1 X120.503 Y106.540 E1.95129
G1 X120.956 Y107.150 E1.96236
G1 X121.401 Y107.828 E1.97415
G1 X121.870 Y108.662 E1.98807
G1 X122.070 Y109.071 E1.99470
G1 X122.280 Y109.526 E2.00199
G1 X122.572 Y110.252 E2.01338
G1 X122.884 Y111.177 E2.02759
G1 X123.025 Y111.668 E2.03501
G1 X123.313 Y112.939 E2.05399
G1 X123.474 Y113.989 E2.06943
G1 X123.535 Y114.535 E2.07744
G1 X123.592 Y115.372 E2.08965
G1 X123.609 Y116.213 E2.10189
G1 X123.582 Y117.181 E2.11598
G1 X123.494 Y118.218 E2.13112
G1 X123.349 Y119.227 E2.14595
G1 X123.102 Y120.391 E2.16327
G1 X122.912 Y121.104 E2.17400
G1 X122.751 Y121.609 E2.18172
G1 X122.486 Y122.344 E2.19308
G1 X122.236 Y122.937 E2.20246
G1 X121.967 Y123.509 E2.21165
G1 X121.655 Y124.105 E2.22144
G1 X121.090 Y125.026 E2.23716
G1 X120.403 Y125.953 E2.25394
G1 X119.956 Y126.478 E2.26398
G1 X119.591 Y126.858 E2.27164
G1 X118.727 Y127.651 E2.28872
G1 X118.253 Y128.029 E2.29754
G1 X117.705 Y128.410 E2.30725
G1 X117.359 Y128.634 E2.31324
G1 X116.704 Y129.002 E2.32418
G1 X116.157 Y129.275 E2.33308
G1 X115.603 Y129.508 E2.34181
G1 X115.096 Y129.697 E2.34970
G1 X114.483 Y129.884 E2.35903
G1 X113.373 Y130.133 E2.37558
G1 X112.908 Y130.204 E2.38242
G1 X112.294 Y130.264 E2.39140
G1 X111.504 Y130.294 E2.40290
G1 X101.055 Y130.283 E2.55495
G1 X100.108 Y130.206 E2.56877
G1 X98.828 Y129.966 E2.58772
G1 X97.994 Y129.727 E2.60034
G1 X97.420 Y129.517 E2.60924
G1 X96.845 Y129.276 E2.61832
G1 X96.053 Y128.873 E2.63124
G1 X95.406 Y128.484 E2.64222
G1 X94.783 Y128.056 E2.65323
G1 X94.273 Y127.650 E2.66271
G1 X93.736 Y127.181 E2.67308
G1 X93.045 Y126.479 E2.68742
G1 X92.414 Y125.726 E2.70172
G1 X91.910 Y125.026 E2.71426
G1 X91.653 Y124.619 E2.72127
G1 X91.344 Y124.103 E2.73002
G1 X90.906 Y123.252 E2.74395
G1 X90.527 Y122.378 E2.75782
G1 X90.401 Y122.042 E2.76303
G1 X90.176 Y121.391 E2.77306
G1 X89.995 Y120.772 E2.78244
G1 X89.749 Y119.742 E2.79785
G1 X89.575 Y118.748 E2.81253
G1 X89.459 Y117.753 E2.82711
G1 X89.400 Y116.758 E2.84162
G1 X89.393 Y115.850 E2.85483
G1 X89.418 Y115.183 E2.86455
G1 X89.527 Y113.984 E2.88206
G1 X89.608 Y113.396 E2.89070
G1 X89.773 Y112.506 E2.90386
G1 X89.992 Y111.606 E2.91734
G1 X90.268 Y110.702 E2.93110
G1 X90.585 Y109.849 E2.94434
G1 X90.902 Y109.128 E2.95580
G1 X91.130 Y108.663 E2.96334
G1 X91.596 Y107.833 E2.97718
G1 X91.839 Y107.453 E2.98375
G1 X92.233 Y106.882 E2.99385
G1 X92.501 Y106.534 E3.00024
G1 X92.915 Y106.036 E3.00965
G1 X93.619 Y105.299 E3.02450
G1 X93.859 Y105.554 F15000.000
G1 X94.680 Y104.835 E3.04038 F1800.000
G1 X95.456 Y104.268 E3.05437
G1 X96.197 Y103.815 E3.06700
G1 X96.599 Y103.600 E3.07365
G1 X97.245 Y103.301 E3.08400
G1 X98.189 Y102.947 E3.09866
G1 X99.013 Y102.715 E3.11112
G1 X99.678 Y102.581 E3.12100
G1 X100.471 Y102.473 E3.13264
G1 X101.501 Y102.423 E3.14765
G1 X111.907 Y102.434 E3.29907
G1 X113.023 Y102.534 E3.31538 F1800.000
G1 X113.872 Y102.688 E3.32792
G1 X114.345 Y102.806 E3.33503
G1 X115.327 Y103.125 E3.35005
G1 X116.397 Y103.598 E3.36708
G1 X116.867 Y103.850 E3.37483
G1 X117.345 Y104.138 E3.38295
G1 X118.189 Y104.733 E3.39798
G1 X118.850 Y105.284 E3.41051
G1 X119.150 Y105.562 E3.41645
G1 X119.827 Y106.272 E3.43073
G1 X120.228 Y106.756 E3.43987
G1 X120.667 Y107.346 E3.45057
G1 X121.101 Y108.008 E3.46209
G1 X121.558 Y108.821 E3.47566
G1 X121.756 Y109.224 E3.48220
G1 X121.958 Y109.662 E3.48922
G1 X122.243 Y110.370 E3.50032
G1 X122.548 Y111.274 E3.51420
G1 X122.688 Y111.762 E3.52159
G1 X122.968 Y112.999 E3.54004
G1 X123.126 Y114.030 E3.55523
G1 X123.187 Y114.566 E3.56308
G1 X123.243 Y115.388 E3.57507
G1 X123.259 Y116.208 E3.58699
G1 X123.233 Y117.157 E3.60082
G1 X123.147 Y118.173 E3.61565
G1 X123.005 Y119.162 E3.63018
G1 X122.763 Y120.305 E3.64718
G1 X122.577 Y121.002 E3.65769
G1 X122.420 Y121.493 E3.66519
G1 X122.161 Y122.215 E3.67635
G1 X121.914 Y122.799 E3.68558
G1 X121.656 Y123.348 E3.69441
G1 X121.349 Y123.935 E3.70404
G1 X120.799 Y124.832 E3.71935
G1 X120.134 Y125.729 E3.73559
G1 X119.696 Y126.243 E3.74543
G1 X119.344 Y126.610 E3.75283
G1 X118.503 Y127.382 E3.76944
G1 X118.044 Y127.749 E3.77799
G1 X117.511 Y128.119 E3.78742
G1 X117.176 Y128.337 E3.79325
G1 X116.540 Y128.694 E3.80386
G1 X116.012 Y128.956 E3.81243
G1 X115.471 Y129.184 E3.82097
G1 X114.984 Y129.366 E3.82854
G1 X114.393 Y129.546 E3.83753
G1 X113.318 Y129.787 E3.85356
G1 X112.861 Y129.857 E3.86029
G1 X112.273 Y129.914 E3.86889
G1 X111.504 Y129.944 E3.88008
G1 X101.074 Y129.933 E4.03186
G1 X100.154 Y129.859 E4.04528
G1 X98.916 Y129.627 E4.06361
G1 X98.105 Y129.396 E4.07588
G1 X97.552 Y129.193 E4.08446
G1 X96.989 Y128.957 E4.09334
G1 X96.220 Y128.565 E4.10590
G1 X95.600 Y128.193 E4.11642
G1 X94.992 Y127.775 E4.12716
G1 X94.497 Y127.381 E4.13637
G1 X93.977 Y126.927 E4.14641
G1 X93.305 Y126.244 E4.16035
G1 X92.878 Y125.743 E4.16993
G1 X92.535 Y125.304 E4.17804
G1 X92.202 Y124.832 E4.18644
G1 X91.540 Y123.727 E4.20519
G1 X91.222 Y123.103 E4.21538
G1 X90.852 Y122.248 E4.22894
G1 X90.472 Y121.165 E4.24563
G1 X90.328 Y120.661 E4.25327
G1 X90.098 Y119.704 E4.26758
G1 X89.906 Y118.582 E4.28414
G1 X89.808 Y117.728 E4.29666
G1 X89.750 Y116.752 E4.31089
G1 X89.755 Y115.451 E4.32982
G1 X89.813 Y114.566 E4.34272
G1 X89.874 Y114.025 E4.35064
G1 X89.953 Y113.455 E4.35902
G1 X90.084 Y112.726 E4.36979
G1 X90.328 Y111.703 E4.38509
G1 X90.598 Y110.819 E4.39855
G1 X90.907 Y109.984 E4.41150
G1 X91.216 Y109.282 E4.42267
G1 X91.442 Y108.822 E4.43013
G1 X91.896 Y108.014 E4.44361
G1 X92.128 Y107.649 E4.44990
G1 X92.515 Y107.089 E4.45980
G1 X92.776 Y106.751 E4.46602
G1 X93.175 Y106.270 E4.47511
G1 X93.822 Y105.591 E4.48875
G1 X94.074 Y105.833 F15000.000
G1 X94.894 Y105.112 E4.50464 F1800.000
G1 X95.647 Y104.561 E4.51822
G1 X96.364 Y104.123 E4.53044
G1 X96.760 Y103.911 E4.53698
G1 X97.380 Y103.624 E4.54693
G1 X98.291 Y103.282 E4.56109
G1 X99.091 Y103.056 E4.57318
G1 X99.733 Y102.927 E4.58271
G1 X100.503 Y102.821 E4.59402
G1 X101.501 Y102.773 E4.60856
G1 X111.889 Y102.783 E4.75972
G1 X112.969 Y102.880 E4.77549 F1800.000
G1 X113.793 Y103.029 E4.78767
G1 X114.251 Y103.143 E4.79454
G1 X115.201 Y103.452 E4.80908
G1 X116.236 Y103.909 E4.82555
G1 X116.697 Y104.156 E4.83316
G1 X117.154 Y104.432 E4.84092
G1 X117.974 Y105.010 E4.85553
G1 X118.613 Y105.541 E4.86761
G1 X118.909 Y105.816 E4.87349
G1 X119.566 Y106.506 E4.88735
G1 X119.953 Y106.972 E4.89617
G1 X120.377 Y107.543 E4.90651
G1 X120.801 Y108.188 E4.91775
G1 X121.246 Y108.979 E4.93096
G1 X121.441 Y109.378 E4.93742
G1 X121.635 Y109.799 E4.94417
G1 X121.913 Y110.488 E4.95498
G1 X122.212 Y111.371 E4.96854
G1 X122.351 Y111.856 E4.97589
G1 X122.623 Y113.058 E4.99382
G1 X122.779 Y114.072 E5.00874
G1 X122.838 Y114.597 E5.01644
G1 X122.893 Y115.404 E5.02821
G1 X122.909 Y116.202 E5.03981
G1 X122.884 Y117.134 E5.05338
G1 X122.800 Y118.128 E5.06790
G1 X122.661 Y119.096 E5.08213
G1 X122.424 Y120.218 E5.09882
G1 X122.242 Y120.901 E5.10910
G1 X122.090 Y121.378 E5.11638
G1 X121.835 Y122.087 E5.12734
G1 X121.592 Y122.661 E5.13642
G1 X121.345 Y123.188 E5.14488
G1 X121.043 Y123.765 E5.15437
G1 X120.507 Y124.638 E5.16927
G1 X119.865 Y125.505 E5.18496
G1 X119.437 Y126.009 E5.19459
G1 X119.096 Y126.363 E5.20174
G1 X118.279 Y127.113 E5.21788
G1 X117.835 Y127.468 E5.22616
G1 X117.318 Y127.827 E5.23532
G1 X116.992 Y128.039 E5.24097
G1 X116.375 Y128.385 E5.25126
G1 X115.868 Y128.637 E5.25950
G1 X115.339 Y128.860 E5.26785
G1 X114.873 Y129.034 E5.27509
G1 X114.304 Y129.207 E5.28375
G1 X113.264 Y129.441 E5.29926
G1 X112.815 Y129.510 E5.30588
G1 X112.252 Y129.565 E5.31411
G1 X111.504 Y129.594 E5.32499
G1 X101.092 Y129.584 E5.47650
G1 X100.201 Y129.512 E5.48951
G1 X99.004 Y129.289 E5.50722
G1 X98.217 Y129.064 E5.51914
G1 X97.684 Y128.869 E5.52740
G1 X97.134 Y128.638 E5.53608
G1 X96.386 Y128.257 E5.54829
G1 X95.794 Y127.901 E5.55835
G1 X95.201 Y127.494 E5.56881
G1 X94.720 Y127.112 E5.57774
G1 X94.218 Y126.673 E5.58745
G1 X93.564 Y126.010 E5.60100
G1 X93.147 Y125.519 E5.61038
G1 X92.493 Y124.638 E5.62634
G1 X91.851 Y123.567 E5.64452
G1 X91.538 Y122.953 E5.65454
G1 X91.177 Y122.118 E5.66778
G1 X90.807 Y121.064 E5.68403
G1 X90.667 Y120.574 E5.69145
G1 X90.442 Y119.638 E5.70546
G1 X90.253 Y118.537 E5.72170
G1 X90.157 Y117.702 E5.73393
G1 X90.100 Y116.746 E5.74788
G1 X90.104 Y115.464 E5.76653
G1 X90.162 Y114.597 E5.77917
G1 X90.222 Y114.067 E5.78693
G1 X90.298 Y113.514 E5.79505
G1 X90.426 Y112.798 E5.80565
G1 X90.665 Y111.800 E5.82057
G1 X90.928 Y110.936 E5.83372
G1 X91.230 Y110.119 E5.84639
G1 X91.531 Y109.435 E5.85726
G1 X91.754 Y108.980 E5.86464
G1 X92.196 Y108.194 E5.87776
G1 X92.418 Y107.845 E5.88378
G1 X92.797 Y107.297 E5.89347
G1 X93.051 Y106.967 E5.89953
G1 X93.436 Y106.504 E5.90830
G1 X94.038 Y105.871 E5.92101
G1 X94.291 Y106.113 F15000.000
G1 X95.108 Y105.389 E5.93690 F1800.000
G1 X95.838 Y104.854 E5.95006
G1 X96.531 Y104.430 E5.96188
G1 X96.921 Y104.221 E5.96832
G1 X97.516 Y103.947 E5.97785
G1 X98.394 Y103.616 E5.99151
G1 X99.170 Y103.397 E6.00325
G1 X99.788 Y103.272 E6.01241
G1 X100.536 Y103.170 E6.02340
G1 X101.501 Y103.123 E6.03746
G1 X111.871 Y103.133 E6.18836
G1 X112.915 Y103.226 E6.20361 F1800.000
G1 X113.714 Y103.370 E6.21542
G1 X114.156 Y103.480 E6.22205
G1 X115.076 Y103.779 E6.23612
G1 X116.076 Y104.220 E6.25202
G1 X116.527 Y104.462 E6.25948
G1 X116.963 Y104.725 E6.26689
G1 X117.760 Y105.287 E6.28108
G1 X118.375 Y105.798 E6.29271
G1 X118.669 Y106.070 E6.29854
G1 X119.305 Y106.739 E6.31198
G1 X119.677 Y107.189 E6.32047
G1 X120.087 Y107.739 E6.33045
G1 X120.501 Y108.369 E6.34142
G1 X120.934 Y109.138 E6.35426
G1 X121.127 Y109.531 E6.36064
G1 X121.313 Y109.936 E6.36712
G1 X121.584 Y110.607 E6.37765
G1 X121.875 Y111.468 E6.39087
G1 X122.014 Y111.951 E6.39819
G1 X122.278 Y113.118 E6.41560
G1 X122.431 Y114.113 E6.43025
G1 X122.489 Y114.628 E6.43780
G1 X122.544 Y115.421 E6.44935
G1 X122.559 Y116.196 E6.46064
G1 X122.534 Y117.110 E6.47394
G1 X122.453 Y118.083 E6.48815
G1 X122.317 Y119.031 E6.50209
G1 X122.085 Y120.132 E6.51845
G1 X121.907 Y120.799 E6.52851
G1 X121.760 Y121.262 E6.53557
G1 X121.510 Y121.958 E6.54633
G1 X121.271 Y122.523 E6.55526
G1 X121.034 Y123.027 E6.56336
G1 X120.737 Y123.595 E6.57269
G1 X120.216 Y124.444 E6.58719
G1 X119.596 Y125.281 E6.60233
G1 X119.177 Y125.774 E6.61176
G1 X118.848 Y126.116 E6.61866
G1 X118.055 Y126.844 E6.63432
G1 X117.626 Y127.187 E6.64232
G1 X117.124 Y127.536 E6.65122
G1 X116.808 Y127.741 E6.65669
G1 X116.210 Y128.076 E6.66667
G1 X115.724 Y128.318 E6.67457
G1 X115.207 Y128.536 E6.68273
G1 X114.761 Y128.702 E6.68965
G1 X114.215 Y128.869 E6.69797
G1 X113.209 Y129.095 E6.71297
G1 X112.768 Y129.163 E6.71947
G1 X112.231 Y129.216 E6.72732
G1 X111.504 Y129.244 E6.73790
G1 X101.111 Y129.234 E6.88914
G1 X100.074 Y129.140 E6.90428
G1 X99.093 Y128.950 E6.91883
G1 X98.328 Y128.732 E6.93040
G1 X97.816 Y128.545 E6.93834
G1 X97.278 Y128.319 E6.94683
G1 X96.552 Y127.949 E6.95868
G1 X95.875 Y127.535 E6.97023
G1 X95.410 Y127.214 E6.97846
G1 X94.944 Y126.843 E6.98712
G1 X94.459 Y126.419 E6.99650
G1 X94.150 Y126.114 E7.00280
G1 X93.824 Y125.775 E7.00965
G1 X93.416 Y125.295 E7.01882
G1 X92.784 Y124.444 E7.03424
G1 X92.161 Y123.406 E7.05186
G1 X91.855 Y122.803 E7.06170
G1 X91.502 Y121.988 E7.07463
G1 X91.142 Y120.962 E7.09044
G1 X91.006 Y120.488 E7.09763
G1 X90.785 Y119.572 E7.11134
G1 X90.600 Y118.493 E7.12727
G1 X90.507 Y117.677 E7.13921
