; generated by Slic3r 1.0.0RC3 on 2014-07-09 at 16:33:46

; layer_height = 0.1
; perimeters = 1
; top_solid_layers = 0
; bottom_solid_layers = 2
; fill_density = 0
; perimeter_speed = 80
; infill_speed = 200
; travel_speed = 500
; nozzle_diameter = 0.35
; filament_diameter = 1.75
; extrusion_multiplier = 1.00
; perimeters extrusion width = 0.35mm
; infill extrusion width = 0.40mm
; solid infill extrusion width = 0.40mm
; top infill extrusion width = 0.35mm
; first layer extrusion width = 0.40mm

G21 ; set units to millimeters
M190 S60 ; wait for bed temperature to be reached
M104 S210 ; set temperature

M109 S210 ; wait for temperature to be reached
G90 ; use absolute coordinates
G92 E0
M82 ; use absolute distances for extrusion
G1 Z0.100 F30000.000
G1 X86.180 Y86.576 F30000.000
G1 X86.630 Y86.176 E0.00974 F2880.000
G1 X88.130 Y85.026 E0.04033
G1 X89.780 Y84.106 E0.07091
G1 X91.540 Y83.436 E0.10139
G1 X93.880 Y82.736 E0.14091
G1 X95.730 Y82.326 E0.17158
G1 X97.610 Y82.186 E0.20209
G1 X102.380 Y82.186 E0.27929
G1 X104.260 Y82.326 E0.30980
G1 X106.110 Y82.736 E0.34047
G1 X108.450 Y83.436 E0.37999
G1 X110.210 Y84.106 E0.41047
G1 X111.860 Y85.026 E0.44105
G1 X113.360 Y86.176 E0.47164
G1 X113.810 Y86.576 E0.48138
G1 X115.480 Y88.376 E0.52112
G1 X116.790 Y90.456 E0.56090
G1 X117.800 Y92.466 E0.59731
G1 X118.330 Y93.576 E0.61721
G1 X119.070 Y95.516 E0.65082
G1 X119.490 Y97.546 E0.68436
G1 X119.590 Y99.616 E0.71790
G1 X119.350 Y101.686 E0.75163
G1 X118.790 Y103.686 E0.78524
G1 X117.730 Y106.556 E0.83476
G1 X116.870 Y108.416 E0.86792
G1 X115.720 Y110.126 E0.90127
G1 X114.320 Y111.626 E0.93448
G1 X113.350 Y112.516 E0.95578
G1 X111.800 Y113.736 E0.98771
G1 X110.090 Y114.706 E1.01952
G1 X108.240 Y115.406 E1.05154
G1 X105.970 Y116.076 E1.08984
G1 X104.150 Y116.476 E1.12000
G1 X102.290 Y116.616 E1.15019
G1 X97.710 Y116.616 E1.22431
G1 X95.860 Y116.476 E1.25433
G1 X94.040 Y116.086 E1.28446
G1 X91.760 Y115.416 E1.32292
G1 X89.910 Y114.716 E1.35493
G1 X88.190 Y113.746 E1.38689
G1 X86.640 Y112.516 E1.41891
G1 X85.670 Y111.626 E1.44022
G1 X84.270 Y110.126 E1.47342
G1 X83.120 Y108.416 E1.50677
G1 X82.260 Y106.556 E1.53994
G1 X81.200 Y103.686 E1.58945
G1 X80.640 Y101.686 E1.62307
G1 X80.400 Y99.616 E1.65679
G1 X80.500 Y97.546 E1.69033
G1 X80.920 Y95.516 E1.72388
G1 X81.660 Y93.576 E1.75748
G1 X82.190 Y92.466 E1.77739
G1 X83.200 Y90.456 E1.81380
G1 X84.510 Y88.376 E1.85358
G1 X86.140 Y86.619 E1.89237
G1 X86.440 Y86.866 F30000.000
G1 X86.890 Y86.466 E1.90212 F2880.000
G1 X88.340 Y85.346 E1.93177
G1 X89.940 Y84.456 E1.96140
G1 X91.650 Y83.806 E1.99100
G1 X93.990 Y83.106 E2.03053
G1 X95.780 Y82.716 E2.06018
G1 X97.610 Y82.576 E2.08989
G1 X102.380 Y82.576 E2.16708
G1 X104.210 Y82.716 E2.19679
G1 X106.000 Y83.106 E2.22644
G1 X108.340 Y83.806 E2.26596
G1 X110.050 Y84.456 E2.29557
G1 X111.650 Y85.346 E2.32520
G1 X113.100 Y86.466 E2.35485
G1 X113.550 Y86.866 E2.36460
G1 X115.180 Y88.606 E2.40318
G1 X116.440 Y90.626 E2.44171
G1 X117.450 Y92.626 E2.47797
G1 X117.980 Y93.736 E2.49788
G1 X118.700 Y95.626 E2.53061
G1 X119.110 Y97.596 E2.56318
G1 X119.200 Y99.606 E2.59574
G1 X118.970 Y101.606 E2.62832
G1 X118.430 Y103.546 E2.66091
G1 X117.370 Y106.416 E2.71043
G1 X116.530 Y108.226 E2.74272
G1 X115.420 Y109.886 E2.77504
G1 X114.060 Y111.346 E2.80733
G1 X113.090 Y112.236 E2.82864
G1 X111.590 Y113.416 E2.85952
G1 X109.920 Y114.356 E2.89054
G1 X108.130 Y115.036 E2.92153
G1 X105.860 Y115.706 E2.95983
G1 X104.090 Y116.096 E2.98916
G1 X102.290 Y116.226 E3.01837
G1 X97.710 Y116.226 E3.09249
G1 X95.910 Y116.096 E3.12170
G1 X94.150 Y115.716 E3.15084
G1 X91.870 Y115.046 E3.18930
G1 X90.080 Y114.366 E3.22029
G1 X88.410 Y113.416 E3.25138
G1 X86.900 Y112.236 E3.28240
G1 X85.930 Y111.346 E3.30370
G1 X84.570 Y109.886 E3.33600
G1 X83.460 Y108.226 E3.36831
G1 X82.620 Y106.416 E3.40061
G1 X81.560 Y103.546 E3.45012
G1 X81.020 Y101.606 E3.48271
G1 X80.790 Y99.606 E3.51529
G1 X80.880 Y97.596 E3.54786
G1 X81.290 Y95.626 E3.58042
G1 X82.010 Y93.736 E3.61315
G1 X82.540 Y92.626 E3.63306
G1 X83.550 Y90.626 E3.66932
G1 X84.810 Y88.606 E3.70785
G1 X86.400 Y86.908 E3.74549
G1 X86.700 Y87.156 F30000.000
G1 X87.150 Y86.756 E3.75524 F2880.000
G1 X88.560 Y85.676 E3.78398
G1 X90.110 Y84.816 E3.81267
G1 X91.770 Y84.176 E3.84146
G1 X94.110 Y83.476 E3.88099
G1 X95.840 Y83.096 E3.90966
G1 X97.610 Y82.966 E3.93838
G1 X102.380 Y82.966 E4.01558
G1 X104.150 Y83.096 E4.04430
G1 X105.880 Y83.476 E4.07297
G1 X108.220 Y84.176 E4.11249
G1 X109.880 Y84.816 E4.14129
G1 X111.430 Y85.676 E4.16997
G1 X112.840 Y86.756 E4.19872
G1 X113.290 Y87.156 E4.20846
G1 X114.870 Y88.846 E4.24591
G1 X116.090 Y90.806 E4.28327
G1 X117.090 Y92.796 E4.31931
G1 X117.620 Y93.906 E4.33922
G1 X118.320 Y95.726 E4.37078
G1 X118.720 Y97.646 E4.40252
G1 X118.810 Y99.596 E4.43411
G1 X118.590 Y101.536 E4.46571
G1 X118.060 Y103.416 E4.49732
G1 X117.000 Y106.286 E4.54684
G1 X116.190 Y108.036 E4.57804
G1 X115.110 Y109.646 E4.60942
G1 X113.800 Y111.056 E4.64057
G1 X112.830 Y111.946 E4.66187
G1 X111.370 Y113.096 E4.69195
G1 X109.760 Y114.006 E4.72188
G1 X108.020 Y114.666 E4.75200
G1 X105.750 Y115.336 E4.79030
G1 X104.040 Y115.706 E4.81862
G1 X102.290 Y115.836 E4.84702
G1 X97.710 Y115.836 E4.92114
G1 X95.970 Y115.706 E4.94938
G1 X94.260 Y115.336 E4.97769
G1 X91.980 Y114.666 E5.01615
G1 X90.240 Y114.006 E5.04627
G1 X88.620 Y113.096 E5.07634
G1 X87.160 Y111.946 E5.10642
G1 X86.190 Y111.056 E5.12773
G1 X84.880 Y109.646 E5.15887
G1 X83.800 Y108.036 E5.19025
G1 X82.990 Y106.286 E5.22146
G1 X81.930 Y103.416 E5.27097
G1 X81.400 Y101.536 E5.30259
G1 X81.180 Y99.596 E5.33418
G1 X81.270 Y97.646 E5.36578
G1 X81.670 Y95.726 E5.39752
G1 X82.370 Y93.906 E5.42907
G1 X82.900 Y92.796 E5.44898
G1 X83.900 Y90.806 E5.48503
G1 X85.120 Y88.846 E5.52239
G1 X86.660 Y87.198 E5.55889
G1 X86.950 Y87.446 F30000.000
G1 X87.400 Y87.046 E5.56863 F2880.000
G1 X88.770 Y86.006 E5.59647
G1 X90.270 Y85.166 E5.62429
G1 X91.880 Y84.556 E5.65215
G1 X94.220 Y83.856 E5.69168
G1 X95.900 Y83.486 E5.71952
G1 X97.610 Y83.356 E5.74728
G1 X102.380 Y83.356 E5.82448
G1 X104.090 Y83.486 E5.85223
G1 X105.770 Y83.856 E5.88007
G1 X108.110 Y84.556 E5.91960
G1 X109.720 Y85.166 E5.94746
G1 X111.220 Y86.006 E5.97529
G1 X112.590 Y87.046 E6.00312
G1 X113.040 Y87.446 E6.01287
G1 X114.560 Y89.086 E6.04906
G1 X115.750 Y90.976 E6.08520
G1 X116.640 Y92.746 E6.11726
G1 X117.270 Y94.076 E6.14108
G1 X117.950 Y95.836 E6.17162
G1 X118.340 Y97.696 E6.20237
G1 X118.420 Y99.576 E6.23283
G1 X118.210 Y101.456 E6.26344
G1 X117.700 Y103.276 E6.29403
G1 X116.640 Y106.146 E6.34355
G1 X115.850 Y107.846 E6.37388
G1 X114.810 Y109.396 E6.40409
G1 X113.530 Y110.766 E6.43444
G1 X112.560 Y111.656 E6.45574
G1 X111.150 Y112.766 E6.48478
G1 X109.590 Y113.656 E6.51385
G1 X107.910 Y114.286 E6.54289
G1 X105.640 Y114.956 E6.58119
G1 X103.980 Y115.326 E6.60872
G1 X102.290 Y115.446 E6.63614
G1 X97.710 Y115.446 E6.71026
G1 X96.020 Y115.326 E6.73768
G1 X94.370 Y114.966 E6.76501
G1 X92.090 Y114.296 E6.80347
G1 X90.410 Y113.656 E6.83257
G1 X88.840 Y112.776 E6.86169
G1 X87.430 Y111.656 E6.89084
G1 X86.460 Y110.766 E6.91214
G1 X85.180 Y109.396 E6.94249
G1 X84.140 Y107.846 E6.97269
G1 X83.350 Y106.146 E7.00303
G1 X82.290 Y103.276 E7.05255
G1 X81.780 Y101.456 E7.08314
G1 X81.570 Y99.576 E7.11375
G1 X81.650 Y97.696 E7.14420
G1 X82.040 Y95.836 E7.17496
G1 X82.720 Y94.076 E7.20550
G1 X83.350 Y92.746 E7.22931
G1 X84.240 Y90.976 E7.26138
G1 X85.430 Y89.086 E7.29752
G1 X86.910 Y87.489 E7.33277
G1 X87.210 Y87.736 F30000.000
G1 X87.660 Y87.336 E7.34251 F2880.000
G1 X88.980 Y86.326 E7.36941
G1 X90.430 Y85.516 E7.39629
G1 X91.990 Y84.926 E7.42328
G1 X94.330 Y84.226 E7.46281
G1 X95.950 Y83.866 E7.48967
G1 X97.610 Y83.746 E7.51660
G1 X102.380 Y83.746 E7.59380
G1 X104.040 Y83.866 E7.62074
G1 X105.660 Y84.226 E7.64759
G1 X108.000 Y84.926 E7.68712
G1 X109.560 Y85.516 E7.71412
G1 X111.010 Y86.326 E7.74100
G1 X112.330 Y87.336 E7.76789
G1 X112.780 Y87.736 E7.77764
G1 X114.250 Y89.316 E7.81256
G1 X115.400 Y91.156 E7.84768
G1 X116.290 Y92.926 E7.87974
G1 X116.920 Y94.246 E7.90342
G1 X117.580 Y95.946 E7.93293
G1 X117.950 Y97.736 E7.96251
G1 X118.030 Y99.566 E7.99216
G1 X117.830 Y101.386 E8.02179
G1 X117.330 Y103.146 E8.05140
G1 X116.270 Y106.016 E8.10091
G1 X115.510 Y107.656 E8.13017
G1 X114.500 Y109.156 E8.15943
G1 X113.270 Y110.486 E8.18875
G1 X112.300 Y111.376 E8.21006
G1 X110.940 Y112.446 E8.23806
G1 X109.420 Y113.306 E8.26633
G1 X107.800 Y113.916 E8.29434
G1 X105.530 Y114.586 E8.33265
G1 X103.930 Y114.936 E8.35915
G1 X102.290 Y115.056 E8.38576
G1 X97.710 Y115.056 E8.45989
G1 X96.080 Y114.936 E8.48634
G1 X94.480 Y114.596 E8.51281
G1 X92.200 Y113.926 E8.55127
G1 X90.570 Y113.306 E8.57949
G1 X89.060 Y112.446 E8.60762
G1 X87.690 Y111.376 E8.63575
G1 X86.720 Y110.486 E8.65706
G1 X85.490 Y109.156 E8.68637
G1 X84.480 Y107.656 E8.71564
G1 X83.720 Y106.016 E8.74489
G1 X82.660 Y103.146 E8.79441
G1 X82.160 Y101.386 E8.82402
G1 X81.960 Y99.566 E8.85365
G1 X82.040 Y97.736 E8.88330
G1 X82.410 Y95.946 E8.91288
G1 X83.070 Y94.246 E8.94239
G1 X83.700 Y92.926 E8.96606
G1 X84.590 Y91.156 E8.99813
G1 X85.740 Y89.316 E9.03324
G1 X87.170 Y87.779 E9.06722
G1 X87.470 Y88.026 F30000.000
G1 X87.920 Y87.626 E9.07697 F2880.000
G1 X89.880 Y86.236 E9.11585
G1 X92.100 Y85.296 E9.15487
G1 X94.440 Y84.596 E9.19440
G1 X96.010 Y84.256 E9.22040
G1 X97.610 Y84.136 E9.24636
G1 X102.380 Y84.136 E9.32356
G1 X103.980 Y84.256 E9.34953
G1 X105.550 Y84.596 E9.37553
G1 X107.890 Y85.296 E9.41506
G1 X110.110 Y86.236 E9.45407
G1 X112.070 Y87.626 E9.49296
G1 X112.520 Y88.026 E9.50270
G1 X113.940 Y89.556 E9.53649
G1 X115.050 Y91.326 E9.57030
G1 X116.040 Y93.296 E9.60598
G1 X116.570 Y94.406 E9.62589
G1 X117.200 Y96.056 E9.65447
G1 X117.560 Y97.786 E9.68307
G1 X117.640 Y99.556 E9.71174
G1 X117.440 Y101.306 E9.74025
G1 X116.970 Y103.006 E9.76880
G1 X115.910 Y105.876 E9.81831
G1 X115.170 Y107.466 E9.84669
G1 X114.200 Y108.916 E9.87493
G1 X113.010 Y110.196 E9.90321
G1 X112.040 Y111.086 E9.92452
G1 X110.720 Y112.126 E9.95171
G1 X109.260 Y112.946 E9.97881
G1 X107.690 Y113.546 E10.00602
G1 X105.420 Y114.216 E10.04432
G1 X103.870 Y114.556 E10.07000
G1 X102.290 Y114.666 E10.09563
G1 X97.710 Y114.666 E10.16976
G1 X96.130 Y114.556 E10.19539
G1 X94.590 Y114.216 E10.22091
G1 X92.310 Y113.546 E10.25937
G1 X90.740 Y112.956 E10.28652
G1 X89.270 Y112.126 E10.31384
G1 X87.950 Y111.086 E10.34103
G1 X86.980 Y110.196 E10.36234
G1 X85.790 Y108.916 E10.39062
G1 X84.820 Y107.466 E10.41886
G1 X84.080 Y105.876 E10.44724
G1 X83.020 Y103.006 E10.49675
G1 X82.550 Y101.306 E10.52530
G1 X82.350 Y99.556 E10.55381
G1 X82.430 Y97.786 E10.58248
G1 X82.790 Y96.056 E10.61108
G1 X83.420 Y94.406 E10.63966
G1 X83.950 Y93.296 E10.65957
G1 X84.940 Y91.326 E10.69525
G1 X86.050 Y89.556 E10.72906
G1 X87.430 Y88.069 E10.76190
G1 X87.730 Y88.316 F30000.000
G1 X88.180 Y87.916 E10.77165 F2880.000
G1 X90.070 Y86.576 E10.80914
G1 X92.210 Y85.676 E10.84671
G1 X94.550 Y84.976 E10.88624
G1 X96.060 Y84.636 E10.91129
G1 X97.610 Y84.526 E10.93644
G1 X102.380 Y84.526 E11.01364
G1 X103.930 Y84.636 E11.03878
G1 X105.440 Y84.976 E11.06383
G1 X107.780 Y85.676 E11.10336
G1 X109.920 Y86.576 E11.14093
G1 X111.810 Y87.916 E11.17843
G1 X112.260 Y88.316 E11.18817
G1 X113.630 Y89.796 E11.22081
G1 X114.700 Y91.506 E11.25346
G1 X115.690 Y93.466 E11.28900
G1 X116.220 Y94.576 E11.30890
G1 X116.830 Y96.166 E11.33646
G1 X117.180 Y97.836 E11.36408
G1 X117.260 Y99.536 E11.39162
G1 X117.060 Y101.236 E11.41933
G1 X116.600 Y102.876 E11.44689
G1 X115.540 Y105.746 E11.49641
G1 X114.830 Y107.276 E11.52370
G1 X113.890 Y108.676 E11.55099
G1 X112.740 Y109.906 E11.57825
G1 X111.770 Y110.796 E11.59955
G1 X110.500 Y111.796 E11.62571
G1 X109.090 Y112.596 E11.65195
G1 X107.580 Y113.166 E11.67807
G1 X105.310 Y113.836 E11.71637
G1 X103.820 Y114.166 E11.74107
G1 X102.290 Y114.276 E11.76590
G1 X97.710 Y114.276 E11.84002
G1 X96.190 Y114.166 E11.86468
G1 X94.700 Y113.846 E11.88935
G1 X92.420 Y113.176 E11.92781
G1 X90.900 Y112.596 E11.95414
G1 X89.490 Y111.806 E11.98029
G1 X88.220 Y110.796 E12.00656
G1 X87.250 Y109.906 E12.02786
G1 X86.100 Y108.676 E12.05511
G1 X85.160 Y107.276 E12.08240
G1 X84.450 Y105.746 E12.10970
G1 X83.390 Y102.876 E12.15922
G1 X82.930 Y101.236 E12.18678
G1 X82.730 Y99.536 E12.21448
G1 X82.810 Y97.836 E12.24203
G1 X83.160 Y96.166 E12.26964
G1 X83.770 Y94.576 E12.29720
G1 X84.300 Y93.466 E12.31711
G1 X85.290 Y91.506 E12.35265
G1 X86.360 Y89.796 E12.38529
G1 X87.690 Y88.359 E12.41699
G1 X87.990 Y88.616 F30000.000
G1 X88.440 Y88.216 E12.42673 F2880.000
G1 X90.260 Y86.916 E12.46293
G1 X92.320 Y86.046 E12.49912
G1 X94.660 Y85.346 E12.53865
G1 X96.120 Y85.026 E12.56284
G1 X97.610 Y84.916 E12.58702
G1 X102.380 Y84.916 E12.66421
G1 X103.870 Y85.026 E12.68839
G1 X105.330 Y85.346 E12.71258
G1 X107.670 Y86.046 E12.75211
G1 X109.730 Y86.916 E12.78830
G1 X111.550 Y88.216 E12.82450
G1 X112.000 Y88.616 E12.83424
G1 X113.320 Y90.036 E12.86562
G1 X114.360 Y91.676 E12.89705
G1 X115.250 Y93.446 E12.92911
G1 X115.870 Y94.746 E12.95242
G1 X116.460 Y96.276 E12.97896
G1 X116.790 Y97.886 E13.00556
G1 X116.870 Y99.526 E13.03213
G1 X116.680 Y101.156 E13.05869
G1 X116.240 Y102.736 E13.08523
G1 X115.180 Y105.606 E13.13475
G1 X114.490 Y107.086 E13.16117
G1 X113.590 Y108.436 E13.18743
G1 X112.480 Y109.626 E13.21377
G1 X111.510 Y110.516 E13.23508
G1 X109.620 Y111.886 E13.27285
G1 X107.470 Y112.796 E13.31064
G1 X105.200 Y113.466 E13.34894
G1 X103.760 Y113.786 E13.37282
G1 X102.290 Y113.886 E13.39666
G1 X97.710 Y113.886 E13.47078
G1 X96.250 Y113.786 E13.49447
G1 X94.810 Y113.466 E13.51834
G1 X92.530 Y112.796 E13.55680
G1 X90.370 Y111.886 E13.59473
G1 X88.480 Y110.516 E13.63251
G1 X87.510 Y109.626 E13.65382
G1 X86.400 Y108.436 E13.68015
G1 X85.500 Y107.086 E13.70641
G1 X84.810 Y105.606 E13.73284
G1 X83.750 Y102.736 E13.78235
G1 X83.310 Y101.156 E13.80890
G1 X83.120 Y99.526 E13.83546
G1 X83.200 Y97.886 E13.86203
G1 X83.530 Y96.276 E13.88863
G1 X84.120 Y94.746 E13.91517
G1 X84.740 Y93.446 E13.93848
G1 X85.630 Y91.676 E13.97054
G1 X86.670 Y90.036 E14.00197
G1 X87.950 Y88.659 E14.03240
G1 X88.250 Y88.906 F30000.000
G1 X88.700 Y88.506 E14.04214 F2880.000
G1 X90.450 Y87.256 E14.07695
G1 X92.430 Y86.416 E14.11176
G1 X94.770 Y85.716 E14.15129
G1 X96.180 Y85.406 E14.17465
G1 X97.610 Y85.306 E14.19785
G1 X102.380 Y85.306 E14.27505
G1 X103.810 Y85.406 E14.29825
G1 X105.220 Y85.716 E14.32161
G1 X107.560 Y86.416 E14.36114
G1 X109.540 Y87.256 E14.39595
G1 X111.290 Y88.506 E14.43075
G1 X111.740 Y88.906 E14.44050
G1 X113.020 Y90.266 E14.47072
G1 X114.010 Y91.856 E14.50104
G1 X114.990 Y93.806 E14.53636
G1 X115.520 Y94.916 E14.55626
G1 X116.080 Y96.386 E14.58172
G1 X116.400 Y97.936 E14.60733
G1 X116.480 Y99.516 E14.63294
G1 X116.300 Y101.086 E14.65851
G1 X115.870 Y102.606 E14.68408
G1 X114.810 Y105.476 E14.73359
G1 X114.150 Y106.896 E14.75894
G1 X113.280 Y108.186 E14.78412
G1 X112.220 Y109.336 E14.80943
G1 X111.250 Y110.226 E14.83073
G1 X109.430 Y111.546 E14.86712
G1 X107.360 Y112.426 E14.90352
G1 X105.090 Y113.096 E14.94183
G1 X103.700 Y113.396 E14.96484
G1 X102.290 Y113.496 E14.98772
G1 X97.710 Y113.496 E15.06184
G1 X96.300 Y113.396 E15.08472
G1 X94.920 Y113.096 E15.10757
G1 X92.640 Y112.426 E15.14603
G1 X90.570 Y111.546 E15.18243
G1 X88.740 Y110.226 E15.21895
G1 X87.770 Y109.336 E15.24026
G1 X86.710 Y108.186 E15.26557
G1 X85.840 Y106.896 E15.29075
G1 X85.180 Y105.476 E15.31609
G1 X84.120 Y102.606 E15.36561
G1 X83.690 Y101.086 E15.39117
G1 X83.510 Y99.516 E15.41675
G1 X83.590 Y97.936 E15.44235
G1 X83.910 Y96.386 E15.46796
G1 X84.470 Y94.916 E15.49342
G1 X85.000 Y93.806 E15.51333
G1 X85.980 Y91.856 E15.54865
G1 X86.970 Y90.266 E15.57896
G1 X88.210 Y88.948 E15.60824
G1 X88.510 Y89.196 F30000.000
G1 X88.960 Y88.796 E15.61799 F2880.000
G1 X90.640 Y87.596 E15.65140
G1 X92.550 Y86.796 E15.68491
G1 X94.890 Y86.096 E15.72444
G1 X96.230 Y85.796 E15.74667
G1 X97.610 Y85.696 E15.76906
G1 X102.380 Y85.696 E15.84625
G1 X103.760 Y85.796 E15.86865
G1 X105.100 Y86.096 E15.89087
G1 X107.440 Y86.796 E15.93040
G1 X109.350 Y87.596 E15.96391
G1 X111.030 Y88.796 E15.99733
G1 X111.480 Y89.196 E16.00707
G1 X112.710 Y90.506 E16.03615
G1 X113.660 Y92.026 E16.06516
G1 X114.640 Y93.976 E16.10048
G1 X115.170 Y95.086 E16.12039
G1 X115.710 Y96.496 E16.14482
G1 X116.020 Y97.986 E16.16945
G1 X116.090 Y99.496 E16.19392
G1 X115.920 Y101.006 E16.21851
G1 X115.500 Y102.466 E16.24310
G1 X114.440 Y105.336 E16.29261
G1 X113.420 Y107.346 E16.32909
G1 X111.950 Y109.046 E16.36546
G1 X110.980 Y109.936 E16.38677
G1 X109.240 Y111.206 E16.42163
G1 X107.250 Y112.046 E16.45659
G1 X104.980 Y112.716 E16.49489
G1 X103.650 Y113.016 E16.51696
G1 X102.290 Y113.106 E16.53902
G1 X97.710 Y113.106 E16.61314
G1 X96.360 Y113.016 E16.63504
G1 X95.030 Y112.726 E16.65707
G1 X92.750 Y112.056 E16.69553
G1 X90.760 Y111.206 E16.73055
G1 X89.010 Y109.936 E16.76554
G1 X88.040 Y109.046 E16.78685
G1 X86.570 Y107.346 E16.82322
G1 X85.550 Y105.336 E16.85970
G1 X84.490 Y102.466 E16.90921
G1 X84.070 Y101.006 E16.93380
G1 X83.900 Y99.496 E16.95839
G1 X83.970 Y97.986 E16.98285
G1 X84.280 Y96.496 E17.00748
G1 X84.820 Y95.086 E17.03192
G1 X85.350 Y93.976 E17.05183
G1 X86.330 Y92.026 E17.08715
G1 X87.280 Y90.506 E17.11616
G1 X88.470 Y89.238 E17.14429
G1 X88.760 Y89.486 F30000.000
G1 X89.210 Y89.086 E17.15404 F2880.000
G1 X90.830 Y87.936 E17.18619
G1 X92.660 Y87.166 E17.21832
G1 X95.000 Y86.466 E17.25785
G1 X96.290 Y86.176 E17.27925
G1 X97.610 Y86.086 E17.30066
G1 X102.380 Y86.086 E17.37786
G1 X103.700 Y86.176 E17.39927
G1 X104.990 Y86.466 E17.42067
G1 X107.330 Y87.166 E17.46020
G1 X109.160 Y87.936 E17.49233
G1 X110.780 Y89.086 E17.52448
G1 X111.230 Y89.486 E17.53423
G1 X112.400 Y90.746 E17.56205
G1 X113.310 Y92.206 E17.58990
G1 X114.280 Y94.136 E17.62485
G1 X114.810 Y95.246 E17.64476
G1 X115.430 Y96.956 E17.67420
G1 X115.690 Y98.756 E17.70363
G1 X115.600 Y100.576 E17.73312
G1 X115.140 Y102.336 E17.76256
G1 X114.080 Y105.206 E17.81208
G1 X113.100 Y107.126 E17.84696
G1 X111.690 Y108.766 E17.88197
G1 X110.720 Y109.656 E17.90327
G1 X109.050 Y110.866 E17.93665
G1 X107.140 Y111.676 E17.97022
G1 X104.870 Y112.346 E18.00853
G1 X103.590 Y112.626 E18.02973
G1 X102.290 Y112.716 E18.05082
G1 X97.710 Y112.716 E18.12495
G1 X96.410 Y112.626 E18.14604
G1 X95.140 Y112.346 E18.16708
G1 X92.860 Y111.676 E18.20554
G1 X90.950 Y110.876 E18.23906
G1 X89.270 Y109.656 E18.27266
G1 X88.300 Y108.766 E18.29396
G1 X86.890 Y107.126 E18.32897
G1 X85.910 Y105.206 E18.36385
G1 X84.850 Y102.336 E18.41337
G1 X84.390 Y100.576 E18.44281
G1 X84.300 Y98.756 E18.47230
G1 X84.560 Y96.956 E18.50173
G1 X85.180 Y95.246 E18.53117
G1 X85.710 Y94.136 E18.55108
G1 X86.680 Y92.206 E18.58603
G1 X87.590 Y90.746 E18.61388
G1 X88.720 Y89.529 E18.64076
G1 X89.020 Y89.776 F30000.000
G1 X89.470 Y89.376 E18.65050 F2880.000
G1 X91.020 Y88.276 E18.68126
G1 X92.770 Y87.536 E18.71201
G1 X95.110 Y86.836 E18.75154
G1 X96.350 Y86.566 E18.77208
G1 X97.610 Y86.476 E18.79252
G1 X102.380 Y86.476 E18.86972
G1 X103.640 Y86.566 E18.89017
G1 X104.880 Y86.836 E18.91070
G1 X107.220 Y87.536 E18.95023
G1 X108.970 Y88.276 E18.98098
G1 X110.520 Y89.376 E19.01174
G1 X110.970 Y89.776 E19.02149
G1 X112.090 Y90.976 E19.04805
G1 X112.960 Y92.376 E19.07473
G1 X113.930 Y94.306 E19.10969
G1 X114.460 Y95.416 E19.12959
G1 X115.050 Y97.056 E19.15780
G1 X115.310 Y98.776 E19.18595
G1 X115.210 Y100.516 E19.21416
G1 X114.770 Y102.196 E19.24227
G1 X113.710 Y105.066 E19.29178
G1 X112.770 Y106.906 E19.32522
G1 X111.430 Y108.476 E19.35862
G1 X110.460 Y109.366 E19.37993
G1 X108.860 Y110.526 E19.41191
G1 X107.030 Y111.306 E19.44411
G1 X104.760 Y111.976 E19.48241
G1 X103.540 Y112.246 E19.50263
G1 X102.290 Y112.326 E19.52291
G1 X97.710 Y112.326 E19.59703
G1 X96.470 Y112.246 E19.61714
G1 X95.250 Y111.976 E19.63736
G1 X92.970 Y111.306 E19.67582
G1 X91.140 Y110.536 E19.70795
G1 X89.530 Y109.366 E19.74016
G1 X88.560 Y108.476 E19.76147
G1 X87.220 Y106.906 E19.79487
G1 X86.280 Y105.066 E19.82831
G1 X85.220 Y102.196 E19.87783
G1 X84.780 Y100.516 E19.90593
G1 X84.680 Y98.776 E19.93414
G1 X84.940 Y97.056 E19.96229
G1 X85.530 Y95.416 E19.99050
G1 X86.060 Y94.306 E20.01041
G1 X87.030 Y92.376 E20.04536
G1 X87.900 Y90.976 E20.07204
G1 X88.980 Y89.818 E20.09766
G1 X89.280 Y90.066 F30000.000
G1 X89.730 Y89.666 E20.10740 F2880.000
G1 X91.210 Y88.616 E20.13677
G1 X92.880 Y87.906 E20.16614
G1 X95.220 Y87.206 E20.20567
G1 X96.400 Y86.946 E20.22522
G1 X97.610 Y86.856 E20.24486
G1 X102.380 Y86.856 E20.32206
G1 X103.590 Y86.946 E20.34169
G1 X104.770 Y87.206 E20.36125
G1 X107.110 Y87.906 E20.40078
G1 X108.780 Y88.616 E20.43015
G1 X110.260 Y89.666 E20.45952
G1 X110.710 Y90.066 E20.46926
G1 X111.780 Y91.216 E20.49468
G1 X112.620 Y92.556 E20.52028
G1 X113.510 Y94.326 E20.55234
G1 X114.110 Y95.586 E20.57492
G1 X114.680 Y97.146 E20.60180
G1 X114.920 Y98.796 E20.62879
G1 X114.830 Y100.456 E20.65569
G1 X114.410 Y102.066 E20.68262
G1 X113.350 Y104.936 E20.73214
G1 X112.450 Y106.696 E20.76413
G1 X111.170 Y108.186 E20.79592
G1 X110.200 Y109.076 E20.81722
G1 X108.660 Y110.196 E20.84804
G1 X106.920 Y110.926 E20.87858
G1 X104.650 Y111.596 E20.91688
G1 X103.480 Y111.856 E20.93628
G1 X102.290 Y111.946 E20.95560
G1 X97.710 Y111.946 E21.02972
G1 X96.520 Y111.856 E21.04903
G1 X95.360 Y111.606 E21.06824
G1 X93.080 Y110.936 E21.10670
G1 X91.330 Y110.196 E21.13745
G1 X89.790 Y109.076 E21.16826
G1 X88.820 Y108.186 E21.18957
G1 X87.540 Y106.696 E21.22136
G1 X86.640 Y104.936 E21.25335
G1 X85.580 Y102.066 E21.30287
G1 X85.160 Y100.456 E21.32979
G1 X85.070 Y98.796 E21.35670
G1 X85.310 Y97.146 E21.38368
G1 X85.880 Y95.586 E21.41056
G1 X86.480 Y94.326 E21.43315
G1 X87.370 Y92.556 E21.46521
G1 X88.210 Y91.216 E21.49081
G1 X89.240 Y90.109 E21.51528
G1 X89.540 Y90.356 F30000.000
G1 X89.990 Y89.956 E21.52503 F2880.000
G1 X91.400 Y88.956 E21.55300
G1 X92.990 Y88.286 E21.58093
G1 X95.330 Y87.586 E21.62046
G1 X96.460 Y87.336 E21.63919
G1 X97.610 Y87.246 E21.65785
G1 X102.380 Y87.246 E21.73505
G1 X103.530 Y87.336 E21.75372
G1 X104.660 Y87.586 E21.77245
G1 X107.000 Y88.286 E21.81198
G1 X108.590 Y88.956 E21.83990
G1 X110.000 Y89.956 E21.86788
G1 X110.450 Y90.356 E21.87762
G1 X111.470 Y91.456 E21.90190
G1 X112.270 Y92.726 E21.92619
G1 X113.160 Y94.496 E21.95825
G1 X113.760 Y95.756 E21.98084
G1 X114.300 Y97.246 E22.00649
G1 X114.530 Y98.816 E22.03217
G1 X114.440 Y100.396 E22.05778
G1 X114.040 Y101.926 E22.08338
G1 X112.980 Y104.796 E22.13289
G1 X112.130 Y106.476 E22.16336
G1 X110.900 Y107.906 E22.19389
G1 X109.930 Y108.796 E22.21519
G1 X108.470 Y109.856 E22.24439
G1 X106.810 Y110.556 E22.27355
G1 X104.540 Y111.226 E22.31185
G1 X103.430 Y111.466 E22.33023
G1 X102.290 Y111.556 E22.34874
G1 X97.710 Y111.556 E22.42286
G1 X96.580 Y111.476 E22.44120
G1 X95.470 Y111.226 E22.45961
G1 X93.190 Y110.556 E22.49807
G1 X91.520 Y109.856 E22.52737
G1 X90.060 Y108.796 E22.55657
G1 X89.090 Y107.906 E22.57788
G1 X87.860 Y106.476 E22.60841
G1 X87.010 Y104.796 E22.63888
G1 X85.950 Y101.926 E22.68839
G1 X85.550 Y100.396 E22.71398
G1 X85.460 Y98.816 E22.73960
G1 X85.690 Y97.246 E22.76528
G1 X86.230 Y95.756 E22.79093
G1 X86.830 Y94.496 E22.81351
G1 X87.720 Y92.726 E22.84557
G1 X88.520 Y91.456 E22.86987
G1 X89.500 Y90.399 E22.89320
G1 X89.800 Y90.646 F30000.000
G1 X90.250 Y90.246 E22.90294 F2880.000
G1 X91.590 Y89.296 E22.92953
G1 X93.100 Y88.656 E22.95607
G1 X95.440 Y87.956 E22.99560
G1 X96.520 Y87.716 E23.01350
G1 X97.610 Y87.636 E23.03119
G1 X102.380 Y87.636 E23.10839
G1 X103.470 Y87.716 E23.12608
G1 X104.550 Y87.956 E23.14398
G1 X106.890 Y88.656 E23.18351
G1 X108.400 Y89.296 E23.21005
G1 X109.740 Y90.246 E23.23664
G1 X110.190 Y90.646 E23.24638
G1 X111.160 Y91.696 E23.26951
G1 X111.920 Y92.906 E23.29264
G1 X112.880 Y94.806 E23.32709
G1 X113.410 Y95.916 E23.34700
G1 X113.920 Y97.336 E23.37142
G1 X114.140 Y98.826 E23.39579
G1 X114.060 Y100.336 E23.42026
G1 X113.680 Y101.796 E23.44468
G1 X112.620 Y104.666 E23.49419
G1 X111.800 Y106.256 E23.52315
G1 X110.640 Y107.616 E23.55208
G1 X109.670 Y108.506 E23.57338
G1 X108.280 Y109.516 E23.60119
G1 X106.700 Y110.186 E23.62896
G1 X104.430 Y110.856 E23.66727
G1 X103.370 Y111.086 E23.68482
G1 X102.290 Y111.166 E23.70235
G1 X97.710 Y111.166 E23.77647
G1 X96.630 Y111.086 E23.79400
G1 X95.580 Y110.856 E23.81139
G1 X93.300 Y110.186 E23.84985
G1 X91.710 Y109.516 E23.87778
G1 X90.320 Y108.506 E23.90558
G1 X89.350 Y107.616 E23.92689
G1 X88.190 Y106.256 E23.95582
G1 X87.370 Y104.666 E23.98477
G1 X86.310 Y101.796 E24.03429
G1 X85.930 Y100.336 E24.05870
G1 X85.850 Y98.826 E24.08317
G1 X86.070 Y97.336 E24.10755
G1 X86.580 Y95.916 E24.13197
G1 X87.110 Y94.806 E24.15188
G1 X88.070 Y92.906 E24.18633
G1 X88.830 Y91.696 E24.20945
G1 X89.760 Y90.689 E24.23164
G1 X90.060 Y90.936 F30000.000
G1 X90.510 Y90.536 E24.24139 F2880.000
G1 X91.780 Y89.636 E24.26658
G1 X93.220 Y89.026 E24.29189
G1 X95.560 Y88.326 E24.33142
G1 X96.570 Y88.106 E24.34814
G1 X97.610 Y88.026 E24.36503
G1 X102.380 Y88.026 E24.44222
G1 X103.420 Y88.106 E24.45910
G1 X104.430 Y88.326 E24.47583
G1 X106.770 Y89.026 E24.51536
G1 X108.210 Y89.636 E24.54067
G1 X109.480 Y90.536 E24.56586
G1 X109.930 Y90.936 E24.57561
G1 X110.850 Y91.926 E24.59748
G1 X111.570 Y93.076 E24.61944
G1 X112.530 Y94.976 E24.65389
G1 X113.060 Y96.086 E24.67380
G1 X113.540 Y97.436 E24.69698
G1 X113.750 Y98.846 E24.72006
G1 X113.670 Y100.276 E24.74323
G1 X113.310 Y101.656 E24.76632
G1 X112.250 Y104.526 E24.81583
G1 X111.480 Y106.036 E24.84326
G1 X110.380 Y107.326 E24.87070
G1 X109.410 Y108.216 E24.89200
G1 X108.090 Y109.176 E24.91842
G1 X106.590 Y109.806 E24.94475
G1 X104.320 Y110.476 E24.98305
G1 X103.320 Y110.696 E24.99963
G1 X102.290 Y110.776 E25.01635
G1 X97.710 Y110.776 E25.09047
G1 X96.690 Y110.696 E25.10703
G1 X95.690 Y110.486 E25.12356
G1 X93.410 Y109.816 E25.16202
G1 X91.910 Y109.176 E25.18842
G1 X90.580 Y108.216 E25.21496
G1 X89.610 Y107.326 E25.23627
G1 X88.510 Y106.036 E25.26370
G1 X87.740 Y104.526 E25.29114
G1 X86.680 Y101.656 E25.34065
G1 X86.320 Y100.276 E25.36373
G1 X86.240 Y98.846 E25.38691
G1 X86.450 Y97.436 E25.40998
G1 X86.930 Y96.086 E25.43317
G1 X87.460 Y94.976 E25.45308
G1 X88.420 Y93.076 E25.48753
G1 X89.140 Y91.926 E25.50949
G1 X90.020 Y90.979 E25.53041
G1 X90.320 Y91.226 F30000.000
G1 X90.770 Y90.826 E25.54016 F2880.000
G1 X91.970 Y89.976 E25.56396
G1 X93.330 Y89.406 E25.58782
G1 X95.670 Y88.706 E25.62735
G1 X96.630 Y88.486 E25.64329
G1 X97.610 Y88.416 E25.65919
G1 X102.380 Y88.416 E25.73639
G1 X103.360 Y88.486 E25.75229
G1 X104.320 Y88.706 E25.76823
G1 X106.660 Y89.406 E25.80776
G1 X108.020 Y89.976 E25.83162
G1 X109.220 Y90.826 E25.85542
G1 X109.670 Y91.226 E25.86517
G1 X110.550 Y92.166 E25.88601
G1 X111.230 Y93.246 E25.90666
G1 X112.120 Y95.016 E25.93872
G1 X112.710 Y96.256 E25.96095
G1 X113.170 Y97.526 E25.98281
G1 X113.360 Y98.866 E26.00471
G1 X113.290 Y100.216 E26.02659
G1 X112.950 Y101.526 E26.04849
G1 X111.890 Y104.396 E26.09801
G1 X111.160 Y105.826 E26.12399
G1 X110.110 Y107.036 E26.14992
G1 X109.140 Y107.926 E26.17122
G1 X107.900 Y108.836 E26.19612
G1 X106.480 Y109.436 E26.22106
G1 X104.210 Y110.106 E26.25937
G1 X103.260 Y110.316 E26.27511
G1 X102.290 Y110.386 E26.29085
G1 X97.710 Y110.386 E26.36498
G1 X96.740 Y110.316 E26.38072
G1 X95.800 Y110.106 E26.39630
G1 X93.520 Y109.436 E26.43476
G1 X92.100 Y108.836 E26.45971
G1 X90.850 Y107.926 E26.48474
G1 X89.880 Y107.036 E26.50604
G1 X88.830 Y105.826 E26.53197
G1 X88.100 Y104.396 E26.55795
G1 X87.040 Y101.526 E26.60747
G1 X86.700 Y100.216 E26.62937
G1 X86.630 Y98.866 E26.65125
G1 X86.820 Y97.526 E26.67315
G1 X87.280 Y96.256 E26.69501
G1 X87.870 Y95.016 E26.71724
G1 X88.760 Y93.246 E26.74930
G1 X89.440 Y92.166 E26.76995
G1 X90.280 Y91.268 E26.78985
G1 X90.580 Y91.516 F30000.000
G1 X91.030 Y91.116 E26.79959 F2880.000
G1 X92.160 Y90.316 E26.82200
G1 X93.440 Y89.776 E26.84448
G1 X95.780 Y89.076 E26.88401
G1 X96.680 Y88.876 E26.89893
G1 X97.610 Y88.806 E26.91403
G1 X102.380 Y88.806 E26.99122
G1 X103.310 Y88.876 E27.00632
G1 X104.210 Y89.076 E27.02124
G1 X106.550 Y89.776 E27.06077
G1 X107.830 Y90.316 E27.08325
G1 X108.960 Y91.116 E27.10566
G1 X109.410 Y91.516 E27.11540
G1 X110.240 Y92.406 E27.13510
G1 X110.880 Y93.426 E27.15458
G1 X111.830 Y95.316 E27.18882
G1 X112.360 Y96.426 E27.20873
G1 X112.790 Y97.626 E27.22935
G1 X112.970 Y98.886 E27.24995
G1 X112.900 Y100.156 E27.27054
G1 X112.580 Y101.386 E27.29111
G1 X111.520 Y104.256 E27.34062
G1 X110.840 Y105.606 E27.36509
G1 X109.850 Y106.756 E27.38964
G1 X108.880 Y107.646 E27.41095
G1 X107.710 Y108.496 E27.43435
G1 X106.370 Y109.066 E27.45792
G1 X104.100 Y109.736 E27.49623
G1 X103.200 Y109.926 E27.51111
G1 X102.290 Y109.996 E27.52588
G1 X97.710 Y109.996 E27.60001
G1 X96.800 Y109.926 E27.61478
G1 X95.910 Y109.736 E27.62950
G1 X93.630 Y109.066 E27.66796
G1 X92.290 Y108.496 E27.69153
G1 X91.110 Y107.646 E27.71507
G1 X90.140 Y106.756 E27.73637
G1 X89.150 Y105.606 E27.76093
G1 X88.470 Y104.256 E27.78539
G1 X87.410 Y101.386 E27.83491
G1 X87.090 Y100.156 E27.85548
G1 X87.020 Y98.886 E27.87606
G1 X87.200 Y97.626 E27.89666
G1 X87.630 Y96.426 E27.91729
G1 X88.160 Y95.316 E27.93720
G1 X89.110 Y93.426 E27.97143
G1 X89.750 Y92.406 E27.99092
G1 X90.540 Y91.558 E28.00967
G1 X94.988 Y96.435 F30000.000
G1 X95.240 Y96.235 E28.01488 F7200.000
G1 X95.379 Y96.083 E28.01821
G1 X97.030 Y95.675 E28.04573
G1 X97.650 Y95.398 E28.05672
G1 X99.170 Y95.453 E28.08135
G1 X100.000 Y95.420 E28.09478
G1 X100.830 Y95.453 E28.10822
G1 X102.350 Y95.398 E28.13285
G1 X102.970 Y95.675 E28.14383
G1 X104.621 Y96.083 E28.17135
G1 X104.760 Y96.235 E28.17468
G1 X105.012 Y96.435 E28.17989
G1 X105.888 Y98.160 E28.21122
G1 X106.380 Y99.186 E28.22962
G1 X105.755 Y100.813 E28.25783
G1 X105.365 Y101.929 E28.27696
G1 X104.799 Y102.391 E28.28879
G1 X104.457 Y102.761 E28.29694
G1 X103.131 Y103.060 E28.31893
G1 X102.258 Y103.410 E28.33416
G1 X101.111 Y103.336 E28.35275
G1 X98.889 Y103.336 E28.38872
G1 X97.742 Y103.410 E28.40731
G1 X96.869 Y103.060 E28.42255
G1 X95.543 Y102.761 E28.44453
G1 X95.201 Y102.391 E28.45269
G1 X94.635 Y101.929 E28.46451
G1 X94.245 Y100.813 E28.48364
G1 X93.620 Y99.186 E28.51185
G1 X94.112 Y98.160 E28.53026
G1 X94.962 Y96.487 E28.56064
G1 X93.939 Y99.151 F30000.000
G1 X97.914 Y103.126 E28.65280 F7200.000
G1 X98.438 Y103.093 E28.66141
G1 X94.119 Y98.774 E28.76152
G1 X94.300 Y98.397 E28.76838
G1 X98.967 Y103.064 E28.87658
G1 X99.525 Y103.064 E28.88572
G1 X94.486 Y98.025 E29.00254
G1 X94.674 Y97.655 E29.00934
G1 X100.082 Y103.064 E29.13474
G1 X100.640 Y103.064 E29.14388
G1 X94.861 Y97.286 E29.27786
G1 X95.049 Y96.916 E29.28465
G1 X101.203 Y103.070 E29.42732
G1 X101.799 Y103.108 E29.43711
G1 X95.260 Y96.569 E29.58870
G1 X95.566 Y96.317 E29.59519
G1 X102.335 Y103.086 E29.75212
G1 X102.733 Y102.926 E29.75915
G1 X96.013 Y96.206 E29.91494
G1 X96.460 Y96.096 E29.92249
G1 X103.142 Y102.779 E30.07742
G1 X103.597 Y102.676 E30.08507
G1 X96.907 Y95.986 E30.24017
G1 X97.322 Y95.843 E30.24736
G1 X104.052 Y102.573 E30.40340
G1 X104.428 Y102.391 E30.41024
G1 X97.709 Y95.672 E30.56600
G1 X98.288 Y95.693 E30.57549
G1 X104.708 Y102.114 E30.72434
G1 X105.015 Y101.863 E30.73084
G1 X98.866 Y95.714 E30.87339
G1 X99.425 Y95.715 E30.88254
G1 X105.222 Y101.512 E31.01694
G1 X105.367 Y101.099 E31.02412
G1 X99.961 Y95.694 E31.14944
G1 X100.539 Y95.714 E31.15891
G1 X105.512 Y100.687 E31.27421
G1 X105.667 Y100.284 E31.28128
G1 X101.098 Y95.716 E31.38720
G1 X101.636 Y95.696 E31.39602
G1 X105.821 Y99.881 E31.49305
G1 X105.976 Y99.478 E31.50012
G1 X102.174 Y95.677 E31.58826
G1 X103.024 Y95.968 F30000.000
G1 X105.928 Y98.872 E31.65558 F7200.000
G1 X105.386 Y97.773 F30000.000
G1 X103.765 Y96.151 E31.69318 F7200.000
G1 X104.727 Y96.556 F30000.000
G1 X104.811 Y96.640 E31.69513 F7200.000
G1 X94.559 Y100.887 F30000.000
G1 X96.332 Y102.660 E31.73624 F7200.000
G1 X97.083 Y102.853 E31.74894
G1 X94.221 Y99.991 E31.81529
G1 X94.859 Y101.744 F30000.000
G1 X94.946 Y101.831 E31.81730 F7200.000
M104 S190 ; set temperature
M140 S50 ; set bed temperature
G1 Z0.200 F30000.000
G1 X92.613 Y102.997 F30000.000
G1 X91.929 Y101.878 E31.86975 F9000
G1 X91.430 Y99.166 E31.98009
G1 X92.073 Y96.450 E32.09171
G1 X92.566 Y95.660 E32.12895
G1 X93.157 Y94.503 E32.18093
G1 X93.553 Y94.190 E32.20111
G1 X94.052 Y93.643 E32.23073
G1 X94.941 Y93.081 E32.27279
G1 X95.352 Y92.719 E32.29470
G1 X96.664 Y92.374 E32.34894
G1 X97.650 Y91.952 E32.39188
G1 X98.642 Y91.924 E32.43156
G1 X100.000 Y91.803 E32.48609
G1 X101.358 Y91.924 E32.54062
G1 X102.350 Y91.952 E32.58031
G1 X103.336 Y92.374 E32.62324
G1 X104.648 Y92.719 E32.67749
G1 X105.059 Y93.081 E32.69940
G1 X105.948 Y93.643 E32.74145
G1 X106.447 Y94.190 E32.77107
G1 X106.843 Y94.503 E32.79125
G1 X107.434 Y95.660 E32.84324
G1 X107.927 Y96.450 E32.88048
G1 X108.570 Y99.166 E32.99210
G1 X108.071 Y101.878 E33.10243
G1 X107.386 Y102.997 E33.15488
G1 X106.497 Y104.697 E33.23164
G1 X104.979 Y105.593 E33.30216
G1 X104.335 Y106.146 E33.33611
G1 X103.384 Y106.363 E33.37510
G1 X102.178 Y106.851 E33.42717
G1 X101.567 Y106.855 E33.45158
G1 X100.000 Y106.965 E33.51443
G1 X98.433 Y106.855 E33.57729
G1 X97.822 Y106.851 E33.60169
G1 X96.616 Y106.363 E33.65376
G1 X95.665 Y106.146 E33.69275
G1 X95.021 Y105.593 E33.72671
G1 X93.503 Y104.697 E33.79723
G1 X92.638 Y103.043 E33.87188
G1 X97.212 Y103.497 F30000.000
G1 X93.160 Y103.497 E34.03397 F9000
G1 X92.950 Y103.096 E34.05205
G1 X95.767 Y103.096 E34.16472
G1 X95.104 Y102.695 E34.19570
G1 X92.725 Y102.695 E34.29087
G1 X92.480 Y102.295 E34.30966
G1 X94.644 Y102.295 E34.39624
G1 X94.329 Y101.894 E34.41664
G1 X92.234 Y101.894 E34.50042
G1 X92.115 Y101.493 E34.51714
G1 X94.189 Y101.493 E34.60010
G1 X94.049 Y101.093 E34.61708
G1 X92.041 Y101.093 E34.69738
G1 X91.967 Y100.692 E34.71368
G1 X93.901 Y100.692 E34.79102
G1 X93.747 Y100.291 E34.80819
G1 X91.894 Y100.291 E34.88233
G1 X91.820 Y99.891 E34.89862
G1 X93.593 Y99.891 E34.96955
G1 X93.439 Y99.490 E34.98672
G1 X91.747 Y99.490 E35.05443
G1 X91.708 Y99.089 E35.07054
G1 X93.138 Y99.089 E35.12774
G1 X92.764 Y98.689 E35.14965
G1 X91.803 Y98.689 E35.18810
G1 X91.898 Y98.288 E35.20457
G1 X92.390 Y98.288 E35.22428
G1 X92.016 Y97.888 E35.24620
G1 X91.992 Y97.888 E35.24715
G1 X97.136 Y106.301 F30000.000
G1 X102.864 Y106.301 E35.47626 F9000
G1 X104.233 Y105.900 F30000.000
G1 X95.767 Y105.900 E35.81489 F9000
G1 X95.300 Y105.500 E35.83951
G1 X104.700 Y105.500 E36.21550
G1 X105.319 Y105.099 E36.24500
G1 X94.681 Y105.099 E36.67054
G1 X94.002 Y104.698 E36.70207
G1 X105.998 Y104.698 E37.18192
G1 X106.421 Y104.298 E37.20523
G1 X93.579 Y104.298 E37.71892
G1 X93.369 Y103.897 E37.73700
G1 X106.631 Y103.897 E38.26745
G1 X106.840 Y103.497 E38.28554
G1 X102.788 Y103.497 E38.44762
G1 X104.233 Y103.096 F30000.000
G1 X107.050 Y103.096 E38.56029 F9000
G1 X107.275 Y102.695 E38.57868
G1 X104.896 Y102.695 E38.67385
G1 X105.356 Y102.295 E38.69825
G1 X107.520 Y102.295 E38.78483
G1 X107.766 Y101.894 E38.80362
G1 X105.671 Y101.894 E38.88740
G1 X105.811 Y101.493 E38.90438
G1 X107.885 Y101.493 E38.98734
G1 X107.959 Y101.093 E39.00363
G1 X105.951 Y101.093 E39.08394
G1 X106.099 Y100.692 E39.10102
G1 X108.033 Y100.692 E39.17836
G1 X108.106 Y100.291 E39.19466
G1 X106.253 Y100.291 E39.26880
G1 X106.407 Y99.891 E39.28596
G1 X108.180 Y99.891 E39.35689
G1 X108.253 Y99.490 E39.37318
G1 X106.561 Y99.490 E39.44090
G1 X106.862 Y99.089 E39.46096
G1 X108.292 Y99.089 E39.51816
G1 X108.197 Y98.689 E39.53463
G1 X107.236 Y98.689 E39.57309
G1 X107.610 Y98.288 E39.59500
G1 X108.102 Y98.288 E39.61471
G1 X108.008 Y97.888 E39.63118
G1 X107.984 Y97.888 E39.63213
G1 X100.143 Y106.702 F30000.000
G1 X99.857 Y106.702 E39.64356 F9000
G1 X105.390 Y102.066 F30000.000
G1 X105.477 Y101.979 E39.64558 F12000
G1 X105.777 Y101.120 F30000.000
G1 X103.881 Y103.016 E39.68961 F12000
G1 X103.158 Y103.181 E39.70180
G1 X106.111 Y100.228 E39.77038
G1 X106.459 Y99.321 F30000.000
G1 X102.249 Y103.532 E39.86816 F12000
G1 X101.724 Y103.498 E39.87680
G1 X107.713 Y97.509 E40.01588
G1 X107.446 Y97.217 E40.02238
G1 X101.199 Y103.465 E40.16747
G1 X100.646 Y103.459 E40.17654
G1 X107.180 Y96.925 E40.32828
G1 X106.913 Y96.633 E40.33477
G1 X100.087 Y103.459 E40.49329
G1 X99.529 Y103.459 E40.50247
G1 X106.647 Y96.341 E40.66777
G1 X106.380 Y96.049 E40.67426
G1 X98.970 Y103.459 E40.84634
G1 X98.379 Y103.492 E40.85607
G1 X106.114 Y95.757 E41.03570
G1 X105.847 Y95.465 E41.04219
G1 X97.782 Y103.530 E41.22948
G1 X97.363 Y103.390 E41.23673
G1 X105.581 Y95.173 E41.42756
G1 X105.305 Y94.889 E41.43405
G1 X96.964 Y103.230 E41.62774
G1 X96.528 Y103.109 E41.63519
G1 X104.857 Y94.779 E41.82863
G1 X104.409 Y94.668 E41.83620
G1 X96.072 Y103.006 E42.02982
G1 X95.616 Y102.903 E42.03749
G1 X103.962 Y94.558 E42.23129
G1 X103.514 Y94.447 E42.23886
G1 X95.291 Y102.669 E42.42980
G1 X95.009 Y102.393 E42.43629
G1 X103.066 Y94.336 E42.62338
G1 X102.618 Y94.226 E42.63096
G1 X94.702 Y102.141 E42.81478
G1 X94.467 Y101.818 E42.82135
G1 X100.959 Y95.326 E42.97212
G1 X100.413 Y95.314 E42.98109
G1 X94.322 Y101.404 E43.12253
G1 X94.177 Y100.990 E43.12973
G1 X99.865 Y95.303 E43.26181
G1 X99.283 Y95.326 E43.27137
G1 X94.026 Y100.583 E43.39347
G1 X93.871 Y100.180 E43.40057
G1 X98.736 Y95.315 E43.51355
G1 X98.197 Y95.295 E43.52241
G1 X93.716 Y99.776 E43.62647
G1 X93.561 Y99.373 E43.63357
G1 X98.173 Y94.761 E43.74067
G1 X97.989 Y94.386 E43.74753
G1 X93.603 Y98.772 E43.84938
G1 X93.049 Y98.767 E43.85847
G1 X97.659 Y94.157 E43.96552
G1 X96.917 Y94.340 E43.97807
G1 X92.780 Y98.478 E44.07416
G1 X92.510 Y98.189 E44.08064
G1 X96.175 Y94.524 E44.16577
G1 X95.434 Y94.707 E44.17831
G1 X92.240 Y97.900 E44.25247
G1 X94.524 Y95.058 F30000.000
G1 X94.692 Y94.890 E44.25637 F12000
G1 X102.120 Y94.165 F30000.000
G1 X102.170 Y94.115 E44.25754 F12000
G1 X101.957 Y94.144 F30000.000
G1 X98.043 Y94.144 E44.41413 F9000
G1 X98.246 Y94.559 E44.43264
G1 X101.754 Y94.559 E44.57293
G1 X101.550 Y94.974 E44.59143
G1 X98.450 Y94.974 E44.71542
G1 X97.067 Y94.144 F30000.000
G1 X93.937 Y94.144 E44.84064 F9000
G1 X93.493 Y94.559 E44.86494
G1 X95.386 Y94.559 E44.94064
G1 X94.390 Y94.974 F30000.000
G1 X93.200 Y94.974 E44.98825 F9000
G1 X92.988 Y95.389 E45.00691
G1 X94.011 Y95.389 E45.04785
G1 X93.632 Y95.805 E45.07034
G1 X92.773 Y95.805 E45.10471
G1 X92.514 Y96.220 E45.12428
G1 X93.253 Y96.220 E45.15383
G1 X92.874 Y96.635 E45.17632
G1 X92.289 Y96.635 E45.19973
G1 X92.191 Y97.051 E45.21680
G1 X92.495 Y97.051 E45.22898
G1 X92.103 Y97.466 E45.25183
G1 X94.389 Y93.728 F30000.000
G1 X105.611 Y93.728 E45.70069 F9000
G1 X106.063 Y94.144 E45.72526
G1 X102.933 Y94.144 E45.85049
G1 X102.948 Y92.482 F30000.000
G1 X97.052 Y92.482 E46.08631 F9000
G1 X99.887 Y92.067 F30000.000
G1 X100.113 Y92.067 E46.09535 F9000
G1 X104.333 Y92.898 F30000.000
G1 X95.667 Y92.898 E46.44196 F9000
G1 X95.047 Y93.313 E46.47182
G1 X104.953 Y93.313 E46.86805
G1 X104.614 Y94.559 F30000.000
G1 X106.507 Y94.559 E46.94375 F9000
G1 X106.800 Y94.974 E46.96409
G1 X105.610 Y94.974 E47.01170
G1 X105.989 Y95.389 E47.03419
G1 X107.012 Y95.389 E47.07513
G1 X107.227 Y95.805 E47.09383
G1 X106.368 Y95.805 E47.12819
G1 X106.747 Y96.220 E47.15068
G1 X107.486 Y96.220 E47.18024
G1 X107.126 Y96.635 E47.20222
G1 X107.711 Y96.635 E47.22562
G1 X107.505 Y97.051 E47.24417
G1 X107.809 Y97.051 E47.25634
G1 X107.884 Y97.466 E47.27322
G1 X107.897 Y97.466 E47.27376
M106 S255
G1 Z0.2 F30000.000
G1 X109.492 Y97.332 F30000.000
G1 Z0.200 X109.700 Y99.151 E47.34697 F9000
G1 Z0.201 X109.388 Y101.826 E47.45472
G1 Z0.201 X108.495 Y104.335 E47.56125
G1 Z0.201 X108.371 Y104.549 E47.57113
G1 Z0.201 X107.224 Y105.741 E47.63728
G1 Z0.202 X106.339 Y106.941 E47.69692
G1 Z0.202 X106.091 Y107.087 E47.70846
G1 Z0.202 X105.667 Y107.451 E47.73081
G1 Z0.202 X104.605 Y108.040 E47.77936
G1 Z0.202 X104.217 Y108.365 E47.79962
G1 Z0.202 X102.962 Y108.708 E47.85167
G1 Z0.202 X102.109 Y109.091 E47.88907
G1 Z0.203 X101.155 Y109.141 E47.92726
G1 Z0.203 X100.000 Y109.267 E47.97375
G1 Z0.203 X98.845 Y109.141 E48.02025
G1 Z0.203 X97.891 Y109.091 E48.05844
G1 Z0.203 X97.038 Y108.708 E48.09584
G1 Z0.204 X95.783 Y108.365 E48.14789
G1 Z0.204 X95.395 Y108.040 E48.16815
G1 Z0.204 X94.333 Y107.451 E48.21670
G1 Z0.204 X93.909 Y107.087 E48.23905
G1 Z0.204 X93.661 Y106.941 E48.25059
G1 Z0.204 X92.776 Y105.741 E48.31022
G1 Z0.204 X91.629 Y104.549 E48.37638
G1 Z0.204 X91.505 Y104.335 E48.38625
G1 Z0.205 X90.612 Y101.826 E48.49278
G1 Z0.205 X90.300 Y99.151 E48.60054
G1 Z0.206 X90.611 Y96.473 E48.70837
G1 Z0.206 X91.082 Y95.035 E48.76889
G1 Z0.206 X91.512 Y94.344 E48.80146
G1 Z0.206 X91.819 Y93.745 E48.82837
G1 Z0.206 X92.547 Y92.927 E48.87219
G1 Z0.207 X93.154 Y92.063 E48.91443
G1 Z0.207 X93.756 Y91.683 E48.94289
G1 Z0.207 X94.697 Y90.855 E48.99302
G1 Z0.207 X95.174 Y90.569 E49.01527
G1 Z0.207 X95.374 Y90.406 E49.02559
G1 Z0.207 X96.969 Y89.929 E49.09217
G1 Z0.207 X97.669 Y89.626 E49.12273
G1 Z0.208 X98.987 Y89.539 E49.17554
G1 Z0.208 X100.000 Y89.426 E49.21631
G1 Z0.208 X101.013 Y89.539 E49.25709
G1 Z0.208 X102.331 Y89.626 E49.30990
G1 Z0.208 X103.031 Y89.929 E49.34045
G1 Z0.209 X104.626 Y90.406 E49.40703
G1 Z0.209 X104.826 Y90.569 E49.41735
G1 Z0.209 X105.303 Y90.855 E49.43961
G1 Z0.209 X106.244 Y91.683 E49.48973
G1 Z0.209 X106.846 Y92.063 E49.51820
G1 Z0.209 X107.453 Y92.927 E49.56044
G1 Z0.209 X108.181 Y93.745 E49.60425
G1 Z0.209 X108.488 Y94.344 E49.63117
G1 Z0.210 X108.918 Y95.035 E49.66374
G1 Z0.210 X109.389 Y96.473 E49.72426
G1 Z0.210 X109.492 Y97.332 E49.75888
G1 X104.882 Y90.897 F30000.000
G1 Z0.212 X95.118 Y90.897 E50.14944 F9000
G1 X94.574 Y91.300 F30000.000
G1 Z0.213 X105.426 Y91.300 E50.58350 F9000
G1 Z0.213 X105.883 Y91.702 E50.60787
G1 Z0.214 X102.408 Y91.702 E50.74687
G1 X103.348 Y92.104 F30000.000
G1 Z0.214 X106.438 Y92.104 E50.87046 F9000
G1 Z0.215 X106.849 Y92.507 E50.89346
G1 Z0.215 X104.788 Y92.507 E50.97589
G1 Z0.215 X105.259 Y92.909 E51.00067
G1 Z0.215 X107.132 Y92.909 E51.07557
G1 Z0.215 X107.457 Y93.311 E51.09627
G1 Z0.216 X105.897 Y93.311 E51.15870
G1 Z0.216 X106.355 Y93.714 E51.18309
G1 Z0.216 X107.816 Y93.714 E51.24151
G1 Z0.216 X108.088 Y94.116 E51.26094
G1 Z0.216 X106.761 Y94.116 E51.31399
G1 Z0.216 X107.134 Y94.518 E51.33594
G1 Z0.216 X108.299 Y94.518 E51.38252
G1 Z0.217 X108.550 Y94.921 E51.40149
G1 Z0.217 X107.340 Y94.921 E51.44987
G1 Z0.217 X107.546 Y95.323 E51.46794
G1 Z0.217 X108.747 Y95.323 E51.51599
G1 Z0.217 X108.878 Y95.726 E51.53292
G1 Z0.217 X107.773 Y95.726 E51.57715
G1 Z0.217 X108.023 Y96.128 E51.59611
G1 Z0.218 X109.010 Y96.128 E51.63558
G1 Z0.218 X109.141 Y96.530 E51.65250
G1 Z0.218 X108.205 Y96.530 E51.68995
G1 Z0.218 X108.300 Y96.933 E51.70649
G1 Z0.218 X109.188 Y96.933 E51.74199
G1 Z0.218 X109.235 Y97.335 E51.75820
G1 Z0.218 X108.395 Y97.335 E51.79176
G1 Z0.218 X108.491 Y97.737 E51.80830
G1 Z0.218 X109.282 Y97.737 E51.83993
G1 Z0.218 X109.328 Y98.140 E51.85614
G1 Z0.219 X108.586 Y98.140 E51.88583
G1 Z0.219 X108.681 Y98.542 E51.90237
G1 Z0.219 X109.375 Y98.542 E51.93012
G1 Z0.219 X109.422 Y98.944 E51.94633
G1 Z0.219 X108.777 Y98.944 E51.97214
G1 Z0.219 X108.793 Y99.347 E51.98825
G1 Z0.219 X109.423 Y99.347 E52.01344
G1 Z0.219 X109.376 Y99.749 E52.02964
G1 Z0.219 X108.719 Y99.749 E52.05590
G1 Z0.219 X108.646 Y100.151 E52.07227
G1 Z0.219 X109.329 Y100.151 E52.09961
G1 Z0.219 X109.282 Y100.554 E52.11581
G1 Z0.220 X108.572 Y100.554 E52.14424
G1 Z0.220 X108.498 Y100.956 E52.16060
G1 Z0.220 X109.235 Y100.956 E52.19010
G1 Z0.220 X109.188 Y101.359 E52.20631
G1 Z0.220 X108.424 Y101.359 E52.23689
G1 Z0.220 X108.350 Y101.761 E52.25325
G1 Z0.220 X109.141 Y101.761 E52.28491
G1 Z0.220 X109.000 Y102.163 E52.30197
G1 Z0.220 X108.193 Y102.163 E52.33424
G1 Z0.220 X107.947 Y102.566 E52.35311
G1 Z0.221 X108.857 Y102.566 E52.38951
G1 Z0.221 X108.713 Y102.968 E52.40659
G1 Z0.221 X107.700 Y102.968 E52.44711
G1 Z0.221 X107.476 Y103.370 E52.46553
G1 Z0.221 X108.570 Y103.370 E52.50929
G1 Z0.221 X108.427 Y103.773 E52.52637
G1 Z0.221 X107.266 Y103.773 E52.57281
G1 Z0.221 X107.055 Y104.175 E52.59097
G1 Z0.222 X108.284 Y104.175 E52.64010
G1 Z0.222 X107.994 Y104.577 E52.65993
G1 Z0.222 X106.845 Y104.577 E52.70588
G1 Z0.222 X106.501 Y104.980 E52.72706
G1 Z0.222 X107.606 Y104.980 E52.77127
G1 Z0.222 X107.219 Y105.382 E52.79361
G1 Z0.222 X105.826 Y105.382 E52.84932
G1 Z0.222 X105.151 Y105.784 E52.88075
G1 Z0.223 X106.878 Y105.784 E52.94982
G1 Z0.223 X106.581 Y106.187 E52.96982
G1 Z0.223 X104.675 Y106.187 E53.04608
G1 X103.528 Y106.589 F30000.000
G1 Z0.224 X106.285 Y106.589 E53.15634 F9000
G1 Z0.224 X105.814 Y106.992 E53.18110
G1 Z0.224 X102.504 Y106.992 E53.31351
G1 X102.583 Y108.601 F30000.000
G1 Z0.225 X97.417 Y108.601 E53.52016 F9000
G1 X97.496 Y106.992 F30000.000
G1 Z0.226 X94.186 Y106.992 E53.65257 F9000
G1 Z0.226 X94.751 Y107.394 E53.68033
G1 Z0.227 X105.249 Y107.394 E54.10025
G1 Z0.228 X104.523 Y107.796 E54.13343
G1 Z0.229 X95.477 Y107.796 E54.49530
G1 Z0.229 X96.131 Y108.199 E54.52605
G1 Z0.230 X103.869 Y108.199 E54.83553
G1 X100.092 Y109.003 F30000.000
G1 Z0.230 X99.908 Y109.003 E54.84286 F9000
G1 X96.472 Y106.589 F30000.000
G1 Z0.231 X93.715 Y106.589 E54.95313 F9000
G1 Z0.231 X93.419 Y106.187 E54.97312
G1 Z0.231 X95.325 Y106.187 E55.04939
G1 Z0.231 X94.848 Y105.784 E55.07434
G1 Z0.232 X93.122 Y105.784 E55.14340
G1 Z0.232 X92.781 Y105.382 E55.16449
G1 Z0.232 X94.166 Y105.382 E55.21991
G1 Z0.232 X93.485 Y104.980 E55.25158
G1 Z0.232 X92.394 Y104.980 E55.29521
G1 Z0.232 X92.006 Y104.577 E55.31755
G1 Z0.232 X93.160 Y104.577 E55.36371
G1 Z0.233 X92.948 Y104.175 E55.38190
G1 Z0.233 X91.716 Y104.175 E55.43118
G1 Z0.233 X91.573 Y103.773 E55.44827
G1 Z0.233 X92.737 Y103.773 E55.49480
G1 Z0.233 X92.525 Y103.370 E55.51299
G1 Z0.233 X91.430 Y103.370 E55.55678
G1 Z0.233 X91.287 Y102.968 E55.57386
G1 Z0.233 X92.300 Y102.968 E55.61438
G1 Z0.234 X92.053 Y102.566 E55.63325
G1 Z0.234 X91.143 Y102.566 E55.66965
G1 Z0.234 X91.000 Y102.163 E55.68673
G1 Z0.234 X91.807 Y102.163 E55.71900
G1 Z0.234 X91.650 Y101.761 E55.73627
G1 Z0.234 X90.859 Y101.761 E55.76793
G1 Z0.234 X90.812 Y101.359 E55.78414
G1 Z0.234 X91.576 Y101.359 E55.81472
G1 Z0.234 X91.502 Y100.956 E55.83108
G1 Z0.234 X90.765 Y100.956 E55.86058
G1 Z0.235 X90.718 Y100.554 E55.87679
G1 Z0.235 X91.428 Y100.554 E55.90521
G1 Z0.235 X91.354 Y100.151 E55.92157
G1 Z0.235 X90.671 Y100.151 E55.94892
G1 Z0.235 X90.624 Y99.749 E55.96512
G1 Z0.235 X91.281 Y99.749 E55.99138
G1 Z0.235 X91.207 Y99.347 E56.00775
G1 Z0.235 X90.577 Y99.347 E56.03293
G1 Z0.235 X90.578 Y98.944 E56.04903
G1 Z0.235 X91.223 Y98.944 E56.07484
G1 Z0.235 X91.319 Y98.542 E56.09138
G1 Z0.235 X90.625 Y98.542 E56.11914
G1 Z0.236 X90.672 Y98.140 E56.13534
G1 Z0.236 X91.414 Y98.140 E56.16503
G1 Z0.236 X91.509 Y97.737 E56.18157
G1 Z0.236 X90.718 Y97.737 E56.21320
G1 Z0.236 X90.765 Y97.335 E56.22940
G1 Z0.236 X91.604 Y97.335 E56.26297
G1 Z0.236 X91.700 Y96.933 E56.27951
G1 Z0.236 X90.812 Y96.933 E56.31502
G1 Z0.236 X90.859 Y96.530 E56.33122
G1 Z0.236 X91.795 Y96.530 E56.36866
G1 Z0.237 X91.977 Y96.128 E56.38632
G1 Z0.237 X90.990 Y96.128 E56.42579
G1 Z0.237 X91.122 Y95.726 E56.44273
G1 Z0.237 X92.227 Y95.726 E56.48695
G1 Z0.237 X92.454 Y95.323 E56.50543
G1 Z0.237 X91.253 Y95.323 E56.55347
G1 Z0.237 X91.450 Y94.921 E56.57140
G1 Z0.238 X92.660 Y94.921 E56.61978
G1 Z0.238 X92.866 Y94.518 E56.63786
G1 Z0.238 X91.701 Y94.518 E56.68444
G1 Z0.238 X91.912 Y94.116 E56.70262
G1 Z0.238 X93.239 Y94.116 E56.75567
G1 Z0.238 X93.645 Y93.714 E56.77854
G1 Z0.238 X92.184 Y93.714 E56.83696
G1 Z0.238 X92.543 Y93.311 E56.85851
G1 Z0.239 X94.103 Y93.311 E56.92094
G1 Z0.239 X94.741 Y92.909 E56.95109
G1 Z0.239 X92.868 Y92.909 E57.02599
G1 Z0.239 X93.151 Y92.507 E57.04566
G1 Z0.240 X95.212 Y92.507 E57.12809
G1 X94.117 Y91.702 F30000.000
G1 Z0.240 X97.592 Y91.702 E57.26709 F9000
G1 X96.652 Y92.104 F30000.000
G1 Z0.241 X93.562 Y92.104 E57.39069 F9000
G1 X95.957 Y90.495 F30000.000
G1 Z0.242 X104.043 Y90.495 E57.71412 F9000
G1 X102.773 Y90.093 F30000.000
G1 Z0.243 X97.227 Y90.093 E57.93595 F9000
G1 X99.909 Y89.690 F30000.000
G1 Z0.243 X100.090 Y89.690 E57.94319 F9000
G1 X102.878 Y92.072 F30000.000
G1 Z0.244 X108.265 Y97.459 E58.06708 F12000
G1 Z0.244 X108.437 Y98.184 E58.07919
G1 Z0.246 X102.100 Y91.847 E58.22492
G1 Z0.246 X101.531 Y91.832 E58.23417
G1 Z0.247 X108.609 Y98.909 E58.39692
G1 Z0.247 X108.614 Y99.467 E58.40600
G1 Z0.249 X100.936 Y91.789 E58.58257
G1 Z0.249 X100.328 Y91.735 E58.59248
G1 Z0.251 X108.528 Y99.934 E58.78103
G1 X105.674 Y99.846 F30000.000
G1 Z0.252 X108.004 Y102.176 E58.83461 F12000
G1 Z0.252 X107.793 Y102.519 E58.84115
G1 Z0.252 X106.062 Y100.787 E58.88097
G1 Z0.252 X105.916 Y101.194 E58.88800
G1 Z0.253 X107.583 Y102.862 E58.92635
G1 Z0.253 X107.383 Y103.214 E58.93294
G1 Z0.253 X105.772 Y101.604 E58.96997
G1 Z0.253 X105.629 Y102.014 E58.97703
G1 Z0.253 X107.193 Y103.577 E59.01299
G1 Z0.253 X107.003 Y103.941 E59.01965
G1 Z0.254 X105.356 Y102.294 E59.05752
G1 Z0.254 X105.052 Y102.543 E59.06391
G1 Z0.254 X106.813 Y104.304 E59.10440
G1 Z0.254 X106.623 Y104.667 E59.11107
G1 Z0.255 X104.778 Y102.822 E59.15349
G1 Z0.255 X104.450 Y103.047 E59.15996
G1 Z0.255 X106.314 Y104.911 E59.20283
G1 Z0.255 X105.967 Y105.117 E59.20939
G1 Z0.256 X103.999 Y103.149 E59.25466
G1 Z0.256 X103.547 Y103.251 E59.26218
G1 Z0.256 X105.621 Y105.324 E59.30986
G1 Z0.256 X105.274 Y105.531 E59.31642
G1 Z0.257 X103.111 Y103.367 E59.36617
G1 Z0.257 X102.716 Y103.525 E59.37309
G1 Z0.257 X104.943 Y105.752 E59.42430
G1 Z0.257 X104.645 Y106.008 E59.43068
G1 Z0.258 X102.321 Y103.684 E59.48413
G1 Z0.258 X101.739 Y103.655 E59.49361
G1 Z0.259 X104.331 Y106.247 E59.55321
G1 Z0.259 X103.880 Y106.349 E59.56072
G1 Z0.259 X101.148 Y103.617 E59.62356
G1 Z0.259 X100.592 Y103.614 E59.63260
G1 Z0.260 X103.430 Y106.452 E59.69787
G1 Z0.260 X103.034 Y106.610 E59.70480
G1 Z0.261 X100.039 Y103.614 E59.77369
G1 Z0.261 X99.486 Y103.614 E59.78268
G1 Z0.262 X102.640 Y106.769 E59.85523
G1 Z0.262 X102.247 Y106.928 E59.86214
G1 Z0.263 X98.932 Y103.614 E59.93836
G1 Z0.263 X98.410 Y103.645 E59.94686
G1 Z0.263 X101.717 Y106.951 E60.02289
G1 Z0.263 X101.191 Y106.979 E60.03145
G1 Z0.264 X97.891 Y103.678 E60.10735
G1 Z0.264 X97.118 Y103.459 E60.12041
G1 Z0.265 X100.674 Y107.015 E60.20220
G1 Z0.265 X100.157 Y107.051 E60.21062
G1 Z0.266 X96.328 Y103.223 E60.29867
G1 Z0.266 X95.614 Y103.061 E60.31058
G1 Z0.267 X99.586 Y107.033 E60.40193
G1 X97.842 Y106.949 F30000.000
G1 Z0.268 X91.618 Y100.724 E60.54507 F12000
G1 Z0.269 X91.493 Y100.047 E60.55628
G1 Z0.270 X98.398 Y106.952 E60.71508
G1 Z0.270 X98.991 Y106.992 E60.72474
G1 Z0.272 X91.368 Y99.369 E60.90004
G1 Z0.272 X91.405 Y98.852 E60.90846
G1 Z0.273 X94.266 Y101.713 E60.97425
G1 X93.966 Y100.860 F30000.000
G1 Z0.273 X91.511 Y98.405 E61.03071 F12000
G1 Z0.273 X91.617 Y97.958 E61.03818
G1 Z0.274 X94.060 Y100.401 E61.09437
G1 Z0.274 X94.239 Y100.027 E61.10112
G1 Z0.275 X91.722 Y97.510 E61.15900
G1 Z0.275 X91.828 Y97.063 E61.16647
G1 Z0.275 X94.419 Y99.653 E61.22604
G1 Z0.275 X94.598 Y99.280 E61.23278
G1 Z0.276 X91.934 Y96.616 E61.29404
G1 Z0.276 X92.098 Y96.227 E61.30090
G1 Z0.277 X94.777 Y98.906 E61.36252
G1 Z0.277 X94.957 Y98.532 E61.36926
G1 Z0.277 X92.310 Y95.886 E61.43011
G1 Z0.277 X92.518 Y95.540 E61.43667
G1 Z0.278 X95.136 Y98.158 E61.49688
G1 Z0.278 X95.315 Y97.784 E61.50362
G1 Z0.279 X92.705 Y95.174 E61.56365
G1 Z0.279 X92.892 Y94.808 E61.57033
G1 Z0.279 X95.494 Y97.410 E61.63018
G1 Z0.279 X95.674 Y97.037 E61.63692
G1 Z0.280 X93.086 Y94.449 E61.69644
G1 Z0.280 X93.387 Y94.197 E61.70282
G1 Z0.280 X95.853 Y96.663 E61.75954
G1 Z0.281 X96.032 Y96.289 E61.76628
G1 Z0.281 X93.665 Y93.922 E61.82072
G1 Z0.281 X93.929 Y93.633 E61.82708
G1 Z0.282 X96.212 Y95.915 E61.87957
G1 Z0.282 X96.395 Y95.546 E61.88628
G1 Z0.282 X94.251 Y93.402 E61.93559
G1 Z0.282 X94.590 Y93.187 E61.94211
G1 Z0.283 X96.839 Y95.436 E61.99382
G1 Z0.283 X97.235 Y95.279 E62.00075
G1 Z0.283 X94.923 Y92.967 E62.05391
G1 Z0.283 X95.217 Y92.708 E62.06029
G1 Z0.284 X97.628 Y95.119 E62.11573
G1 Z0.284 X98.202 Y95.140 E62.12507
G1 Z0.285 X95.612 Y92.550 E62.18463
G1 Z0.285 X96.050 Y92.435 E62.19199
G1 Z0.285 X98.776 Y95.161 E62.25468
G1 Z0.285 X99.337 Y95.168 E62.26380
G1 Z0.286 X96.488 Y92.320 E62.32931
G1 Z0.286 X96.892 Y92.170 E62.33632
G1 Z0.287 X99.869 Y95.147 E62.40477
G1 Z0.287 X100.434 Y95.159 E62.41397
G1 Z0.288 X97.279 Y92.005 E62.48652
G1 Z0.288 X97.681 Y91.853 E62.49350
G1 Z0.288 X100.997 Y95.169 E62.56975
G1 Z0.289 X101.531 Y95.150 E62.57844
G1 Z0.289 X98.220 Y91.838 E62.65459
G1 Z0.289 X98.751 Y91.817 E62.66323
G1 Z0.290 X102.065 Y95.130 E62.73944
G1 Z0.290 X102.768 Y95.280 E62.75113
G1 Z0.291 X99.259 Y91.772 E62.83182
G1 Z0.291 X99.767 Y91.726 E62.84011
G1 Z0.293 X108.442 Y100.401 E63.03961
G1 Z0.293 X108.356 Y100.869 E63.04733
G1 Z0.294 X104.144 Y96.657 E63.14419
G1 X104.654 Y97.720 F30000.000
G1 Z0.295 X108.270 Y101.336 E63.22736 F12000
G1 Z0.295 X108.184 Y101.803 E63.23508
G1 Z0.296 X105.164 Y98.783 E63.30454
G1 X108.094 Y96.735 F30000.000
G1 Z0.297 X103.739 Y92.379 E63.40470 F12000
G1 X104.489 Y92.577 F30000.000
G1 Z0.297 X107.514 Y95.601 E63.47424 F12000
G1 X106.935 Y94.469 F30000.000
G1 Z0.297 X106.850 Y94.385 E63.47618 F12000
G1 X96.939 Y106.599 F30000.000
G1 Z0.299 X91.742 Y101.402 E63.59569 F12000
G1 X92.050 Y102.263 F30000.000
G1 Z0.300 X96.141 Y106.354 E63.68978 F12000
G1 X94.823 Y105.590 F30000.000
G1 Z0.300 X92.807 Y103.573 E63.73616 F12000
G1 X93.422 Y104.741 F30000.000
G1 Z0.300 X93.474 Y104.793 E63.73736 F12000
G1 Z0.3 F30000.000
G1 X91.679 Y106.396 F30000.000
G1 Z0.300 X91.064 Y105.243 E63.78964 F9000
G1 Z0.300 X90.560 Y104.456 E63.82701
G1 Z0.301 X90.234 Y103.523 E63.86653
G1 Z0.301 X89.578 Y101.760 E63.94179
G1 Z0.301 X89.290 Y99.110 E64.04842
G1 Z0.302 X89.603 Y96.515 E64.15296
G1 Z0.302 X90.085 Y95.134 E64.21148
G1 Z0.302 X90.501 Y93.821 E64.26656
G1 Z0.302 X90.751 Y93.373 E64.28709
G1 Z0.302 X91.075 Y92.694 E64.31720
G1 Z0.302 X91.741 Y91.946 E64.35722
G1 Z0.303 X92.390 Y91.022 E64.40239
G1 Z0.303 X92.859 Y90.575 E64.42831
G1 Z0.303 X93.183 Y90.169 E64.44909
G1 Z0.303 X94.258 Y89.525 E64.49922
G1 Z0.303 X95.410 Y88.581 E64.55879
G1 Z0.303 X95.695 Y88.495 E64.57070
G1 Z0.303 X96.638 Y88.087 E64.61178
G1 Z0.304 X97.498 Y87.804 E64.64802
G1 Z0.304 X97.692 Y87.721 E64.65648
G1 Z0.304 X100.000 Y87.506 E64.74918
G1 Z0.304 X102.308 Y87.721 E64.84188
G1 Z0.304 X102.502 Y87.804 E64.85033
G1 Z0.305 X103.362 Y88.087 E64.88657
G1 Z0.305 X104.305 Y88.495 E64.92766
G1 Z0.305 X104.590 Y88.581 E64.93957
G1 Z0.305 X105.742 Y89.525 E64.99913
G1 Z0.305 X106.817 Y90.169 E65.04926
G1 Z0.305 X107.141 Y90.575 E65.07004
G1 Z0.305 X107.610 Y91.022 E65.09596
G1 Z0.306 X108.259 Y91.946 E65.14113
G1 Z0.306 X108.925 Y92.694 E65.18116
G1 Z0.306 X109.249 Y93.373 E65.21127
G1 Z0.306 X109.499 Y93.821 E65.23180
G1 Z0.306 X109.915 Y95.134 E65.28687
G1 Z0.306 X110.397 Y96.515 E65.34540
G1 Z0.307 X110.712 Y99.138 E65.45105
G1 Z0.307 X110.422 Y101.760 E65.55659
G1 Z0.307 X109.766 Y103.523 E65.63185
G1 Z0.308 X109.440 Y104.456 E65.67137
G1 Z0.308 X108.936 Y105.243 E65.70873
G1 Z0.308 X108.321 Y106.396 E65.76102
G1 Z0.308 X107.955 Y106.776 E65.78213
G1 Z0.308 X107.590 Y107.272 E65.80676
G1 Z0.308 X106.724 Y108.014 E65.85238
G1 Z0.308 X106.206 Y108.644 E65.88500
G1 Z0.309 X105.399 Y109.092 E65.92192
G1 Z0.309 X104.116 Y110.168 E65.98890
G1 Z0.309 X102.378 Y110.745 E66.06216
G1 Z0.309 X102.048 Y110.909 E66.07690
G1 Z0.309 X100.531 Y111.038 E66.13781
G1 Z0.310 X100.000 Y111.109 E66.15922
G1 Z0.310 X99.469 Y111.038 E66.18062
G1 Z0.310 X97.952 Y110.909 E66.24153
G1 Z0.310 X97.622 Y110.745 E66.25627
G1 Z0.310 X95.884 Y110.168 E66.32953
G1 Z0.310 X94.601 Y109.092 E66.39651
G1 Z0.311 X93.794 Y108.644 E66.43343
G1 Z0.311 X93.276 Y108.014 E66.46605
G1 Z0.311 X92.410 Y107.272 E66.51167
G1 Z0.311 X92.045 Y106.776 E66.53630
G1 Z0.311 X91.679 Y106.396 E66.55741
G1 X99.924 Y110.844 F30000.000
G1 Z0.311 X100.076 Y110.844 E66.56349 F9000
G1 X103.271 Y110.172 F30000.000
G1 Z0.311 X103.303 Y110.172 E66.56476 F9000
G1 X103.450 Y109.919 F30000.000
G1 Z0.312 X109.312 Y104.058 E66.70104 F12000
G1 X109.621 Y103.190 F30000.000
G1 Z0.314 X102.451 Y110.359 E66.86774 F12000
G1 X104.219 Y109.709 F30000.000
G1 Z0.315 X108.609 Y105.320 E66.96980 F12000
G1 X107.443 Y107.045 F30000.000
G1 Z0.315 X107.304 Y107.184 E66.97304 F12000
G1 X106.042 Y108.446 F30000.000
G1 Z0.315 X106.041 Y108.447 E66.97305 F12000
G1 X103.540 Y105.356 F30000.000
G1 Z0.316 X98.475 Y110.420 E67.09081 F12000
G1 Z0.316 X97.944 Y110.393 E67.09956
G1 Z0.317 X102.731 Y105.605 E67.21087
G1 X101.871 Y105.906 F30000.000
G1 Z0.318 X97.459 Y110.318 E67.31347 F12000
G1 Z0.318 X97.072 Y110.145 E67.32043
G1 Z0.319 X101.293 Y105.924 E67.41857
G1 Z0.319 X100.692 Y105.967 E67.42848
G1 Z0.320 X96.686 Y109.972 E67.52162
G1 Z0.320 X96.259 Y109.840 E67.52897
G1 Z0.321 X100.090 Y106.009 E67.61805
G1 Z0.321 X99.556 Y105.984 E67.62685
G1 Z0.322 X95.820 Y109.720 E67.71372
G1 Z0.322 X95.481 Y109.500 E67.72037
G1 Z0.323 X99.033 Y105.947 E67.80298
G1 Z0.323 X98.511 Y105.911 E67.81159
G1 Z0.324 X95.177 Y109.245 E67.88912
G1 Z0.324 X94.872 Y108.990 E67.89564
G1 Z0.324 X97.972 Y105.890 E67.96772
G1 Z0.325 X97.574 Y105.729 E67.97478
G1 Z0.325 X94.536 Y108.767 E68.04542
G1 Z0.325 X94.176 Y108.567 E68.05219
G1 Z0.326 X97.176 Y105.568 E68.12194
G1 Z0.326 X96.760 Y105.424 E68.12917
G1 Z0.327 X93.859 Y108.325 E68.19663
G1 Z0.327 X93.607 Y108.018 E68.20316
G1 Z0.327 X96.305 Y105.320 E68.26590
G1 Z0.327 X95.936 Y105.130 E68.27272
G1 Z0.328 X93.335 Y107.731 E68.33321
G1 Z0.328 X93.034 Y107.473 E68.33973
G1 Z0.329 X95.635 Y104.872 E68.40022
G1 Z0.329 X95.294 Y104.654 E68.40688
G1 Z0.329 X92.732 Y107.215 E68.46643
G1 Z0.329 X92.466 Y106.922 E68.47294
G1 Z0.330 X94.942 Y104.446 E68.53050
G1 Z0.330 X94.590 Y104.239 E68.53722
G1 Z0.330 X92.227 Y106.602 E68.59216
G1 Z0.331 X91.953 Y106.317 E68.59866
G1 Z0.331 X94.238 Y104.031 E68.65180
G1 Z0.331 X94.039 Y103.671 E68.65856
G1 Z0.332 X91.739 Y105.972 E68.71206
G1 Z0.332 X91.544 Y105.607 E68.71885
G1 Z0.332 X93.846 Y103.305 E68.77238
G1 Z0.332 X93.653 Y102.938 E68.77919
G1 Z0.333 X91.350 Y105.242 E68.83275
G1 Z0.333 X91.140 Y104.893 E68.83945
G1 Z0.333 X93.461 Y102.572 E68.89342
G1 Z0.333 X93.251 Y102.223 E68.90012
G1 Z0.334 X90.921 Y104.552 E68.95427
G1 Z0.334 X90.732 Y104.182 E68.96110
G1 Z0.334 X93.038 Y101.876 E69.01473
G1 Z0.335 X92.828 Y101.527 E69.02142
G1 Z0.335 X90.587 Y103.768 E69.07352
G1 Z0.335 X90.441 Y103.355 E69.08072
G1 Z0.336 X92.741 Y101.055 E69.13420
G1 Z0.336 X92.654 Y100.583 E69.14209
G1 Z0.336 X90.289 Y102.947 E69.19707
G1 Z0.336 X90.138 Y102.540 E69.20423
G1 Z0.337 X92.567 Y100.110 E69.26071
G1 Z0.337 X92.480 Y99.638 E69.26861
G1 Z0.337 X89.986 Y102.132 E69.32660
G1 Z0.338 X89.834 Y101.724 E69.33375
G1 Z0.338 X92.408 Y99.151 E69.39359
G1 Z0.338 X92.581 Y98.418 E69.40597
G1 Z0.339 X89.773 Y101.226 E69.47126
G1 Z0.339 X89.718 Y100.723 E69.47959
G1 Z0.340 X92.755 Y97.685 E69.55020
G1 Z0.340 X92.928 Y96.953 E69.56258
G1 Z0.340 X89.662 Y100.219 E69.63853
G1 Z0.341 X89.606 Y99.715 E69.64686
G1 Z0.341 X93.597 Y95.725 E69.73963
G1 X95.426 Y93.895 F30000.000
G1 Z0.343 X101.081 Y88.241 E69.87111 F12000
G1 Z0.343 X100.578 Y88.185 E69.87943
G1 Z0.345 X89.551 Y99.212 E70.13582
G1 Z0.345 X89.608 Y98.595 E70.14600
G1 Z0.348 X100.074 Y88.129 E70.38936
G1 Z0.348 X99.464 Y88.180 E70.39943
G1 Z0.350 X89.684 Y97.960 E70.62682
G1 Z0.350 X89.760 Y97.325 E70.63734
G1 Z0.352 X98.836 Y88.248 E70.84837
G1 Z0.352 X98.237 Y88.288 E70.85824
G1 Z0.354 X89.836 Y96.689 E71.05358
G1 Z0.354 X90.095 Y95.871 E71.06768
G1 Z0.356 X97.639 Y88.328 E71.24308
G1 Z0.356 X96.832 Y88.574 E71.25694
G1 Z0.357 X90.385 Y95.022 E71.40685
G1 Z0.357 X90.645 Y94.202 E71.42098
G1 Z0.359 X95.976 Y88.872 E71.54492
G1 Z0.359 X95.179 Y89.110 E71.55861
G1 Z0.360 X91.137 Y93.152 E71.65259
G1 X93.295 Y90.434 F30000.000
G1 Z0.360 X93.388 Y90.341 E71.65475 F12000
G1 X96.478 Y93.403 F30000.000
G1 Z0.361 X101.603 Y88.277 E71.77391 F12000
G1 Z0.361 X102.128 Y88.312 E71.78256
G1 Z0.362 X97.314 Y93.126 E71.89449
G1 Z0.362 X98.113 Y92.887 E71.90820
G1 Z0.363 X102.649 Y88.350 E72.01368
G1 Z0.363 X103.040 Y88.519 E72.02067
G1 Z0.364 X98.688 Y92.871 E72.12185
G1 Z0.364 X99.301 Y92.817 E72.13197
G1 Z0.365 X103.430 Y88.688 E72.22797
G1 Z0.365 X103.856 Y88.821 E72.23531
G1 Z0.366 X99.915 Y92.762 E72.32693
G1 Z0.366 X100.442 Y92.794 E72.33562
G1 Z0.367 X104.286 Y88.950 E72.42500
G1 Z0.367 X104.717 Y89.079 E72.43239
G1 Z0.368 X100.956 Y92.840 E72.51983
G1 Z0.368 X101.480 Y92.875 E72.52846
G1 Z0.369 X105.061 Y89.294 E72.61174
G1 Z0.369 X105.369 Y89.546 E72.61827
G1 Z0.370 X102.024 Y92.890 E72.69604
G1 Z0.370 X102.449 Y93.025 E72.70337
G1 Z0.370 X105.687 Y89.787 E72.77866
G1 Z0.371 X106.037 Y89.996 E72.78536
G1 Z0.371 X102.840 Y93.192 E72.85967
G1 Z0.371 X103.259 Y93.333 E72.86693
G1 Z0.372 X106.386 Y90.206 E72.93964
G1 Z0.372 X106.710 Y90.441 E72.94623
G1 Z0.373 X103.701 Y93.450 E73.01619
G1 Z0.373 X104.144 Y93.566 E73.02372
G1 Z0.373 X106.960 Y90.751 E73.08919
G1 Z0.373 X107.246 Y91.024 E73.09569
G1 Z0.374 X104.457 Y93.813 E73.16054
G1 Z0.374 X104.794 Y94.035 E73.16719
G1 Z0.375 X107.510 Y91.319 E73.23032
G1 Z0.375 X107.741 Y91.648 E73.23692
G1 Z0.375 X105.137 Y94.251 E73.29746
G1 Z0.375 X105.448 Y94.500 E73.30400
G1 Z0.376 X107.972 Y91.976 E73.36268
G1 Z0.376 X108.222 Y92.284 E73.36922
G1 Z0.377 X105.715 Y94.792 E73.42752
G1 Z0.377 X106.012 Y95.054 E73.43404
G1 Z0.377 X108.486 Y92.580 E73.49155
G1 Z0.377 X108.738 Y92.888 E73.49808
G1 Z0.378 X106.233 Y95.392 E73.55631
G1 Z0.378 X106.422 Y95.762 E73.56314
G1 Z0.378 X108.918 Y93.266 E73.62117
G1 Z0.379 X109.107 Y93.637 E73.62801
G1 Z0.379 X106.612 Y96.132 E73.68602
G1 Z0.379 X106.827 Y96.476 E73.69269
G1 Z0.380 X109.293 Y94.010 E73.75005
G1 Z0.380 X109.428 Y94.434 E73.75737
G1 Z0.380 X107.041 Y96.821 E73.81288
G1 Z0.380 X107.148 Y97.274 E73.82052
G1 Z0.381 X109.563 Y94.859 E73.87668
G1 Z0.381 X109.699 Y95.281 E73.88398
G1 Z0.382 X107.255 Y97.726 E73.94082
G1 Z0.382 X107.362 Y98.178 E73.94846
G1 Z0.382 X109.844 Y95.696 E74.00617
G1 Z0.382 X109.989 Y96.111 E74.01339
G1 Z0.383 X107.469 Y98.630 E74.07197
G1 Z0.383 X107.576 Y99.082 E74.07961
G1 Z0.383 X110.133 Y96.525 E74.13907
G1 Z0.384 X110.203 Y97.015 E74.14721
G1 Z0.384 X107.506 Y99.711 E74.20990
G1 Z0.384 X107.380 Y100.397 E74.22136
G1 Z0.385 X110.263 Y97.514 E74.28838
G1 Z0.385 X110.323 Y98.014 E74.29665
G1 Z0.386 X107.254 Y101.082 E74.36798
G1 X106.871 Y102.025 F30000.000
G1 Z0.386 X110.382 Y98.513 E74.44964 F12000
G1 Z0.386 X110.442 Y99.013 E74.45790
G1 Z0.387 X106.163 Y103.292 E74.55740
G1 X104.944 Y104.511 F30000.000
G1 Z0.389 X98.993 Y110.462 E74.69576 F12000
G1 Z0.389 X99.497 Y110.517 E74.70409
G1 Z0.391 X110.405 Y99.609 E74.95774
G1 Z0.391 X110.336 Y100.237 E74.96813
G1 Z0.394 X100.001 Y110.573 E75.20844
G1 Z0.394 X100.629 Y110.504 E75.21883
G1 Z0.396 X110.267 Y100.866 E75.44292
G1 Z0.396 X110.197 Y101.495 E75.45332
G1 Z0.398 X101.257 Y110.435 E75.66118
G1 Z0.398 X101.848 Y110.403 E75.67090
G1 Z0.400 X109.952 Y102.299 E75.85933
G1 X96.728 Y110.172 F30000.000
G1 Z0.400 X96.697 Y110.172 E75.86060 F9000
G1 X95.544 Y88.839 F30000.000
G1 Z0.400 X95.509 Y88.839 E75.86200 F9000
G1 X96.785 Y88.305 F30000.000
G1 Z0.400 X97.065 Y88.305 E75.87319 F9000
G1 X99.916 Y87.770 F30000.000
G1 Z0.400 X100.111 Y87.770 E75.88099 F9000
G1 X102.935 Y88.305 F30000.000
G1 Z0.400 X103.215 Y88.305 E75.89219 F9000
G1 X104.456 Y88.839 F30000.000
G1 Z0.400 X104.491 Y88.839 E75.89358 F9000
G1 Z0.4 F30000.000
G1 X105.134 Y87.514 F30000.000
G1 Z0.400 X106.450 Y88.311 E75.95516 F9000
G1 Z0.400 X106.657 Y88.481 E75.96586
G1 Z0.400 X106.769 Y88.548 E75.97109
G1 Z0.401 X107.785 Y89.817 E76.03611
G1 Z0.401 X108.900 Y90.881 E76.09777
G1 Z0.401 X109.079 Y91.159 E76.11099
G1 Z0.401 X109.799 Y92.667 E76.17783
G1 Z0.401 X110.494 Y93.914 E76.23492
G1 Z0.402 X110.819 Y94.876 E76.27553
G1 Z0.402 X111.232 Y96.542 E76.34421
G1 Z0.402 X111.431 Y99.127 E76.44791
G1 Z0.403 X111.195 Y101.709 E76.55160
G1 Z0.403 X110.426 Y104.351 E76.66169
G1 Z0.403 X110.306 Y104.592 E76.67246
G1 Z0.403 X109.418 Y105.979 E76.73832
G1 Z0.404 X108.807 Y107.126 E76.79031
G1 Z0.404 X108.459 Y107.531 E76.81167
G1 Z0.404 X108.168 Y107.987 E76.83329
G1 Z0.404 X107.259 Y108.766 E76.88117
G1 Z0.404 X106.226 Y110.024 E76.94629
G1 Z0.404 X106.074 Y110.168 E76.95467
G1 Z0.404 X104.672 Y110.980 E77.01949
G1 Z0.405 X104.018 Y111.558 E77.05440
G1 Z0.405 X103.236 Y111.811 E77.08727
G1 Z0.405 X101.998 Y112.425 E77.14255
G1 Z0.405 X100.000 Y112.676 E77.22308
G1 Z0.406 X98.002 Y112.425 E77.30362
G1 Z0.406 X96.764 Y111.811 E77.35890
G1 Z0.406 X95.982 Y111.558 E77.39176
G1 Z0.406 X95.328 Y110.980 E77.42668
G1 Z0.406 X93.926 Y110.168 E77.49149
G1 Z0.406 X93.774 Y110.024 E77.49988
G1 Z0.407 X92.741 Y108.766 E77.56499
G1 Z0.407 X91.832 Y107.987 E77.61287
G1 Z0.407 X91.541 Y107.531 E77.63449
G1 Z0.407 X91.193 Y107.126 E77.65585
G1 Z0.407 X90.582 Y105.979 E77.70784
G1 Z0.407 X89.694 Y104.592 E77.77370
G1 Z0.407 X89.574 Y104.351 E77.78447
G1 Z0.408 X88.805 Y101.709 E77.89456
G1 Z0.408 X88.569 Y99.127 E77.99825
G1 Z0.409 X88.768 Y96.542 E78.10195
G1 Z0.409 X89.181 Y94.876 E78.17063
G1 Z0.409 X89.506 Y93.914 E78.21124
G1 Z0.409 X90.201 Y92.667 E78.26833
G1 Z0.410 X90.921 Y91.159 E78.33518
G1 Z0.410 X91.100 Y90.881 E78.34840
G1 Z0.410 X92.215 Y89.817 E78.41005
G1 Z0.410 X93.231 Y88.548 E78.47507
G1 Z0.410 X93.343 Y88.481 E78.48030
G1 Z0.410 X93.550 Y88.311 E78.49100
G1 Z0.410 X94.866 Y87.514 E78.55258
G1 Z0.411 X95.456 Y87.039 E78.58288
G1 Z0.411 X96.478 Y86.703 E78.62587
G1 Z0.411 X97.719 Y86.168 E78.67995
G1 Z0.411 X100.000 Y85.919 E78.77173
G1 Z0.412 X102.281 Y86.168 E78.86352
G1 Z0.412 X103.522 Y86.703 E78.91760
G1 Z0.412 X104.544 Y87.039 E78.96059
G1 Z0.412 X105.134 Y87.514 E78.99089
G1 X105.051 Y87.759 F30000.000
G1 Z0.413 X109.117 Y91.825 E79.08433 F12000
G1 X109.639 Y92.899 F30000.000
G1 Z0.414 X103.800 Y87.060 E79.21855 F12000
G1 X102.894 Y86.707 F30000.000
G1 Z0.416 X110.292 Y94.105 E79.38860 F12000
G1 X110.575 Y94.941 F30000.000
G1 Z0.418 X102.028 Y86.394 E79.58504 F12000
G1 Z0.418 X101.415 Y86.335 E79.59504
G1 Z0.420 X110.757 Y95.676 E79.80976
G1 Z0.420 X110.939 Y96.411 E79.82207
G1 Z0.423 X100.806 Y86.278 E80.05498
G1 Z0.423 X100.197 Y86.221 E80.06492
G1 Z0.425 X111.017 Y97.042 E80.31363
G1 Z0.425 X111.063 Y97.641 E80.32339
G1 Z0.428 X99.662 Y86.239 E80.58544
G1 X102.492 Y90.728 F30000.000
G1 Z0.429 X98.147 Y86.383 E80.68530 F12000
G1 Z0.429 X97.673 Y86.462 E80.69311
G1 Z0.430 X101.748 Y90.537 E80.78676
G1 Z0.430 X101.156 Y90.498 E80.79640
G1 Z0.431 X97.287 Y86.629 E80.88532
G1 Z0.431 X96.901 Y86.796 E80.89215
G1 Z0.431 X100.545 Y90.440 E80.97592
G1 Z0.432 X99.939 Y90.386 E80.98581
G1 Z0.432 X96.511 Y86.958 E81.06460
G1 Z0.432 X96.095 Y87.095 E81.07172
G1 Z0.433 X99.441 Y90.441 E81.14864
G1 Z0.433 X98.938 Y90.491 E81.15685
G1 Z0.434 X95.679 Y87.232 E81.23177
G1 Z0.434 X95.346 Y87.452 E81.23825
G1 Z0.435 X98.420 Y90.526 E81.30890
G1 Z0.435 X97.901 Y90.560 E81.31735
G1 Z0.435 X95.040 Y87.698 E81.38312
G1 Z0.435 X94.699 Y87.910 E81.38964
G1 Z0.436 X97.514 Y90.726 E81.45435
G1 Z0.436 X97.111 Y90.875 E81.46133
G1 Z0.437 X94.354 Y88.119 E81.52469
G1 Z0.437 X94.010 Y88.327 E81.53123
G1 Z0.437 X96.685 Y91.003 E81.59272
G1 Z0.437 X96.260 Y91.130 E81.59994
G1 Z0.438 X93.669 Y88.539 E81.65948
G1 Z0.438 X93.366 Y88.789 E81.66586
G1 Z0.439 X95.834 Y91.257 E81.72259
G1 Z0.439 X95.502 Y91.477 E81.72907
G1 Z0.439 X93.117 Y89.093 E81.78387
G1 Z0.439 X92.872 Y89.400 E81.79026
G1 Z0.440 X95.171 Y91.700 E81.84311
G1 Z0.440 X94.877 Y91.959 E81.84948
G1 Z0.440 X92.626 Y89.707 E81.90122
G1 Z0.440 X92.377 Y90.011 E81.90761
G1 Z0.441 X94.583 Y92.217 E81.95832
G1 Z0.441 X94.283 Y92.471 E81.96469
G1 Z0.442 X92.094 Y90.281 E82.01501
G1 Z0.442 X91.811 Y90.551 E82.02137
G1 Z0.442 X93.944 Y92.684 E82.07040
G1 Z0.442 X93.676 Y92.969 E82.07675
G1 Z0.443 X91.528 Y90.821 E82.12611
G1 Z0.443 X91.257 Y91.103 E82.13246
G1 Z0.443 X93.447 Y93.293 E82.18280
G1 Z0.443 X93.209 Y93.608 E82.18922
G1 Z0.444 X91.058 Y91.457 E82.23865
G1 Z0.444 X90.880 Y91.831 E82.24539
G1 Z0.444 X92.949 Y93.900 E82.29295
G1 Z0.444 X92.688 Y94.193 E82.29931
G1 Z0.445 X90.701 Y92.206 E82.34498
G1 Z0.445 X90.523 Y92.580 E82.35172
G1 Z0.445 X92.478 Y94.536 E82.39667
G1 Z0.445 X92.285 Y94.895 E82.40331
G1 Z0.446 X90.335 Y92.945 E82.44812
G1 Z0.446 X90.137 Y93.300 E82.45472
G1 Z0.446 X92.073 Y95.236 E82.49921
G1 Z0.446 X91.891 Y95.607 E82.50593
G1 Z0.447 X89.940 Y93.655 E82.55078
G1 Z0.447 X89.742 Y94.010 E82.55739
G1 Z0.447 X91.755 Y96.023 E82.60366
G1 Z0.447 X91.619 Y96.440 E82.61079
G1 Z0.448 X89.601 Y94.422 E82.65717
G1 Z0.448 X89.461 Y94.835 E82.66425
G1 Z0.448 X91.517 Y96.891 E82.71150
G1 Z0.448 X91.459 Y97.386 E82.71960
G1 Z0.449 X89.343 Y95.270 E82.76823
G1 Z0.449 X89.233 Y95.713 E82.77565
G1 Z0.449 X91.401 Y97.881 E82.82548
G1 Z0.449 X91.344 Y98.376 E82.83358
G1 Z0.450 X89.124 Y96.156 E82.88461
G1 Z0.450 X89.017 Y96.602 E82.89206
G1 Z0.451 X91.286 Y98.872 E82.94422
G1 Z0.451 X91.286 Y99.424 E82.95320
G1 Z0.451 X88.977 Y97.116 E83.00625
G1 Z0.451 X88.938 Y97.629 E83.01462
G1 Z0.452 X91.359 Y100.050 E83.07027
G1 Z0.452 X91.432 Y100.676 E83.08051
G1 Z0.452 X88.898 Y98.142 E83.13874
G1 Z0.452 X88.859 Y98.656 E83.14711
G1 Z0.453 X91.505 Y101.302 E83.20792
G1 Z0.453 X91.696 Y102.045 E83.22040
G1 Z0.454 X88.828 Y99.177 E83.28632
G1 Z0.454 X88.883 Y99.786 E83.29624
G1 Z0.455 X92.001 Y102.904 E83.36791
G1 X92.307 Y103.763 F30000.000
G1 Z0.455 X88.939 Y100.394 E83.44533 F12000
G1 Z0.455 X88.994 Y101.003 E83.45526
G1 Z0.458 X100.361 Y112.370 E83.71652
G1 Z0.458 X99.834 Y112.395 E83.72509
G1 Z0.460 X89.050 Y101.611 E83.97297
G1 Z0.461 X89.263 Y102.377 E83.98588
G1 Z0.463 X99.204 Y112.318 E84.21437
G1 Z0.463 X98.575 Y112.242 E84.22465
G1 Z0.465 X89.490 Y103.156 E84.43348
G1 Z0.465 X89.716 Y103.936 E84.44668
G1 Z0.467 X97.846 Y112.065 E84.63353
G1 X96.778 Y111.551 F30000.000
G1 Z0.468 X90.303 Y105.075 E84.78235 F12000
G1 X91.112 Y106.438 F30000.000
G1 Z0.469 X95.410 Y110.736 E84.88114 F12000
G1 X94.097 Y109.975 F30000.000
G1 Z0.469 X93.894 Y109.772 E84.88580 F12000
G1 X95.633 Y107.088 F30000.000
G1 Z0.471 X100.857 Y112.313 E85.00587 F12000
G1 X96.742 Y107.645 F30000.000
G1 Z0.472 X101.349 Y112.252 E85.11175 F12000
G1 Z0.472 X101.840 Y112.190 E85.11980
G1 Z0.473 X97.549 Y107.899 E85.21844
G1 Z0.473 X98.370 Y108.167 E85.23248
G1 Z0.474 X102.231 Y112.028 E85.32121
G1 Z0.474 X102.600 Y111.844 E85.32792
G1 Z0.474 X98.955 Y108.200 E85.41169
G1 Z0.475 X99.577 Y108.268 E85.42185
G1 Z0.475 X102.970 Y111.661 E85.49985
G1 Z0.475 X103.366 Y111.504 E85.50676
G1 Z0.476 X100.158 Y108.297 E85.58048
G1 Z0.476 X100.657 Y108.242 E85.58862
G1 Z0.477 X103.783 Y111.369 E85.66048
G1 Z0.477 X104.108 Y111.141 E85.66693
G1 Z0.478 X101.159 Y108.192 E85.73472
G1 Z0.478 X101.684 Y108.164 E85.74327
G1 Z0.478 X104.402 Y110.882 E85.80573
G1 Z0.478 X104.728 Y110.655 E85.81218
G1 Z0.479 X102.120 Y108.047 E85.87213
G1 Z0.479 X102.502 Y107.876 E85.87893
G1 Z0.480 X105.078 Y110.453 E85.93816
G1 Z0.480 X105.428 Y110.250 E85.94473
G1 Z0.480 X102.917 Y107.738 E86.00246
G1 Z0.480 X103.351 Y107.620 E86.00978
G1 Z0.481 X105.779 Y110.047 E86.06557
G1 Z0.481 X106.081 Y109.797 E86.07196
G1 Z0.481 X103.780 Y107.496 E86.12485
G1 Z0.481 X104.083 Y107.246 E86.13124
G1 Z0.482 X106.333 Y109.496 E86.18295
G1 Z0.482 X106.582 Y109.192 E86.18933
G1 Z0.482 X104.439 Y107.049 E86.23860
G1 Z0.483 X104.794 Y106.851 E86.24521
G1 Z0.483 X106.831 Y108.889 E86.29203
G1 Z0.483 X107.081 Y108.586 E86.29842
G1 Z0.483 X105.145 Y106.650 E86.34291
G1 Z0.484 X105.443 Y106.395 E86.34928
G1 Z0.484 X107.379 Y108.330 E86.39378
G1 Z0.484 X107.677 Y108.075 E86.40015
G1 Z0.484 X105.748 Y106.146 E86.44448
G1 Z0.485 X105.982 Y105.828 E86.45091
G1 Z0.485 X107.974 Y107.820 E86.49669
G1 Z0.485 X108.190 Y107.483 E86.50320
G1 Z0.485 X106.217 Y105.510 E86.54855
G1 Z0.486 X106.452 Y105.192 E86.55498
G1 Z0.486 X108.433 Y107.174 E86.60052
G1 Z0.486 X108.666 Y106.853 E86.60696
G1 Z0.486 X106.716 Y104.903 E86.65179
G1 Z0.487 X106.987 Y104.621 E86.65814
G1 Z0.487 X108.858 Y106.493 E86.70116
G1 Z0.487 X109.051 Y106.132 E86.70780
G1 Z0.487 X107.258 Y104.340 E86.74900
G1 Z0.487 X107.529 Y104.058 E86.75535
G1 Z0.488 X109.248 Y105.777 E86.79486
G1 Z0.488 X109.464 Y105.440 E86.80137
G1 Z0.488 X107.718 Y103.693 E86.84150
G1 Z0.488 X107.863 Y103.286 E86.84854
G1 Z0.489 X109.680 Y105.103 E86.89030
G1 Z0.489 X109.895 Y104.766 E86.89680
G1 Z0.489 X108.008 Y102.878 E86.94019
G1 Z0.489 X108.153 Y102.470 E86.94722
G1 Z0.490 X110.107 Y104.425 E86.99214
G1 Z0.490 X110.258 Y104.023 E86.99912
G1 Z0.490 X108.298 Y102.063 E87.04417
G1 Z0.490 X108.443 Y101.655 E87.05120
G1 Z0.491 X110.383 Y103.595 E87.09578
G1 Z0.491 X110.508 Y103.166 E87.10303
G1 Z0.491 X108.511 Y101.169 E87.14893
G1 Z0.491 X108.568 Y100.674 E87.15703
G1 Z0.492 X110.632 Y102.738 E87.20446
G1 Z0.492 X110.757 Y102.310 E87.21171
G1 Z0.492 X108.626 Y100.179 E87.26068
G1 Z0.492 X108.684 Y99.684 E87.26878
G1 Z0.493 X110.881 Y101.882 E87.31928
G1 Z0.493 X110.968 Y101.415 E87.32699
G1 Z0.493 X108.742 Y99.189 E87.37816
G1 Z0.494 X108.679 Y98.574 E87.38821
G1 Z0.494 X111.014 Y100.909 E87.44188
G1 Z0.494 X111.060 Y100.402 E87.45014
G1 Z0.495 X108.606 Y97.948 E87.50655
G1 Z0.495 X108.534 Y97.323 E87.51679
G1 Z0.495 X111.107 Y99.896 E87.57593
G1 Z0.495 X111.153 Y99.389 E87.58419
G1 Z0.496 X108.461 Y96.697 E87.64607
G1 Z0.496 X108.199 Y95.882 E87.65999
G1 Z0.497 X111.155 Y98.838 E87.72794
G1 Z0.497 X111.109 Y98.240 E87.73770
G1 Z0.498 X107.643 Y94.774 E87.81735
G1 X104.110 Y91.240 F30000.000
G1 Z0.499 X99.159 Y86.289 E87.93115 F12000
G1 Z0.499 X98.650 Y86.334 E87.93944
G1 Z0.500 X103.321 Y91.005 E88.04680
G1 X106.565 Y88.720 F30000.000
G1 Z0.500 X106.658 Y88.813 E88.04893 F12000
G1 Z0.5 F30000.000
G1 X107.211 Y87.804 F30000.000
G1 Z0.500 X107.968 Y88.482 E88.08962 F9000
G1 Z0.500 X108.430 Y89.059 E88.11916
G1 Z0.500 X108.847 Y89.457 E88.14222
G1 Z0.501 X109.436 Y90.476 E88.18930
G1 Z0.501 X110.030 Y91.293 E88.22971
G1 Z0.501 X110.349 Y91.962 E88.25934
G1 Z0.501 X110.815 Y92.799 E88.29767
G1 Z0.501 X111.112 Y93.551 E88.33000
G1 Z0.501 X111.305 Y93.986 E88.34907
G1 Z0.502 X111.953 Y96.578 E88.45592
G1 Z0.502 X112.150 Y99.116 E88.55775
G1 Z0.502 X111.933 Y101.650 E88.65947
G1 Z0.503 X111.174 Y104.247 E88.76772
G1 Z0.503 X110.736 Y105.058 E88.80457
G1 Z0.503 X110.107 Y106.393 E88.86361
G1 Z0.503 X109.901 Y106.716 E88.87892
G1 Z0.503 X109.762 Y106.976 E88.89074
G1 Z0.504 X108.817 Y108.077 E88.94876
G1 Z0.504 X108.021 Y109.324 E89.00793
G1 Z0.504 X107.795 Y109.517 E89.01983
G1 Z0.504 X107.532 Y109.837 E89.03637
G1 Z0.504 X106.522 Y110.658 E89.08845
G1 Z0.504 X105.959 Y111.347 E89.12404
G1 Z0.504 X105.266 Y111.749 E89.15607
G1 Z0.505 X104.185 Y112.705 E89.21382
G1 Z0.505 X103.938 Y112.854 E89.22533
G1 Z0.505 X102.382 Y113.344 E89.29061
G1 Z0.505 X101.966 Y113.525 E89.30876
G1 Z0.505 X100.621 Y113.646 E89.36277
G1 Z0.505 X100.000 Y113.721 E89.38779
G1 Z0.506 X99.379 Y113.646 E89.41281
G1 Z0.506 X98.034 Y113.525 E89.46682
G1 Z0.506 X97.618 Y113.344 E89.48497
G1 Z0.506 X96.062 Y112.854 E89.55025
G1 Z0.506 X95.815 Y112.705 E89.56177
G1 Z0.506 X94.734 Y111.749 E89.61951
G1 Z0.506 X94.041 Y111.347 E89.65154
G1 Z0.507 X93.478 Y110.658 E89.68713
G1 Z0.507 X92.468 Y109.837 E89.73921
G1 Z0.507 X92.205 Y109.517 E89.75576
G1 Z0.507 X91.979 Y109.324 E89.76766
G1 Z0.507 X91.183 Y108.077 E89.82682
G1 Z0.507 X90.238 Y106.976 E89.88484
G1 Z0.507 X90.099 Y106.716 E89.89666
G1 Z0.508 X89.893 Y106.393 E89.91197
G1 Z0.508 X89.264 Y105.058 E89.97101
G1 Z0.508 X88.826 Y104.247 E90.00787
G1 Z0.508 X88.067 Y101.650 E90.11611
G1 Z0.509 X87.850 Y99.116 E90.21783
G1 Z0.509 X88.047 Y96.578 E90.31966
G1 Z0.510 X88.695 Y93.986 E90.42652
G1 Z0.510 X88.888 Y93.551 E90.44559
G1 Z0.510 X89.185 Y92.799 E90.47791
G1 Z0.510 X89.651 Y91.962 E90.51625
G1 Z0.510 X89.970 Y91.293 E90.54587
G1 Z0.510 X90.564 Y90.476 E90.58629
G1 Z0.510 X91.153 Y89.457 E90.63336
G1 Z0.511 X91.570 Y89.059 E90.65643
G1 Z0.511 X92.032 Y88.482 E90.68597
G1 Z0.511 X92.789 Y87.804 E90.72665
G1 Z0.511 X93.291 Y87.202 E90.75796
G1 Z0.511 X94.122 Y86.699 E90.79683
G1 Z0.511 X95.478 Y85.608 E90.86644
G1 Z0.512 X97.346 Y85.084 E90.94407
G1 Z0.512 X97.732 Y84.952 E90.96039
G1 Z0.512 X100.000 Y84.766 E91.05140
G1 Z0.512 X102.268 Y84.952 E91.14240
G1 Z0.513 X102.654 Y85.084 E91.15873
G1 Z0.513 X104.522 Y85.608 E91.23636
G1 Z0.513 X105.878 Y86.699 E91.30597
G1 Z0.513 X106.709 Y87.202 E91.34484
G1 Z0.513 X107.211 Y87.804 E91.37615
G1 X99.105 Y85.098 F30000.000
G1 Z0.516 X88.535 Y95.669 E91.62041 F12000
G1 Z0.516 X88.720 Y94.928 E91.63290
G1 Z0.518 X98.502 Y85.145 E91.85895
G1 Z0.518 X97.899 Y85.192 E91.86883
G1 Z0.520 X88.905 Y94.186 E92.07667
G1 X89.273 Y93.263 F30000.000
G1 Z0.522 X97.128 Y85.408 E92.25818 F12000
G1 Z0.522 X96.356 Y85.624 E92.27129
G1 Z0.524 X89.843 Y92.137 E92.42180
G1 X90.683 Y90.741 F30000.000
G1 Z0.525 X95.549 Y85.875 E92.53425 F12000
G1 X93.493 Y87.375 F30000.000
G1 Z0.525 X93.386 Y87.482 E92.53673 F12000
G1 X95.888 Y89.426 F30000.000
G1 Z0.526 X100.273 Y85.042 E92.63805 F12000
G1 Z0.526 X99.713 Y85.046 E92.64721
G1 Z0.527 X93.624 Y91.135 E92.78792
G1 Z0.529 X88.349 Y96.410 E92.90979
G1 Z0.529 X88.264 Y97.051 E92.92037
G1 Z0.529 X91.672 Y93.642 E92.99914
G1 X91.238 Y94.633 F30000.000
G1 Z0.530 X88.217 Y97.654 E93.06894 F12000
G1 Z0.530 X88.170 Y98.256 E93.07881
G1 Z0.531 X90.978 Y95.448 E93.14370
G1 X90.681 Y96.302 F30000.000
G1 Z0.531 X88.124 Y98.859 E93.20278 F12000
G1 Z0.532 X88.129 Y99.409 E93.21178
G1 Z0.532 X90.494 Y97.045 E93.26642
G1 Z0.532 X90.418 Y97.676 E93.27681
G1 Z0.533 X88.173 Y99.921 E93.32870
G1 Z0.533 X88.216 Y100.433 E93.33710
G1 Z0.533 X90.343 Y98.307 E93.38623
G1 Z0.533 X90.267 Y98.938 E93.39662
G1 Z0.534 X88.260 Y100.946 E93.44300
G1 Z0.534 X88.304 Y101.458 E93.45140
G1 Z0.534 X90.280 Y99.481 E93.49707
G1 Z0.534 X90.335 Y99.982 E93.50530
G1 Z0.535 X88.406 Y101.911 E93.54988
G1 Z0.535 X88.532 Y102.341 E93.55720
G1 Z0.535 X90.390 Y100.483 E93.60015
G1 Z0.535 X90.446 Y100.983 E93.60838
G1 Z0.536 X88.658 Y102.771 E93.64970
G1 Z0.536 X88.783 Y103.201 E93.65702
G1 Z0.536 X90.501 Y101.484 E93.69671
G1 Z0.536 X90.641 Y101.900 E93.70388
G1 Z0.537 X88.909 Y103.631 E93.74390
G1 Z0.537 X89.035 Y104.061 E93.75122
G1 Z0.537 X90.792 Y102.305 E93.79182
G1 Z0.537 X90.942 Y102.710 E93.79888
G1 Z0.538 X89.216 Y104.436 E93.83878
G1 Z0.538 X89.411 Y104.797 E93.84548
G1 Z0.538 X91.093 Y103.115 E93.88435
G1 Z0.538 X91.238 Y103.525 E93.89146
G1 Z0.539 X89.596 Y105.168 E93.92942
G1 Z0.539 X89.773 Y105.546 E93.93625
G1 Z0.539 X91.382 Y103.937 E93.97343
G1 Z0.539 X91.581 Y104.294 E93.98010
G1 Z0.540 X89.951 Y105.924 E94.01777
G1 Z0.540 X90.132 Y106.299 E94.02457
G1 Z0.540 X91.798 Y104.633 E94.06306
G1 Z0.540 X92.001 Y104.986 E94.06972
G1 Z0.540 X90.346 Y106.641 E94.10796
G1 Z0.540 X90.569 Y106.974 E94.11450
G1 Z0.541 X92.194 Y105.349 E94.15205
G1 Z0.541 X92.387 Y105.711 E94.15877
G1 Z0.541 X90.826 Y107.273 E94.19485
G1 Z0.541 X91.082 Y107.572 E94.20129
G1 Z0.542 X92.633 Y106.021 E94.23713
G1 Z0.542 X92.887 Y106.323 E94.24358
G1 Z0.542 X91.339 Y107.871 E94.27936
G1 Z0.542 X91.563 Y108.203 E94.28590
G1 Z0.543 X93.127 Y106.639 E94.32205
G1 Z0.543 X93.427 Y106.895 E94.32849
G1 Z0.543 X91.780 Y108.542 E94.36656
G1 Z0.543 X91.996 Y108.881 E94.37313
G1 Z0.543 X93.726 Y107.152 E94.41310
G1 Z0.543 X94.014 Y107.419 E94.41953
G1 Z0.544 X92.229 Y109.205 E94.46079
G1 Z0.544 X92.505 Y109.484 E94.46721
G1 Z0.544 X94.265 Y107.725 E94.50788
G1 Z0.544 X94.560 Y107.985 E94.51431
G1 Z0.545 X92.780 Y109.765 E94.55544
G1 Z0.545 X93.086 Y110.015 E94.56190
G1 Z0.545 X94.917 Y108.184 E94.60420
G1 Z0.545 X95.254 Y108.403 E94.61077
G1 Z0.546 X93.393 Y110.264 E94.65377
G1 Z0.546 X93.691 Y110.521 E94.66021
G1 Z0.546 X95.556 Y108.656 E94.70330
G1 Z0.546 X95.858 Y108.910 E94.70975
G1 Z0.547 X93.941 Y110.827 E94.75404
G1 Z0.547 X94.191 Y111.133 E94.76050
G1 Z0.547 X96.161 Y109.164 E94.80600
G1 Z0.547 X96.502 Y109.378 E94.81259
G1 Z0.548 X94.537 Y111.343 E94.85800
G1 Z0.548 X94.888 Y111.548 E94.86464
G1 Z0.548 X96.920 Y109.516 E94.91160
G1 Z0.548 X97.338 Y109.654 E94.91879
G1 Z0.549 X95.183 Y111.809 E94.96859
G1 Z0.549 X95.478 Y112.069 E94.97502
G1 Z0.550 X97.756 Y109.792 E95.02766
G1 Z0.550 X98.152 Y109.951 E95.03464
G1 Z0.550 X95.773 Y112.330 E95.08962
G1 Z0.550 X96.086 Y112.573 E95.09610
G1 Z0.551 X98.642 Y110.017 E95.15517
G1 Z0.551 X99.154 Y110.061 E95.16357
G1 Z0.551 X96.491 Y112.724 E95.22512
G1 Z0.552 X96.913 Y112.857 E95.23236
G1 Z0.552 X99.662 Y110.108 E95.29589
G1 Z0.552 X100.200 Y110.126 E95.30468
G1 Z0.553 X97.336 Y112.990 E95.37086
G1 Z0.553 X97.754 Y113.128 E95.37805
G1 Z0.554 X100.820 Y110.063 E95.44889
G1 Z0.554 X101.427 Y110.011 E95.45885
G1 Z0.555 X98.155 Y113.283 E95.53445
G1 Z0.555 X98.666 Y113.328 E95.54282
G1 Z0.555 X102.181 Y109.813 E95.62406
G1 Z0.556 X103.011 Y109.539 E95.63834
G1 Z0.556 X99.176 Y113.374 E95.72696
G1 Z0.556 X99.678 Y113.427 E95.73522
G1 Z0.558 X104.476 Y108.630 E95.84609
G1 X107.277 Y109.719 F30000.000
G1 Z0.558 X107.419 Y109.578 E95.84935 F12000
G1 X109.216 Y107.224 F30000.000
G1 Z0.559 X103.811 Y112.629 E95.97425 F12000
G1 Z0.559 X103.000 Y112.885 E95.98815
G1 Z0.561 X110.127 Y105.758 E96.15285
G1 X110.657 Y104.671 F30000.000
G1 Z0.563 X102.166 Y113.163 E96.34906 F12000
G1 Z0.563 X101.456 Y113.317 E96.36095
G1 Z0.565 X111.070 Y103.703 E96.58312
G1 Z0.565 X111.300 Y102.917 E96.59649
G1 Z0.567 X100.845 Y113.372 E96.83807
G1 Z0.567 X100.222 Y113.439 E96.84832
G1 Z0.570 X111.529 Y102.132 E97.10961
G1 X108.924 Y103.070 F30000.000
G1 Z0.571 X111.805 Y100.189 E97.17618 F12000
G1 Z0.571 X111.856 Y99.582 E97.18615
G1 Z0.571 X109.253 Y102.185 E97.24630
G1 Z0.572 X109.511 Y101.371 E97.26026
G1 Z0.572 X111.887 Y98.995 E97.31515
G1 Z0.572 X111.847 Y98.480 E97.32361
G1 Z0.573 X109.580 Y100.746 E97.37598
G1 Z0.573 X109.649 Y100.121 E97.38625
G1 Z0.573 X111.807 Y97.964 E97.43611
G1 Z0.573 X111.767 Y97.448 E97.44456
G1 Z0.574 X109.718 Y99.496 E97.49190
G1 Z0.574 X109.732 Y98.927 E97.50120
G1 Z0.574 X111.727 Y96.932 E97.54731
G1 Z0.574 X111.659 Y96.444 E97.55536
G1 Z0.575 X109.672 Y98.431 E97.60127
G1 Z0.575 X109.613 Y97.935 E97.60944
G1 Z0.575 X111.548 Y95.999 E97.65416
G1 Z0.576 X111.437 Y95.555 E97.66165
G1 Z0.576 X109.553 Y97.438 E97.70517
G1 Z0.576 X109.494 Y96.942 E97.71334
G1 Z0.576 X111.326 Y95.110 E97.75567
G1 Z0.577 X111.215 Y94.665 E97.76316
G1 Z0.577 X109.386 Y96.494 E97.80540
G1 Z0.577 X109.243 Y96.082 E97.81253
G1 Z0.577 X111.103 Y94.221 E97.85553
G1 Z0.578 X110.953 Y93.815 E97.86260
G1 Z0.578 X109.099 Y95.669 E97.90544
G1 Z0.578 X108.959 Y95.253 E97.91262
G1 Z0.578 X110.790 Y93.423 E97.95492
G1 Z0.578 X110.633 Y93.024 E97.96192
G1 Z0.579 X108.825 Y94.831 E98.00369
G1 Z0.579 X108.691 Y94.409 E98.01092
G1 Z0.579 X110.446 Y92.655 E98.05147
G1 Z0.579 X110.247 Y92.298 E98.05814
G1 Z0.580 X108.525 Y94.020 E98.09794
G1 Z0.580 X108.334 Y93.655 E98.10467
G1 Z0.580 X110.056 Y91.934 E98.14445
G1 Z0.580 X109.876 Y91.557 E98.15126
G1 Z0.581 X108.154 Y93.279 E98.19105
G1 Z0.581 X107.905 Y92.973 E98.19750
G1 Z0.581 X109.662 Y91.216 E98.23810
G1 Z0.581 X109.428 Y90.894 E98.24460
G1 Z0.582 X107.643 Y92.679 E98.28585
G1 Z0.582 X107.398 Y92.368 E98.29231
G1 Z0.582 X109.198 Y90.568 E98.33391
G1 Z0.582 X108.994 Y90.216 E98.34056
G1 Z0.583 X107.168 Y92.042 E98.38275
G1 Z0.583 X106.939 Y91.715 E98.38927
G1 Z0.583 X108.790 Y89.864 E98.43205
G1 Z0.583 X108.563 Y89.535 E98.43858
G1 Z0.584 X106.667 Y91.432 E98.48239
G1 Z0.584 X106.390 Y91.153 E98.48882
G1 Z0.584 X108.279 Y89.264 E98.53246
G1 Z0.584 X108.027 Y88.960 E98.53891
G1 Z0.585 X106.127 Y90.860 E98.58282
G1 Z0.585 X105.779 Y90.652 E98.58944
G1 Z0.585 X107.779 Y88.652 E98.63566
G1 Z0.585 X107.486 Y88.389 E98.64209
G1 Z0.586 X105.432 Y90.444 E98.68956
G1 Z0.586 X105.097 Y90.222 E98.69611
G1 Z0.586 X107.193 Y88.127 E98.74453
G1 Z0.586 X106.917 Y87.846 E98.75095
G1 Z0.587 X104.792 Y89.972 E98.80006
G1 Z0.587 X104.487 Y89.721 E98.80651
G1 Z0.587 X106.665 Y87.543 E98.85684
G1 Z0.587 X106.364 Y87.288 E98.86328
G1 Z0.588 X104.181 Y89.471 E98.91371
G1 Z0.588 X103.791 Y89.305 E98.92064
G1 Z0.588 X106.018 Y87.079 E98.97209
G1 Z0.589 X105.678 Y86.862 E98.97867
G1 Z0.589 X103.403 Y89.137 E99.03124
G1 Z0.589 X103.014 Y88.970 E99.03815
G1 Z0.590 X105.370 Y86.614 E99.09259
G1 Z0.590 X105.062 Y86.367 E99.09905
G1 Z0.590 X102.596 Y88.833 E99.15603
G1 Z0.590 X102.178 Y88.695 E99.16323
G1 Z0.591 X104.754 Y86.119 E99.22276
G1 Z0.591 X104.446 Y85.871 E99.22922
G1 Z0.592 X101.702 Y88.616 E99.29264
G1 Z0.592 X101.193 Y88.568 E99.30098
G1 Z0.592 X104.029 Y85.732 E99.36652
G1 Z0.592 X103.595 Y85.611 E99.37389
G1 Z0.593 X100.684 Y88.521 E99.44114
G1 Z0.593 X100.176 Y88.474 E99.44949
G1 Z0.594 X103.161 Y85.489 E99.51847
G1 Z0.594 X102.727 Y85.367 E99.52583
G1 Z0.595 X99.589 Y88.505 E99.59834
G1 Z0.595 X98.980 Y88.558 E99.60833
G1 Z0.596 X102.306 Y85.232 E99.68519
G1 Z0.596 X101.814 Y85.168 E99.69330
G1 Z0.596 X98.370 Y88.612 E99.77287
G1 Z0.597 X97.687 Y88.740 E99.78424
G1 Z0.597 X101.300 Y85.126 E99.86774
G1 Z0.597 X100.787 Y85.084 E99.87616
G1 Z0.598 X96.838 Y89.033 E99.96742
G1 X108.620 Y103.929 F30000.000
G1 Z0.599 X111.753 Y100.797 E100.03980 F12000
G1 Z0.599 X111.701 Y101.405 E100.04976
G1 Z0.600 X107.862 Y105.243 E100.13846
G1 Z0.6 F30000.000
G1 X110.233 Y107.247 F30000.000
G1 Z0.600 X109.952 Y107.718 E100.16038 F9000
G1 Z0.600 X109.175 Y108.623 E100.20810
G1 Z0.601 X108.495 Y109.687 E100.25861
G1 Z0.601 X108.140 Y110.050 E100.27891
G1 Z0.601 X107.892 Y110.420 E100.29676
G1 Z0.601 X106.921 Y111.209 E100.34678
G1 Z0.601 X105.849 Y112.522 E100.41459
G1 Z0.601 X104.409 Y113.319 E100.48042
G1 Z0.602 X103.882 Y113.730 E100.50718
G1 Z0.602 X102.952 Y114.023 E100.54617
G1 Z0.602 X101.935 Y114.466 E100.59053
G1 Z0.602 X101.362 Y114.517 E100.61354
G1 Z0.602 X100.000 Y114.682 E100.66843
G1 Z0.602 X98.638 Y114.517 E100.72331
G1 Z0.603 X98.065 Y114.466 E100.74632
G1 Z0.603 X97.048 Y114.023 E100.79068
G1 Z0.603 X96.118 Y113.730 E100.82967
G1 Z0.603 X95.591 Y113.319 E100.85643
G1 Z0.603 X94.151 Y112.522 E100.92226
G1 Z0.604 X93.079 Y111.209 E100.99007
G1 Z0.604 X92.108 Y110.420 E101.04009
G1 Z0.604 X91.860 Y110.050 E101.05794
G1 Z0.604 X91.505 Y109.687 E101.07824
G1 Z0.604 X90.825 Y108.623 E101.12875
G1 Z0.604 X90.048 Y107.717 E101.17647
G1 Z0.604 X89.767 Y107.247 E101.19839
G1 Z0.605 X89.457 Y106.844 E101.21873
G1 Z0.605 X88.908 Y105.678 E101.27029
G1 Z0.605 X88.078 Y104.143 E101.34007
G1 Z0.605 X87.418 Y101.598 E101.44524
G1 Z0.606 X87.227 Y99.105 E101.54527
G1 Z0.606 X87.365 Y96.607 E101.64534
G1 Z0.606 X87.522 Y95.849 E101.67631
G1 Z0.607 X87.971 Y94.068 E101.74977
G1 Z0.607 X88.466 Y92.954 E101.79851
G1 Z0.607 X89.073 Y91.414 E101.86474
G1 Z0.607 X89.212 Y91.162 E101.87626
G1 Z0.607 X90.115 Y89.918 E101.93773
G1 Z0.608 X90.856 Y88.639 E101.99686
G1 Z0.608 X91.047 Y88.410 E102.00879
G1 Z0.608 X91.209 Y88.151 E102.02102
G1 Z0.608 X92.263 Y87.208 E102.07758
G1 Z0.608 X93.354 Y85.899 E102.14575
G1 Z0.608 X93.434 Y85.839 E102.14974
G1 Z0.609 X94.960 Y85.054 E102.21838
G1 Z0.609 X95.525 Y84.688 E102.24533
G1 Z0.609 X96.650 Y84.373 E102.29204
G1 Z0.609 X97.750 Y83.996 E102.33855
G1 Z0.610 X100.000 Y83.799 E102.42890
G1 Z0.610 X102.250 Y83.996 E102.51924
G1 Z0.610 X103.350 Y84.373 E102.56576
G1 Z0.610 X104.475 Y84.688 E102.61247
G1 Z0.610 X105.040 Y85.054 E102.63942
G1 Z0.611 X106.566 Y85.839 E102.70806
G1 Z0.611 X106.646 Y85.899 E102.71205
G1 Z0.611 X107.737 Y87.208 E102.78022
G1 Z0.611 X108.791 Y88.151 E102.83678
G1 Z0.611 X108.953 Y88.410 E102.84901
G1 Z0.611 X109.144 Y88.639 E102.86094
G1 Z0.612 X109.885 Y89.918 E102.92006
G1 Z0.612 X110.788 Y91.162 E102.98154
G1 Z0.612 X110.927 Y91.414 E102.99306
G1 Z0.612 X111.534 Y92.954 E103.05929
G1 Z0.612 X112.029 Y94.068 E103.10803
G1 Z0.613 X112.478 Y95.849 E103.18149
G1 Z0.613 X112.635 Y96.607 E103.21246
G1 Z0.613 X112.773 Y99.105 E103.31253
G1 Z0.614 X112.582 Y101.598 E103.41256
G1 Z0.614 X111.922 Y104.143 E103.51773
G1 Z0.614 X111.092 Y105.678 E103.58751
G1 Z0.615 X110.543 Y106.844 E103.63907
G1 Z0.615 X110.233 Y107.247 E103.65941
G1 X98.535 Y111.525 F30000.000
G1 Z0.615 X101.283 Y114.273 E103.72293 F12000
G1 Z0.615 X101.792 Y114.225 E103.73128
G1 Z0.616 X99.177 Y111.610 E103.79173
G1 Z0.616 X99.818 Y111.696 E103.80231
G1 Z0.617 X102.198 Y114.076 E103.85734
G1 Z0.617 X102.586 Y113.907 E103.86425
G1 Z0.617 X100.351 Y111.673 E103.91590
G1 Z0.617 X100.842 Y111.608 E103.92399
G1 Z0.618 X102.983 Y113.749 E103.97348
G1 Z0.618 X103.406 Y113.615 E103.98073
G1 Z0.618 X101.333 Y111.543 E104.02865
G1 Z0.619 X101.808 Y111.461 E104.03652
G1 Z0.619 X103.811 Y113.465 E104.08284
G1 Z0.619 X104.123 Y113.221 E104.08931
G1 Z0.620 X102.180 Y111.277 E104.13425
G1 Z0.620 X102.552 Y111.093 E104.14103
G1 Z0.620 X104.460 Y113.001 E104.18515
G1 Z0.620 X104.818 Y112.803 E104.19184
G1 Z0.621 X102.930 Y110.915 E104.23550
G1 Z0.621 X103.349 Y110.779 E104.24271
G1 Z0.621 X105.176 Y112.605 E104.28494
G1 Z0.621 X105.534 Y112.407 E104.29163
G1 Z0.622 X103.701 Y110.574 E104.33402
G1 Z0.622 X103.996 Y110.313 E104.34046
G1 Z0.622 X105.830 Y112.147 E104.38285
G1 Z0.622 X106.080 Y111.841 E104.38931
G1 Z0.623 X104.325 Y110.086 E104.42988
G1 Z0.623 X104.677 Y109.882 E104.43653
G1 Z0.623 X106.330 Y111.535 E104.47473
G1 Z0.623 X106.580 Y111.229 E104.48119
G1 Z0.623 X105.029 Y109.678 E104.51704
G1 Z0.623 X105.381 Y109.474 E104.52369
G1 Z0.624 X106.849 Y110.942 E104.55763
G1 Z0.624 X107.156 Y110.693 E104.56409
G1 Z0.624 X105.671 Y109.207 E104.59843
G1 Z0.624 X105.921 Y108.902 E104.60489
G1 Z0.625 X107.463 Y110.443 E104.64052
G1 Z0.625 X107.751 Y110.176 E104.64696
G1 Z0.625 X106.172 Y108.597 E104.68346
G1 Z0.625 X106.423 Y108.291 E104.68992
G1 Z0.626 X107.982 Y109.850 E104.72596
G1 Z0.626 X108.257 Y109.570 E104.73239
G1 Z0.626 X106.692 Y108.004 E104.76858
G1 Z0.626 X106.991 Y107.748 E104.77502
G1 Z0.626 X108.482 Y109.239 E104.80949
G1 Z0.626 X108.699 Y108.899 E104.81608
G1 Z0.627 X107.291 Y107.491 E104.84863
G1 Z0.627 X107.550 Y107.195 E104.85507
G1 Z0.627 X108.916 Y108.560 E104.88664
G1 Z0.627 X109.162 Y108.250 E104.89311
G1 Z0.628 X107.767 Y106.855 E104.92537
G1 Z0.628 X107.984 Y106.516 E104.93195
G1 Z0.628 X109.419 Y107.951 E104.96513
G1 Z0.628 X109.676 Y107.652 E104.97157
G1 Z0.628 X108.200 Y106.177 E105.00568
G1 Z0.628 X108.417 Y105.837 E105.01226
G1 Z0.629 X109.897 Y107.317 E105.04647
G1 Z0.629 X110.118 Y106.982 E105.05303
G1 Z0.629 X108.614 Y105.478 E105.08780
G1 Z0.629 X108.831 Y105.139 E105.09438
G1 Z0.630 X110.351 Y106.659 E105.12951
G1 Z0.630 X110.529 Y106.281 E105.13635
G1 Z0.630 X109.048 Y104.800 E105.17058
G1 Z0.630 X109.265 Y104.461 E105.17716
G1 Z0.630 X110.707 Y105.903 E105.21049
G1 Z0.631 X110.887 Y105.527 E105.21730
G1 Z0.631 X109.482 Y104.122 E105.24977
G1 Z0.631 X109.626 Y103.710 E105.25691
G1 Z0.631 X111.082 Y105.166 E105.29058
G1 Z0.631 X111.277 Y104.805 E105.29728
G1 Z0.632 X109.751 Y103.279 E105.33256
G1 Z0.632 X109.876 Y102.848 E105.33989
G1 Z0.632 X111.472 Y104.444 E105.37679
G1 Z0.632 X111.668 Y104.083 E105.38350
G1 Z0.633 X110.002 Y102.417 E105.42201
G1 Z0.633 X110.127 Y101.987 E105.42934
G1 Z0.633 X111.789 Y103.649 E105.46777
G1 Z0.633 X111.904 Y103.207 E105.47523
G1 Z0.634 X110.252 Y101.556 E105.51341
G1 Z0.634 X110.303 Y101.051 E105.52171
G1 Z0.634 X112.019 Y102.766 E105.56136
G1 Z0.634 X112.133 Y102.324 E105.56881
G1 Z0.635 X110.350 Y100.541 E105.61004
G1 Z0.635 X110.396 Y100.032 E105.61840
G1 Z0.635 X112.248 Y101.883 E105.66120
G1 Z0.635 X112.342 Y101.422 E105.66889
G1 Z0.636 X110.443 Y99.522 E105.71280
G1 Z0.636 X110.470 Y98.993 E105.72146
G1 Z0.636 X112.382 Y100.905 E105.76566
G1 Z0.636 X112.422 Y100.389 E105.77413
G1 Z0.637 X110.424 Y98.391 E105.82032
G1 Z0.637 X110.378 Y97.789 E105.83019
G1 Z0.637 X112.461 Y99.872 E105.87837
G1 Z0.637 X112.501 Y99.356 E105.88683
G1 Z0.638 X110.331 Y97.186 E105.93699
G1 Z0.638 X110.260 Y96.559 E105.94731
G1 Z0.639 X112.504 Y98.803 E105.99917
G1 Z0.639 X112.471 Y98.214 E106.00881
G1 Z0.639 X110.077 Y95.820 E106.06415
G1 Z0.639 X109.886 Y95.073 E106.07676
G1 Z0.640 X112.438 Y97.625 E106.13577
G1 Z0.640 X112.405 Y97.036 E106.14541
G1 Z0.641 X109.568 Y94.199 E106.21101
G1 X108.892 Y92.966 F30000.000
G1 Z0.642 X112.336 Y96.411 E106.29064 F12000
G1 Z0.642 X112.180 Y95.698 E106.30256
G1 Z0.643 X108.385 Y91.903 E106.39030
G1 X110.592 Y91.331 F30000.000
G1 Z0.644 X104.110 Y84.848 E106.54017 F12000
G1 Z0.644 X103.337 Y84.631 E106.55329
G1 Z0.646 X111.005 Y92.299 E106.73055
G1 X111.381 Y93.232 F30000.000
G1 Z0.648 X102.497 Y84.348 E106.93592 F12000
G1 Z0.648 X101.804 Y84.211 E106.94747
G1 Z0.651 X111.804 Y94.211 E107.17866
G1 Z0.651 X111.992 Y94.955 E107.19120
G1 Z0.653 X101.195 Y84.157 E107.44081
G1 Z0.653 X100.585 Y84.104 E107.45081
G1 Z0.654 X105.055 Y88.573 E107.55415
G1 X103.676 Y87.751 F30000.000
G1 Z0.655 X99.980 Y84.055 E107.63960 F12000
G1 Z0.655 X99.471 Y84.102 E107.64796
G1 Z0.656 X102.787 Y87.418 E107.72462
G1 X101.891 Y87.078 F30000.000
G1 Z0.657 X98.962 Y84.149 E107.79232 F12000
G1 Z0.657 X98.452 Y84.195 E107.80070
G1 Z0.658 X101.267 Y87.010 E107.86578
G1 Z0.658 X100.643 Y86.942 E107.87604
G1 Z0.658 X97.936 Y84.235 E107.93861
G1 Z0.658 X97.495 Y84.350 E107.94606
G1 Z0.659 X100.019 Y86.874 E108.00440
G1 Z0.659 X99.518 Y86.929 E108.01264
G1 Z0.660 X97.081 Y84.492 E108.06897
G1 Z0.660 X96.664 Y84.631 E108.07616
G1 Z0.660 X99.019 Y86.986 E108.13061
G1 Z0.660 X98.521 Y87.044 E108.13881
G1 Z0.661 X96.230 Y84.753 E108.19178
G1 Z0.661 X95.795 Y84.875 E108.19915
G1 Z0.661 X98.013 Y87.093 E108.25043
G1 Z0.662 X97.611 Y87.246 E108.25747
G1 Z0.662 X95.421 Y85.056 E108.30809
G1 Z0.662 X95.083 Y85.275 E108.31467
G1 Z0.663 X97.222 Y87.414 E108.36412
G1 Z0.663 X96.834 Y87.581 E108.37104
G1 Z0.663 X94.716 Y85.463 E108.42000
G1 Z0.663 X94.349 Y85.652 E108.42675
G1 Z0.664 X96.417 Y87.720 E108.47456
G1 Z0.664 X95.998 Y87.858 E108.48176
G1 Z0.664 X93.982 Y85.841 E108.52839
G1 Z0.664 X93.615 Y86.030 E108.53514
G1 Z0.665 X95.669 Y88.084 E108.58262
G1 Z0.665 X95.354 Y88.326 E108.58911
G1 Z0.665 X93.339 Y86.311 E108.63569
G1 Z0.665 X93.086 Y86.614 E108.64214
G1 Z0.666 X95.008 Y88.536 E108.68657
G1 Z0.666 X94.661 Y88.745 E108.69318
G1 Z0.666 X92.833 Y86.917 E108.73544
G1 Z0.667 X92.581 Y87.221 E108.74190
G1 Z0.667 X94.315 Y88.955 E108.78200
G1 Z0.667 X93.984 Y89.180 E108.78854
G1 Z0.667 X92.309 Y87.505 E108.82726
G1 Z0.667 X92.016 Y87.768 E108.83370
G1 Z0.668 X93.711 Y89.463 E108.87289
G1 Z0.668 X93.464 Y89.772 E108.87936
G1 Z0.668 X91.723 Y88.031 E108.91962
G1 Z0.668 X91.429 Y88.293 E108.92606
G1 Z0.669 X93.217 Y90.081 E108.96738
G1 Z0.669 X92.970 Y90.390 E108.97385
G1 Z0.669 X91.201 Y88.621 E109.01474
G1 Z0.669 X90.970 Y88.946 E109.02126
G1 Z0.670 X92.693 Y90.670 E109.06110
G1 Z0.670 X92.409 Y90.941 E109.06753
G1 Z0.670 X90.766 Y89.298 E109.10551
G1 Z0.670 X90.562 Y89.650 E109.11217
G1 Z0.671 X92.125 Y91.213 E109.14829
G1 Z0.671 X91.840 Y91.484 E109.15472
G1 Z0.671 X90.358 Y90.003 E109.18897
G1 Z0.671 X90.129 Y90.329 E109.19550
G1 Z0.671 X91.644 Y91.844 E109.23051
G1 Z0.672 X91.464 Y92.221 E109.23733
G1 Z0.672 X89.895 Y90.652 E109.27360
G1 Z0.672 X89.661 Y90.974 E109.28011
G1 Z0.672 X91.284 Y92.597 E109.31764
G1 Z0.672 X91.105 Y92.974 E109.32446
G1 Z0.673 X89.427 Y91.296 E109.36324
G1 Z0.673 X89.244 Y91.669 E109.37003
G1 Z0.673 X90.913 Y93.337 E109.40861
G1 Z0.673 X90.713 Y93.694 E109.41529
G1 Z0.674 X89.087 Y92.067 E109.45290
G1 Z0.674 X88.929 Y92.466 E109.45990
G1 Z0.674 X90.514 Y94.051 E109.49654
G1 Z0.674 X90.333 Y94.426 E109.50335
G1 Z0.675 X88.772 Y92.865 E109.53943
G1 Z0.675 X88.608 Y93.257 E109.54637
G1 Z0.675 X90.192 Y94.841 E109.58300
G1 Z0.675 X90.052 Y95.257 E109.59017
G1 Z0.676 X88.437 Y93.642 E109.62751
G1 Z0.676 X88.266 Y94.027 E109.63440
G1 Z0.676 X89.911 Y95.672 E109.67244
G1 Z0.676 X89.771 Y96.088 E109.67961
G1 Z0.676 X88.135 Y94.452 E109.71743
G1 Z0.677 X88.023 Y94.896 E109.72491
G1 Z0.677 X89.715 Y96.588 E109.76403
G1 Z0.677 X89.675 Y97.104 E109.77249
G1 Z0.677 X87.911 Y95.340 E109.81328
G1 Z0.678 X87.799 Y95.784 E109.82077
G1 Z0.678 X89.635 Y97.621 E109.86323
G1 Z0.678 X89.596 Y98.137 E109.87170
G1 Z0.678 X87.699 Y96.240 E109.91555
G1 Z0.679 X87.613 Y96.710 E109.92336
G1 Z0.679 X89.556 Y98.653 E109.96828
G1 Z0.679 X89.526 Y99.179 E109.97689
G1 Z0.680 X87.583 Y97.237 E110.02179
G1 Z0.680 X87.554 Y97.764 E110.03041
G1 Z0.680 X89.582 Y99.791 E110.07729
G1 Z0.680 X89.637 Y100.403 E110.08733
G1 Z0.681 X87.525 Y98.290 E110.13617
G1 Z0.681 X87.496 Y98.817 E110.14480
G1 Z0.681 X89.693 Y101.015 E110.19561
G1 Z0.681 X89.749 Y101.627 E110.20565
G1 Z0.682 X87.501 Y99.379 E110.25763
G1 Z0.682 X87.547 Y99.981 E110.26751
G1 Z0.683 X89.805 Y102.239 E110.31971
G1 Z0.683 X89.861 Y102.851 E110.32976
G1 Z0.683 X87.593 Y100.583 E110.38219
G1 Z0.683 X87.639 Y101.185 E110.39206
G1 Z0.684 X90.413 Y103.959 E110.45619
G1 X91.402 Y105.504 F30000.000
G1 Z0.685 X87.742 Y101.844 E110.54079 F12000
G1 Z0.685 X87.937 Y102.595 E110.55347
G1 Z0.686 X92.280 Y106.938 E110.65387
G1 X90.994 Y108.432 F30000.000
G1 Z0.687 X95.592 Y113.030 E110.76017 F12000
G1 X96.797 Y113.679 F30000.000
G1 Z0.689 X89.535 Y106.417 E110.92806 F12000
G1 X89.011 Y105.337 F30000.000
G1 Z0.691 X97.710 Y114.036 E111.12917 F12000
G1 Z0.691 X98.480 Y114.250 E111.14222
G1 Z0.693 X88.355 Y104.125 E111.37628
G1 Z0.694 X88.132 Y103.346 E111.38953
G1 Z0.696 X99.106 Y114.320 E111.64323
G1 Z0.696 X99.738 Y114.396 E111.65364
G1 Z0.697 X95.088 Y109.746 E111.76115
G1 X96.689 Y110.791 F30000.000
G1 Z0.698 X100.291 Y114.393 E111.84441 F12000
G1 Z0.698 X100.787 Y114.333 E111.85258
G1 Z0.699 X97.644 Y111.190 E111.92523
G1 X94.348 Y112.342 F30000.000
G1 Z0.699 X94.252 Y112.246 E111.92745 F12000
G1 X109.396 Y89.578 F30000.000
G1 Z0.700 X105.278 Y85.460 E112.02265 F12000
G1 X106.423 Y86.050 F30000.000
G1 Z0.700 X106.542 Y86.168 E112.02540 F12000
G1 Z0.7 F30000.000
G1 X107.019 Y85.440 F30000.000
G1 Z0.700 X107.760 Y86.007 E112.06274 F9000
G1 Z0.700 X108.264 Y86.612 E112.09423
G1 Z0.700 X108.721 Y87.021 E112.11873
G1 Z0.701 X109.318 Y87.974 E112.16372
G1 Z0.701 X110.007 Y88.798 E112.20668
G1 Z0.701 X110.333 Y89.361 E112.23274
